; generated by Slic3r 1.2.9 on 2017-09-11 at 18:56:52

; external perimeters extrusion width = 0.40mm
; perimeters extrusion width = 0.67mm
; infill extrusion width = 0.67mm
; solid infill extrusion width = 0.67mm
; top infill extrusion width = 0.67mm

M107
M190 S70 ; set bed temperature
M104 S245 ; set temperature
G28 ; home all axes
G29 ; level compensation
G1 Z5 F5000 ; lift nozzle

M109 S245 ; wait for temperature to be reached
G21 ; set units to millimeters
G90 ; use absolute coordinates
M82 ; use absolute distances for extrusion
G92 E0
G1 Z0.350 F6000.000
G1 E-2.00000 F2400.00000
G92 E0
G1 X79.109 Y79.109 F6000.000
G1 E2.00000 F2400.00000
G1 X85.151 Y73.067 E2.77696 F1188.000
G1 X86.064 Y72.293 E2.88578
G1 X87.186 Y71.492 E3.01120
G1 X88.157 Y70.907 E3.11425
G1 X89.541 Y70.215 E3.25495
G1 X90.388 Y69.857 E3.33852
G1 X91.991 Y69.296 E3.49297
G1 X92.740 Y69.078 E3.56391
G1 X94.514 Y68.665 E3.72952
G1 X95.197 Y68.539 E3.79271
G1 X97.088 Y68.286 E3.96613
G1 X97.734 Y68.229 E4.02508
G1 X99.683 Y68.144 E4.20252
G1 X100.317 Y68.144 E4.26016
G1 X102.266 Y68.229 E4.43760
G1 X102.912 Y68.286 E4.49655 F1188.000
G1 X104.803 Y68.539 E4.66997
G1 X105.486 Y68.665 E4.73315
G1 X107.260 Y69.078 E4.89877
G1 X108.009 Y69.296 E4.96971
G1 X109.612 Y69.857 E5.12415
G1 X110.459 Y70.215 E5.20774
G1 X111.843 Y70.907 E5.34842
G1 X112.814 Y71.492 E5.45148
G1 X113.936 Y72.293 E5.57690
G1 X114.849 Y73.067 E5.68572
G1 X126.933 Y85.151 E7.23963
G1 X127.707 Y86.064 E7.34845
G1 X128.508 Y87.186 E7.47387
G1 X129.093 Y88.157 E7.57693
G1 X129.785 Y89.541 E7.71761
G1 X130.143 Y90.388 E7.80120
G1 X130.704 Y91.991 E7.95564
G1 X130.922 Y92.740 E8.02658
G1 X131.335 Y94.514 E8.19220
G1 X131.461 Y95.197 E8.25538
G1 X131.714 Y97.088 E8.42880
G1 X131.771 Y97.734 E8.48776
G1 X131.856 Y99.683 E8.66520
G1 X131.856 Y100.317 E8.72283
G1 X131.771 Y102.266 E8.90028
G1 X131.714 Y102.912 E8.95923
G1 X131.461 Y104.803 E9.13265
G1 X131.335 Y105.486 E9.19583
G1 X130.922 Y107.260 E9.36145
G1 X130.704 Y108.009 E9.43239
G1 X130.143 Y109.612 E9.58683
G1 X129.785 Y110.459 E9.67042
G1 X129.093 Y111.843 E9.81110
G1 X128.508 Y112.814 E9.91416
G1 X127.707 Y113.936 E10.03958
G1 X126.933 Y114.849 E10.14840
G1 X114.849 Y126.933 E11.70231
G1 X113.936 Y127.707 E11.81113
G1 X112.814 Y128.508 E11.93655
G1 X111.843 Y129.093 E12.03961
G1 X110.459 Y129.785 E12.18031
G1 X109.612 Y130.143 E12.26388
G1 X108.009 Y130.704 E12.41832
G1 X107.260 Y130.922 E12.48926
G1 X105.486 Y131.335 E12.65488
G1 X104.803 Y131.461 E12.71806
G1 X102.912 Y131.714 E12.89148
G1 X102.266 Y131.771 E12.95043
G1 X100.317 Y131.856 E13.12788
G1 X99.683 Y131.856 E13.18551
G1 X97.734 Y131.771 E13.36295
G1 X97.088 Y131.714 E13.42191
G1 X95.197 Y131.461 E13.59533
G1 X94.514 Y131.335 E13.65851
G1 X92.740 Y130.922 E13.82413
G1 X91.991 Y130.704 E13.89507
G1 X90.388 Y130.143 E14.04951
G1 X89.541 Y129.785 E14.13310
G1 X88.157 Y129.093 E14.27378
G1 X87.186 Y128.508 E14.37684
G1 X86.064 Y127.707 E14.50226
G1 X85.151 Y126.933 E14.61108
G1 X73.067 Y114.849 E16.16499
G1 X72.293 Y113.936 E16.27381
G1 X71.492 Y112.814 E16.39923
G1 X70.907 Y111.843 E16.50229
G1 X70.215 Y110.459 E16.64297
G1 X69.857 Y109.612 E16.72656
G1 X69.296 Y108.009 E16.88100
G1 X69.078 Y107.260 E16.95194
G1 X68.665 Y105.486 E17.11756
G1 X68.539 Y104.803 E17.18074
G1 X68.286 Y102.912 E17.35416
G1 X68.229 Y102.266 E17.41311
G1 X68.144 Y100.317 E17.59055
G1 X68.144 Y99.683 E17.64819
G1 X68.229 Y97.734 E17.82563
G1 X68.286 Y97.088 E17.88458
G1 X68.539 Y95.197 E18.05800
G1 X68.665 Y94.514 E18.12119
G1 X69.078 Y92.740 E18.28680
G1 X69.296 Y91.991 E18.35775
G1 X69.857 Y90.388 E18.51219
G1 X70.215 Y89.541 E18.59578
G1 X70.907 Y88.157 E18.73646
G1 X71.492 Y87.186 E18.83951
G1 X72.293 Y86.064 E18.96493
G1 X73.067 Y85.151 E19.07376
G1 X79.066 Y79.151 E19.84525
G1 X79.551 Y79.551 F6000.000
G1 X85.593 Y73.509 E20.62221 F1188.000
G1 X86.427 Y72.802 E20.72165
G1 X87.550 Y72.000 E20.84707
G1 X88.437 Y71.466 E20.94124
G1 X89.821 Y70.774 E21.08194
G1 X90.594 Y70.447 E21.15831
G1 X92.197 Y69.886 E21.31275
G1 X92.882 Y69.687 E21.37758
G1 X94.656 Y69.273 E21.54319
G1 X95.280 Y69.159 E21.60093
G1 X97.171 Y68.906 E21.77435
G1 X97.761 Y68.853 E21.82822
G1 X99.710 Y68.768 E22.00566
G1 X100.290 Y68.768 E22.05833
G1 X102.239 Y68.853 E22.23577
G1 X102.829 Y68.906 E22.28965 F1188.000
G1 X104.720 Y69.159 E22.46307
G1 X105.344 Y69.273 E22.52080
G1 X107.118 Y69.687 E22.68642
G1 X107.803 Y69.886 E22.75125
G1 X109.406 Y70.447 E22.90569
G1 X110.179 Y70.774 E22.98207
G1 X111.563 Y71.466 E23.12275
G1 X112.450 Y72.000 E23.21693
G1 X113.573 Y72.802 E23.34235
G1 X114.407 Y73.509 E23.44179
G1 X126.491 Y85.593 E24.99570
G1 X127.198 Y86.427 E25.09514
G1 X128.000 Y87.550 E25.22056
G1 X128.534 Y88.437 E25.31473
G1 X129.226 Y89.821 E25.45541
G1 X129.553 Y90.594 E25.53180
G1 X130.114 Y92.197 E25.68624
G1 X130.313 Y92.882 E25.75107
G1 X130.727 Y94.656 E25.91668
G1 X130.841 Y95.280 E25.97442
G1 X131.094 Y97.171 E26.14784
G1 X131.147 Y97.761 E26.20171
G1 X131.232 Y99.710 E26.37915
G1 X131.232 Y100.290 E26.43182
G1 X131.147 Y102.239 E26.60926
G1 X131.094 Y102.829 E26.66313
G1 X130.841 Y104.720 E26.83656
G1 X130.727 Y105.344 E26.89429
G1 X130.313 Y107.118 E27.05991
G1 X130.114 Y107.803 E27.12473
G1 X129.553 Y109.406 E27.27918
G1 X129.226 Y110.179 E27.35556
G1 X128.534 Y111.563 E27.49624
G1 X128.000 Y112.450 E27.59041
G1 X127.198 Y113.573 E27.71583
G1 X126.491 Y114.407 E27.81528
G1 X114.407 Y126.491 E29.36919
G1 X113.573 Y127.198 E29.46863
G1 X112.450 Y128.000 E29.59405
G1 X111.563 Y128.534 E29.68822
G1 X110.179 Y129.226 E29.82892
G1 X109.406 Y129.553 E29.90529
G1 X107.803 Y130.114 E30.05973
G1 X107.118 Y130.313 E30.12455
G1 X105.344 Y130.727 E30.29017
G1 X104.720 Y130.841 E30.34791
G1 X102.829 Y131.094 E30.52133
G1 X102.239 Y131.147 E30.57520
G1 X100.290 Y131.232 E30.75264
G1 X99.710 Y131.232 E30.80531
G1 X97.761 Y131.147 E30.98275
G1 X97.171 Y131.094 E31.03662
G1 X95.280 Y130.841 E31.21004
G1 X94.656 Y130.727 E31.26778
G1 X92.882 Y130.313 E31.43339
G1 X92.197 Y130.114 E31.49822
G1 X90.594 Y129.553 E31.65266
G1 X89.821 Y129.226 E31.72905
G1 X88.437 Y128.534 E31.86973
G1 X87.550 Y128.000 E31.96390
G1 X86.427 Y127.198 E32.08932
G1 X85.593 Y126.491 E32.18876
G1 X73.509 Y114.407 E33.74267
G1 X72.802 Y113.573 E33.84211
G1 X72.000 Y112.450 E33.96754
G1 X71.466 Y111.563 E34.06171
G1 X70.774 Y110.179 E34.20239
G1 X70.447 Y109.406 E34.27877
G1 X69.886 Y107.803 E34.43322
G1 X69.687 Y107.118 E34.49805
G1 X69.273 Y105.344 E34.66366
G1 X69.159 Y104.720 E34.72139
G1 X68.906 Y102.829 E34.89482
G1 X68.853 Y102.239 E34.94869
G1 X68.768 Y100.290 E35.12613
G1 X68.768 Y99.710 E35.17880
G1 X68.853 Y97.761 E35.35624
G1 X68.906 Y97.171 E35.41011
G1 X69.159 Y95.280 E35.58353
G1 X69.273 Y94.656 E35.64127
G1 X69.687 Y92.882 E35.80688
G1 X69.886 Y92.197 E35.87171
G1 X70.447 Y90.594 E36.02615
G1 X70.774 Y89.821 E36.10253
G1 X71.466 Y88.437 E36.24321
G1 X72.000 Y87.550 E36.33739
G1 X72.802 Y86.427 E36.46281
G1 X73.509 Y85.593 E36.56225
G1 X79.508 Y79.593 E37.33375
G1 E35.33375 F2400.00000
G92 E0
G1 X104.696 Y104.696 F6000.000
G1 E2.00000 F2400.00000
G1 X104.285 Y105.107 E2.05283 F990.000
G1 X103.333 Y105.773 E2.15848
G1 X102.280 Y106.264 E2.26414
G1 X101.158 Y106.565 E2.36980
G1 X100.000 Y106.666 E2.47546
G1 X98.842 Y106.565 E2.58112
G1 X97.720 Y106.264 E2.68677
G1 X96.667 Y105.773 E2.79243
G1 X95.715 Y105.107 E2.89809
G1 X94.893 Y104.285 E3.00375
G1 X94.227 Y103.333 E3.10941
G1 X93.736 Y102.280 E3.21506
G1 X93.435 Y101.158 E3.32072
G1 X93.334 Y100.000 E3.42638
G1 X93.435 Y98.842 E3.53204
G1 X93.736 Y97.720 E3.63770
G1 X94.227 Y96.667 E3.74335
G1 X94.893 Y95.715 E3.84901
G1 X95.715 Y94.893 E3.95467
G1 X96.667 Y94.227 E4.06033
G1 X97.720 Y93.736 E4.16599
G1 X98.842 Y93.435 E4.27164
G1 X99.948 Y93.338 E4.37260 F990.000
G1 X101.154 Y93.434 E4.48254
G1 X102.280 Y93.736 E4.58856
G1 X103.333 Y94.227 E4.69421
G1 X104.285 Y94.893 E4.79987
G1 X105.107 Y95.715 E4.90553
G1 X105.773 Y96.667 E5.01119
G1 X106.264 Y97.720 E5.11685
G1 X106.565 Y98.842 E5.22250
G1 X106.666 Y100.000 E5.32816
G1 X106.565 Y101.158 E5.43382
G1 X106.264 Y102.280 E5.53948
G1 X105.803 Y103.269 E5.63872
G1 X105.110 Y104.281 E5.75023
G1 X104.738 Y104.653 E5.79809
G1 X104.254 Y104.254 F6000.000
G1 X103.882 Y104.626 E5.84594 F594.000
G1 X103.019 Y105.230 E5.94166
G1 X102.065 Y105.675 E6.03737
G1 X101.049 Y105.947 E6.13309
G1 X100.000 Y106.039 E6.22880
G1 X98.951 Y105.947 E6.32452
G1 X97.935 Y105.675 E6.42023
G1 X96.981 Y105.230 E6.51595
G1 X96.118 Y104.626 E6.61167
G1 X95.374 Y103.882 E6.70738
G1 X94.770 Y103.019 E6.80310
G1 X94.325 Y102.065 E6.89881
G1 X94.053 Y101.049 E6.99453
G1 X93.961 Y100.000 E7.09024
G1 X94.053 Y98.951 E7.18596
G1 X94.325 Y97.935 E7.28168
G1 X94.770 Y96.981 E7.37739
G1 X95.374 Y96.118 E7.47311
G1 X96.118 Y95.374 E7.56882
G1 X96.981 Y94.770 E7.66454
G1 X97.935 Y94.325 E7.76025
G1 X98.951 Y94.053 E7.85597
G1 X99.951 Y93.965 E7.94721 F594.000
G1 X101.047 Y94.053 E8.04721
G1 X102.065 Y94.325 E8.14305
G1 X103.019 Y94.770 E8.23877
G1 X103.882 Y95.374 E8.33448
G1 X104.626 Y96.118 E8.43020
G1 X105.230 Y96.981 E8.52592
G1 X105.675 Y97.935 E8.62163
G1 X105.947 Y98.951 E8.71735
G1 X106.039 Y100.000 E8.81306
G1 X105.947 Y101.049 E8.90878
G1 X105.675 Y102.065 E9.00449
G1 X105.258 Y102.959 E9.09410
G1 X104.627 Y103.880 E9.19567
G1 X104.296 Y104.211 E9.23825
G1 X104.357 Y104.640 F6000.000
G1 X110.252 Y110.252 F6000.000
G1 X110.252 Y118.915 E10.02599 F990.000
G1 X110.123 Y119.652 E10.09403
G1 X109.751 Y120.348 E10.16576
G1 X109.077 Y121.070 E10.25560
G1 X108.096 Y121.771 E10.36517
G1 X106.836 Y122.401 E10.49327
G1 X105.341 Y122.924 E10.63730
G1 X103.664 Y123.315 E10.79387
G1 X101.863 Y123.556 E10.95908
G1 X100.000 Y123.638 E11.12867
G1 X98.137 Y123.556 E11.29826
G1 X96.336 Y123.315 E11.46346
G1 X94.659 Y122.924 E11.62004
G1 X93.164 Y122.401 E11.76407
G1 X91.904 Y121.771 E11.89217
G1 X90.923 Y121.070 E12.00174
G1 X90.249 Y120.348 E12.09158
G1 X89.877 Y119.652 E12.16331
G1 X89.748 Y118.915 E12.23134
G1 X89.748 Y110.252 E13.01909
G1 X81.085 Y110.252 E13.80684
G1 X80.348 Y110.123 E13.87487
G1 X79.652 Y109.751 E13.94660
G1 X78.930 Y109.077 E14.03644
G1 X78.229 Y108.096 E14.14602
G1 X77.599 Y106.836 E14.27411
G1 X77.076 Y105.341 E14.41815
G1 X76.685 Y103.664 E14.57472
G1 X76.444 Y101.863 E14.73992
G1 X76.362 Y100.000 E14.90951
G1 X76.444 Y98.137 E15.07911
G1 X76.685 Y96.336 E15.24431
G1 X77.076 Y94.659 E15.40088
G1 X77.599 Y93.164 E15.54491
G1 X78.229 Y91.904 E15.67301
G1 X78.930 Y90.923 E15.78258
G1 X79.652 Y90.249 E15.87242
G1 X80.348 Y89.877 E15.94415
G1 X81.085 Y89.748 E16.01219
G1 X89.748 Y89.748 E16.79994
G1 X89.748 Y81.085 E17.58768
G1 X89.877 Y80.348 E17.65572
G1 X90.249 Y79.652 E17.72745
G1 X90.923 Y78.930 E17.81729
G1 X91.904 Y78.229 E17.92686
G1 X93.164 Y77.599 E18.05496
G1 X94.659 Y77.076 E18.19899
G1 X96.336 Y76.685 E18.35556
G1 X98.137 Y76.444 E18.52076
G1 X100.000 Y76.362 E18.69036
G1 X101.863 Y76.444 E18.85995
G1 X103.664 Y76.685 E19.02515
G1 X105.341 Y77.076 E19.18172
G1 X106.836 Y77.599 E19.32576
G1 X108.096 Y78.229 E19.45386
G1 X109.077 Y78.930 E19.56343
G1 X109.751 Y79.652 E19.65327
G1 X110.123 Y80.348 E19.72500
G1 X110.252 Y81.085 E19.79303
G1 X110.252 Y89.748 E20.58078
G1 X118.915 Y89.748 E21.36853
G1 X119.652 Y89.877 E21.43656
G1 X120.348 Y90.249 E21.50829
G1 X121.070 Y90.923 E21.59813
G1 X121.771 Y91.904 E21.70770
G1 X122.401 Y93.164 E21.83580
G1 X122.924 Y94.659 E21.97984
G1 X123.315 Y96.336 E22.13641
G1 X123.556 Y98.137 E22.30161
G1 X123.638 Y100.000 E22.47120
G1 X123.556 Y101.863 E22.64080
G1 X123.315 Y103.664 E22.80600
G1 X122.924 Y105.341 E22.96257
G1 X122.401 Y106.836 E23.10660
G1 X121.771 Y108.096 E23.23470
G1 X121.070 Y109.077 E23.34427
G1 X120.348 Y109.751 E23.43411
G1 X119.652 Y110.123 E23.50584
G1 X118.915 Y110.252 E23.57388
G1 X110.312 Y110.252 E24.35617
G1 X110.877 Y110.877 F6000.000
G1 X110.877 Y118.970 E25.09203 F495.000
G1 X110.721 Y119.859 E25.17413
G1 X110.263 Y120.715 E25.26238
G1 X109.491 Y121.542 E25.36531
G1 X108.419 Y122.308 E25.48504
G1 X107.080 Y122.977 E25.62121
G1 X105.516 Y123.525 E25.77191
G1 X103.777 Y123.930 E25.93427
G1 X101.919 Y124.179 E26.10474
G1 X100.000 Y124.263 E26.27937
G1 X98.081 Y124.179 E26.45399
G1 X96.223 Y123.930 E26.62446
G1 X94.484 Y123.525 E26.78682
G1 X92.920 Y122.977 E26.93752
G1 X91.581 Y122.308 E27.07369
G1 X90.509 Y121.542 E27.19342
G1 X89.737 Y120.715 E27.29635
G1 X89.279 Y119.859 E27.38460
G1 X89.123 Y118.970 E27.46671
G1 X89.123 Y110.877 E28.20256
G1 X81.030 Y110.877 E28.93842
G1 X80.141 Y110.721 E29.02052
G1 X79.285 Y110.263 E29.10878
G1 X78.458 Y109.491 E29.21171
G1 X77.692 Y108.419 E29.33144
G1 X77.023 Y107.080 E29.46760
G1 X76.475 Y105.516 E29.61831
G1 X76.070 Y103.777 E29.78067
G1 X75.821 Y101.919 E29.95114
G1 X75.737 Y100.000 E30.12576
G1 X75.821 Y98.081 E30.30039
G1 X76.070 Y96.223 E30.47086
G1 X76.475 Y94.484 E30.63322
G1 X77.023 Y92.920 E30.78392
G1 X77.692 Y91.581 E30.92008
G1 X78.458 Y90.509 E31.03982
G1 X79.285 Y89.737 E31.14275
G1 X80.141 Y89.279 E31.23100
G1 X81.030 Y89.123 E31.31310
G1 X89.123 Y89.123 E32.04896
G1 X89.123 Y81.030 E32.78482
G1 X89.279 Y80.141 E32.86692
G1 X89.737 Y79.285 E32.95517
G1 X90.509 Y78.458 E33.05811
G1 X91.581 Y77.692 E33.17784
G1 X92.920 Y77.023 E33.31400
G1 X94.484 Y76.475 E33.46471
G1 X96.223 Y76.070 E33.62706
G1 X98.081 Y75.821 E33.79753
G1 X100.000 Y75.737 E33.97216
G1 X101.919 Y75.821 E34.14678
G1 X103.777 Y76.070 E34.31725
G1 X105.516 Y76.475 E34.47961
G1 X107.080 Y77.023 E34.63032
G1 X108.419 Y77.692 E34.76648
G1 X109.491 Y78.458 E34.88621
G1 X110.263 Y79.285 E34.98914
G1 X110.721 Y80.141 E35.07740
G1 X110.877 Y81.030 E35.15950
G1 X110.877 Y89.123 E35.89536
G1 X118.970 Y89.123 E36.63122
G1 X119.859 Y89.279 E36.71332
G1 X120.715 Y89.737 E36.80157
G1 X121.542 Y90.509 E36.90450
G1 X122.308 Y91.581 E37.02423
G1 X122.977 Y92.920 E37.16040
G1 X123.525 Y94.484 E37.31110
G1 X123.930 Y96.223 E37.47346
G1 X124.179 Y98.081 E37.64393
G1 X124.263 Y100.000 E37.81856
G1 X124.179 Y101.919 E37.99318
G1 X123.930 Y103.777 E38.16365
G1 X123.525 Y105.516 E38.32601
G1 X122.977 Y107.080 E38.47671
G1 X122.308 Y108.419 E38.61288
G1 X121.542 Y109.491 E38.73261
G1 X120.715 Y110.263 E38.83554
G1 X119.859 Y110.721 E38.92379
G1 X118.970 Y110.877 E39.00590
G1 X110.937 Y110.877 E39.73630
G1 X110.477 Y110.877 F6000.000
G1 X106.721 Y97.814 F6000.000
G1 X118.781 Y109.874 E41.29930 F792.000
G1 X117.890 Y109.874 E41.38094
G1 X106.966 Y98.950 E42.79676
G1 X107.042 Y99.917 E42.88562
G1 X116.999 Y109.874 E44.17615
G1 X116.109 Y109.874 E44.25778
G1 X106.971 Y100.736 E45.44215
G1 X106.836 Y101.492 E45.51255
G1 X115.218 Y109.874 E46.59889
G1 X114.327 Y109.874 E46.68052
G1 X106.648 Y102.194 E47.67581
G1 X106.382 Y102.819 E47.73804
G1 X113.436 Y109.874 E48.65235
G1 X112.546 Y109.874 E48.73398
G1 X106.094 Y103.422 E49.57016
G1 X105.732 Y103.951 E49.62889
G1 X111.655 Y109.874 E50.39652
G1 X110.764 Y109.874 E50.47815
G1 X105.370 Y104.479 E51.17732
G1 X104.925 Y104.925 E51.23504
G1 X109.874 Y109.874 E51.87648
G1 X109.874 Y110.764 E51.95811
G1 X104.479 Y105.369 E52.65734
G1 X103.955 Y105.736 E52.71596
G1 X109.874 Y111.655 E53.48309
G1 X109.874 Y112.546 E53.56472
G1 X103.427 Y106.099 E54.40030
G1 X102.819 Y106.382 E54.46173
G1 X109.874 Y113.436 E55.37603
G1 X109.874 Y114.327 E55.45767
G1 X102.194 Y106.648 E56.45296
G1 X101.492 Y106.836 E56.51961
G1 X109.874 Y115.218 E57.60595
G1 X109.874 Y116.109 E57.68758
G1 X100.736 Y106.971 E58.87195
G1 X99.917 Y107.042 E58.94731
G1 X109.874 Y116.999 E60.23784
G1 X109.874 Y117.890 E60.31947
G1 X98.950 Y106.966 E61.73529
G1 X97.814 Y106.721 E61.84176
G1 X109.874 Y118.781 E63.40477
G1 X109.774 Y119.572 E63.47786
G1 X96.295 Y106.093 E65.22493
G1 X93.907 Y103.705 F6000.000
G1 X80.428 Y90.226 E66.97199 F792.000
G1 X79.838 Y90.526 E67.03269
G1 X109.474 Y120.162 E70.87382
G1 X109.040 Y120.619 E70.93157
G1 X79.381 Y90.960 E74.77566
G1 X78.965 Y91.435 E74.83351
G1 X108.565 Y121.035 E78.66995
G1 X108.045 Y121.406 E78.72847
G1 X78.594 Y91.955 E82.54566
G1 X78.286 Y92.537 E82.60605
G1 X107.463 Y121.714 E86.38776
G1 X106.869 Y122.011 E86.44861
