; generated by Slic3r 1.33.8.devel on 2018-05-21 at 01:16:16

; 

; external perimeters extrusion width = 5.00mm
; perimeters extrusion width = 8.50mm
; infill extrusion width = 19.85mm
; solid infill extrusion width = 8.50mm
; top infill extrusion width = 8.50mm

$H
G10 P1 L20 X0 Y0
G90
G21 ; set units to millimeters
G90 ; use absolute coordinates
G1 Z1.000 F60000.000
G1  F360000.00000
G1 X14.143 Y14.143 F60000.000
G1  F360000.00000
G1 F11250
G1 X425.857 Y14.143 
G1 X425.857 Y425.857 
G1 X14.143 Y425.857 
G1 X14.143 Y14.893 
G1  F360000.00000
G1 X22.545 Y22.545 F60000.000
G1  F360000.00000
G1 F11250
G1 X417.455 Y22.545 
G1 X417.455 Y417.455 
G1 X22.545 Y417.455 
G1 X22.545 Y23.295 
G1  F360000.00000
G1 X30.947 Y30.947 F60000.000
G1  F360000.00000
G1 F11250
G1 X409.053 Y30.947 
G1 X409.053 Y409.053 
G1 X30.947 Y409.053 
G1 X30.947 Y31.697 
G1  F360000.00000
G1 X39.350 Y39.350 F60000.000
G1  F360000.00000
G1 F11250
G1 X400.650 Y39.350 
G1 X400.650 Y400.650 
G1 X39.350 Y400.650 
G1 X39.350 Y40.100 
G1  F360000.00000
G1 X47.752 Y47.752 F60000.000
G1  F360000.00000
G1 F11250
G1 X392.248 Y47.752 
G1 X392.248 Y392.248 
G1 X47.752 Y392.248 
G1 X47.752 Y48.502 
G1  F360000.00000
G1 X56.154 Y56.154 F60000.000
G1  F360000.00000
G1 F11250
G1 X383.846 Y56.154 
G1 X383.846 Y383.846 
G1 X56.154 Y383.846 
G1 X56.154 Y56.904 
G1  F360000.00000
G1 X64.557 Y64.557 F60000.000
G1  F360000.00000
G1 F11250
G1 X375.443 Y64.557 
G1 X375.443 Y375.443 
G1 X64.557 Y375.443 
G1 X64.557 Y65.307 
G1  F360000.00000
G1 X72.959 Y72.959 F60000.000
G1  F360000.00000
G1 F11250
G1 X367.041 Y72.959 
G1 X367.041 Y367.041 
G1 X72.959 Y367.041 
G1 X72.959 Y73.709 
G1  F360000.00000
G1 X81.361 Y81.361 F60000.000
G1  F360000.00000
G1 F11250
G1 X358.639 Y81.361 
G1 X358.639 Y358.639 
G1 X81.361 Y358.639 
G1 X81.361 Y82.111 
G1  F360000.00000
G1 X89.764 Y89.764 F60000.000
G1  F360000.00000
G1 F11250
G1 X350.236 Y89.764 
G1 X350.236 Y350.236 
G1 X89.764 Y350.236 
G1 X89.764 Y90.514 
G1  F360000.00000
G1 X98.166 Y98.166 F60000.000
G1  F360000.00000
G1 F11250
G1 X341.834 Y98.166 
G1 X341.834 Y341.834 
G1 X98.166 Y341.834 
G1 X98.166 Y98.916 
G1  F360000.00000
G1 X106.568 Y106.568 F60000.000
G1  F360000.00000
G1 F11250
G1 X333.432 Y106.568 
G1 X333.432 Y333.432 
G1 X106.568 Y333.432 
G1 X106.568 Y107.318 
G1  F360000.00000
G1 X114.971 Y114.971 F60000.000
G1  F360000.00000
G1 F11250
G1 X325.029 Y114.971 
G1 X325.029 Y325.029 
G1 X114.971 Y325.029 
G1 X114.971 Y115.721 
G1  F360000.00000
G1 X123.373 Y123.373 F60000.000
G1  F360000.00000
G1 F11250
G1 X316.627 Y123.373 
G1 X316.627 Y316.627 
G1 X123.373 Y316.627 
G1 X123.373 Y124.123 
G1  F360000.00000
G1 X131.775 Y131.775 F60000.000
G1  F360000.00000
G1 F11250
G1 X308.225 Y131.775 
G1 X308.225 Y308.225 
G1 X131.775 Y308.225 
G1 X131.775 Y132.525 
G1  F360000.00000
G1 X140.178 Y140.178 F60000.000
G1  F360000.00000
G1 F11250
G1 X299.822 Y140.178 
G1 X299.822 Y299.822 
G1 X140.178 Y299.822 
G1 X140.178 Y140.928 
G1  F360000.00000
G1 X148.580 Y148.580 F60000.000
G1  F360000.00000
G1 F11250
G1 X291.420 Y148.580 
G1 X291.420 Y291.420 
G1 X148.580 Y291.420 
G1 X148.580 Y149.330 
G1  F360000.00000
G1 X156.982 Y156.982 F60000.000
G1  F360000.00000
G1 F11250
G1 X283.018 Y156.982 
G1 X283.018 Y283.018 
G1 X156.982 Y283.018 
G1 X156.982 Y157.732 
G1  F360000.00000
G1 X165.385 Y165.385 F60000.000
G1  F360000.00000
G1 F11250
G1 X274.615 Y165.385 
G1 X274.615 Y274.615 
G1 X165.385 Y274.615 
G1 X165.385 Y166.135 
G1  F360000.00000
G1 X173.787 Y173.787 F60000.000
G1  F360000.00000
G1 F11250
G1 X266.213 Y173.787 
G1 X266.213 Y266.213 
G1 X173.787 Y266.213 
G1 X173.787 Y174.537 
G1  F360000.00000
G1 X182.189 Y182.189 F60000.000
G1  F360000.00000
G1 F11250
G1 X257.811 Y182.189 
G1 X257.811 Y257.811 
G1 X182.189 Y257.811 
G1 X182.189 Y182.939 
G1  F360000.00000
G1 X190.592 Y190.592 F60000.000
G1  F360000.00000
G1 F11250
G1 X249.408 Y190.592 
G1 X249.408 Y249.408 
G1 X190.592 Y249.408 
G1 X190.592 Y191.342 
G1  F360000.00000
G1 X198.994 Y198.994 F60000.000
G1  F360000.00000
G1 F11250
G1 X241.006 Y198.994 
G1 X241.006 Y241.006 
G1 X198.994 Y241.006 
G1 X198.994 Y199.744 
G1  F360000.00000
G1 X207.396 Y207.396 F60000.000
G1  F360000.00000
G1 F11250
G1 X232.604 Y207.396 
G1 X232.604 Y232.604 
G1 X207.396 Y232.604 
G1 X207.396 Y208.146 
G1  F360000.00000
G1 X215.799 Y215.799 F60000.000
G1  F360000.00000
G1 F11250
G1 X224.201 Y215.799 
G1 X224.201 Y224.201 
G1 X215.799 Y224.201 
G1 X215.799 Y216.549 
G1 Z2.000 F60000.000
G1 X191.623 Y192.373 F60000.000
G1 F30000
G1 X191.623 Y248.377 
G1 X248.377 Y248.377 
G1 X248.377 Y191.623 
G1 X191.623 Y191.623 
G1 X167.080 Y167.830 F60000.000
G1 F30000
G1 X167.080 Y272.920 
G1 X272.920 Y272.920 
G1 X272.920 Y167.080 
G1 X167.080 Y167.080 
G1 X142.536 Y143.286 F60000.000
G1 F30000
G1 X142.536 Y297.464 
G1 X297.464 Y297.464 
G1 X297.464 Y142.536 
G1 X142.536 Y142.536 
G1 X117.992 Y118.742 F60000.000
G1 F30000
G1 X117.992 Y322.008 
G1 X322.008 Y322.008 
G1 X322.008 Y117.992 
G1 X117.992 Y117.992 
G1 X93.449 Y94.199 F60000.000
G1 F30000
G1 X93.449 Y346.551 
G1 X346.551 Y346.551 
G1 X346.551 Y93.449 
G1 X93.449 Y93.449 
G1 X68.905 Y69.655 F60000.000
G1 F30000
G1 X68.905 Y371.095 
G1 X371.095 Y371.095 
G1 X371.095 Y68.905 
G1 X68.905 Y68.905 
G1 X44.361 Y45.111 F60000.000
G1 F30000
G1 X44.361 Y395.639 
G1 X395.639 Y395.639 
G1 X395.639 Y44.361 
G1 X44.361 Y44.361 
G1 X19.817 Y20.567 F60000.000
G1 F30000
G1 X19.817 Y420.183 
G1 X420.183 Y420.183 
G1 X420.183 Y19.817 
G1 X19.817 Y19.817 
G1 Z3.000 F60000.000
G1 F30000
G1 X420.183 Y19.817 
G1 X420.183 Y420.183 
G1 X19.817 Y420.183 
G1 X19.817 Y20.567 
G1 X44.361 Y44.361 F60000.000
G1 F30000
G1 X395.639 Y44.361 
G1 X395.639 Y395.639 
G1 X44.361 Y395.639 
G1 X44.361 Y45.111 
G1 X68.905 Y68.905 F60000.000
G1 F30000
G1 X371.095 Y68.905 
G1 X371.095 Y371.095 
G1 X68.905 Y371.095 
G1 X68.905 Y69.655 
G1 X93.449 Y93.449 F60000.000
G1 F30000
G1 X346.551 Y93.449 
G1 X346.551 Y346.551 
G1 X93.449 Y346.551 
G1 X93.449 Y94.199 
G1 X117.992 Y117.992 F60000.000
G1 F30000
G1 X322.008 Y117.992 
G1 X322.008 Y322.008 
G1 X117.992 Y322.008 
G1 X117.992 Y118.742 
G1 X142.536 Y142.536 F60000.000
G1 F30000
G1 X297.464 Y142.536 
G1 X297.464 Y297.464 
G1 X142.536 Y297.464 
G1 X142.536 Y143.286 
G1 X167.080 Y167.080 F60000.000
G1 F30000
G1 X272.920 Y167.080 
G1 X272.920 Y272.920 
G1 X167.080 Y272.920 
G1 X167.080 Y167.830 
G1 X191.623 Y191.623 F60000.000
G1 F30000
G1 X248.377 Y191.623 
G1 X248.377 Y248.377 
G1 X191.623 Y248.377 
G1 X191.623 Y192.373 
G1 Z4.000 F60000.000
G1 F30000
G1 X191.623 Y248.377 
G1 X248.377 Y248.377 
G1 X248.377 Y191.623 
G1 X191.623 Y191.623 
G1 X167.080 Y167.830 F60000.000
G1 F30000
G1 X167.080 Y272.920 
G1 X272.920 Y272.920 
G1 X272.920 Y167.080 
G1 X167.080 Y167.080 
G1 X142.536 Y143.286 F60000.000
G1 F30000
G1 X142.536 Y297.464 
G1 X297.464 Y297.464 
G1 X297.464 Y142.536 
G1 X142.536 Y142.536 
G1 X117.992 Y118.742 F60000.000
G1 F30000
G1 X117.992 Y322.008 
G1 X322.008 Y322.008 
G1 X322.008 Y117.992 
G1 X117.992 Y117.992 
G1 X93.449 Y94.199 F60000.000
G1 F30000
G1 X93.449 Y346.551 
G1 X346.551 Y346.551 
G1 X346.551 Y93.449 
G1 X93.449 Y93.449 
G1 X68.905 Y69.655 F60000.000
G1 F30000
G1 X68.905 Y371.095 
G1 X371.095 Y371.095 
G1 X371.095 Y68.905 
G1 X68.905 Y68.905 
G1 X44.361 Y45.111 F60000.000
G1 F30000
G1 X44.361 Y395.639 
G1 X395.639 Y395.639 
G1 X395.639 Y44.361 
G1 X44.361 Y44.361 
G1 X19.817 Y20.567 F60000.000
G1 F30000
G1 X19.817 Y420.183 
G1 X420.183 Y420.183 
G1 X420.183 Y19.817 
G1 X19.817 Y19.817 
G1 Z5.000 F60000.000
G1  F360000.00000
G1 X22.545 Y22.545 F60000.000
G1  F360000.00000
G1 F11250
G1 X417.455 Y22.545 
G1 X417.455 Y417.455 
G1 X22.545 Y417.455 
G1 X22.545 Y23.295 
G1  F360000.00000
G1 X30.947 Y30.947 F60000.000
G1  F360000.00000
G1 F11250
G1 X409.053 Y30.947 
G1 X409.053 Y409.053 
G1 X30.947 Y409.053 
G1 X30.947 Y31.697 
G1  F360000.00000
G1 X39.350 Y39.350 F60000.000
G1  F360000.00000
G1 F11250
G1 X400.650 Y39.350 
G1 X400.650 Y400.650 
G1 X39.350 Y400.650 
G1 X39.350 Y40.100 
G1  F360000.00000
G1 X47.752 Y47.752 F60000.000
G1  F360000.00000
G1 F11250
G1 X392.248 Y47.752 
G1 X392.248 Y392.248 
G1 X47.752 Y392.248 
G1 X47.752 Y48.502 
G1  F360000.00000
G1 X56.154 Y56.154 F60000.000
G1  F360000.00000
G1 F11250
G1 X383.846 Y56.154 
G1 X383.846 Y383.846 
G1 X56.154 Y383.846 
G1 X56.154 Y56.904 
G1  F360000.00000
G1 X64.557 Y64.557 F60000.000
G1  F360000.00000
G1 F11250
G1 X375.443 Y64.557 
G1 X375.443 Y375.443 
G1 X64.557 Y375.443 
G1 X64.557 Y65.307 
G1  F360000.00000
G1 X72.959 Y72.959 F60000.000
G1  F360000.00000
G1 F11250
G1 X367.041 Y72.959 
G1 X367.041 Y367.041 
G1 X72.959 Y367.041 
G1 X72.959 Y73.709 
G1  F360000.00000
G1 X81.361 Y81.361 F60000.000
G1  F360000.00000
G1 F11250
G1 X358.639 Y81.361 
G1 X358.639 Y358.639 
G1 X81.361 Y358.639 
G1 X81.361 Y82.111 
G1  F360000.00000
G1 X89.764 Y89.764 F60000.000
G1  F360000.00000
G1 F11250
G1 X350.236 Y89.764 
G1 X350.236 Y350.236 
G1 X89.764 Y350.236 
G1 X89.764 Y90.514 
G1  F360000.00000
G1 X98.166 Y98.166 F60000.000
G1  F360000.00000
G1 F11250
G1 X341.834 Y98.166 
G1 X341.834 Y341.834 
G1 X98.166 Y341.834 
G1 X98.166 Y98.916 
G1  F360000.00000
G1 X106.568 Y106.568 F60000.000
G1  F360000.00000
G1 F11250
G1 X333.432 Y106.568 
G1 X333.432 Y333.432 
G1 X106.568 Y333.432 
G1 X106.568 Y107.318 
G1  F360000.00000
G1 X114.971 Y114.971 F60000.000
G1  F360000.00000
G1 F11250
G1 X325.029 Y114.971 
G1 X325.029 Y325.029 
G1 X114.971 Y325.029 
G1 X114.971 Y115.721 
G1  F360000.00000
G1 X123.373 Y123.373 F60000.000
G1  F360000.00000
G1 F11250
G1 X316.627 Y123.373 
G1 X316.627 Y316.627 
G1 X123.373 Y316.627 
G1 X123.373 Y124.123 
G1  F360000.00000
G1 X131.775 Y131.775 F60000.000
G1  F360000.00000
G1 F11250
G1 X308.225 Y131.775 
G1 X308.225 Y308.225 
G1 X131.775 Y308.225 
G1 X131.775 Y132.525 
G1  F360000.00000
G1 X140.178 Y140.178 F60000.000
G1  F360000.00000
G1 F11250
G1 X299.822 Y140.178 
G1 X299.822 Y299.822 
G1 X140.178 Y299.822 
G1 X140.178 Y140.928 
G1  F360000.00000
G1 X148.580 Y148.580 F60000.000
G1  F360000.00000
G1 F11250
G1 X291.420 Y148.580 
G1 X291.420 Y291.420 
G1 X148.580 Y291.420 
G1 X148.580 Y149.330 
G1  F360000.00000
G1 X156.982 Y156.982 F60000.000
G1  F360000.00000
G1 F11250
G1 X283.018 Y156.982 
G1 X283.018 Y283.018 
G1 X156.982 Y283.018 
G1 X156.982 Y157.732 
G1  F360000.00000
G1 X165.385 Y165.385 F60000.000
G1  F360000.00000
G1 F11250
G1 X274.615 Y165.385 
G1 X274.615 Y274.615 
G1 X165.385 Y274.615 
G1 X165.385 Y166.135 
G1  F360000.00000
G1 X173.787 Y173.787 F60000.000
G1  F360000.00000
G1 F11250
G1 X266.213 Y173.787 
G1 X266.213 Y266.213 
G1 X173.787 Y266.213 
G1 X173.787 Y174.537 
G1  F360000.00000
G1 X182.189 Y182.189 F60000.000
G1  F360000.00000
G1 F11250
G1 X257.811 Y182.189 
G1 X257.811 Y257.811 
G1 X182.189 Y257.811 
G1 X182.189 Y182.939 
G1  F360000.00000
G1 X190.592 Y190.592 F60000.000
G1  F360000.00000
G1 F11250
G1 X249.408 Y190.592 
G1 X249.408 Y249.408 
G1 X190.592 Y249.408 
G1 X190.592 Y191.342 
G1  F360000.00000
G1 X198.994 Y198.994 F60000.000
G1  F360000.00000
G1 F11250
G1 X241.006 Y198.994 
G1 X241.006 Y241.006 
G1 X198.994 Y241.006 
G1 X198.994 Y199.744 
G1  F360000.00000
G1 X207.396 Y207.396 F60000.000
G1  F360000.00000
G1 F11250
G1 X232.604 Y207.396 
G1 X232.604 Y232.604 
G1 X207.396 Y232.604 
G1 X207.396 Y208.146 
G1  F360000.00000
G1 X215.799 Y215.799 F60000.000
G1  F360000.00000
G1 F11250
G1 X224.201 Y215.799 
G1 X224.201 Y224.201 
G1 X215.799 Y224.201 
G1 X215.799 Y216.549 
G1  F360000.00000
G1 X14.143 Y14.893 F60000.000
G1  F360000.00000
G1 F11250
G1 X14.143 Y425.857 
G1 X425.857 Y425.857 
G1 X425.857 Y14.143 
G1 X14.143 Y14.143 
G1  F360000.00000

; filament used = 39885.6mm (783.2cm3)
; total filament cost = 0.0

; avoid_crossing_perimeters = 0
; bed_shape = 0x0,440x0,440x440,0x440
; bed_temperature = 0
; before_layer_gcode = 
; bridge_acceleration = 0
; bridge_fan_speed = 100
; brim_width = 0
; complete_objects = 0
; cooling = 0
; default_acceleration = 0
; deretract_speed = 0
; disable_fan_first_layers = 3
; duplicate_distance = 6
; end_gcode = 
; extruder_clearance_height = 20
; extruder_clearance_radius = 20
; extruder_offset = 0x0
; extrusion_axis = E
; extrusion_multiplier = 1
; fan_always_on = 0
; fan_below_layer_time = 60
; filament_colour = #29b2b2
; filament_cost = 0
; filament_density = 0
; filament_diameter = 5
; filament_max_volumetric_speed = 0
; filament_notes = ""
; filament_soluble = 0
; filament_type = PLA
; first_layer_acceleration = 0
; first_layer_bed_temperature = 0
; first_layer_extrusion_width = 0
; first_layer_speed = 50%
; first_layer_temperature = 0
; gcode_comments = 0
; gcode_flavor = mach3
; infill_acceleration = 0
; infill_first = 0
; layer_gcode = 
; max_fan_speed = 100
; max_layer_height = 0
; max_print_speed = 80
; max_volumetric_extrusion_rate_slope_negative = 0
; max_volumetric_extrusion_rate_slope_positive = 0
; max_volumetric_speed = 0
; min_fan_speed = 66
; min_layer_height = 0.07
; min_print_speed = 10
; min_skirt_length = 0
; notes = 
; nozzle_diameter = 5
; only_retract_when_crossing_perimeters = 1
; ooze_prevention = 0
; output_filename_format = [input_filename_base].gcode
; perimeter_acceleration = 0
; post_process = /home/paenian/reprap/scads/github/sand-table/configuration/strip_slic3r.py
; printer_notes = 
; resolution = 0
; retract_before_travel = 2
; retract_before_wipe = 0%
; retract_layer_change = 0
; retract_length = 2
; retract_length_toolchange = 10
; retract_lift = 0
; retract_lift_above = 0
; retract_lift_below = 0
; retract_restart_extra = 0
; retract_restart_extra_toolchange = 0
; retract_speed = 6000
; set_and_wait_temperatures = 0
; single_extruder_multi_material = 0
; skirt_distance = 6
; skirt_height = 1
; skirts = 0
; slowdown_below_layer_time = 5
; spiral_vase = 0
; standby_temperature_delta = -5
; start_gcode = $H\nG10 P1 L20 X0 Y0\nG90
; temperature = 0
; threads = 8
; toolchange_gcode = 
; travel_speed = 1000
; use_firmware_retraction = 0
; use_relative_e_distances = 0
; use_volumetric_e = 0
; variable_layer_height = 1
; wipe = 0
; wipe_tower = 0
; wipe_tower_per_color_wipe = 15
; wipe_tower_width = 60
; wipe_tower_x = 180
; wipe_tower_y = 140
; z_offset = 0
; clip_multipart_objects = 0
; dont_support_bridges = 1
; extrusion_width = 0
; first_layer_height = 1
; infill_only_where_needed = 0
; interface_shells = 0
; layer_height = 1
; raft_layers = 0
; seam_position = nearest
; support_material = 0
; support_material_angle = 0
; support_material_buildplate_only = 0
; support_material_contact_distance = 0.2
; support_material_enforce_layers = 0
; support_material_extruder = 1
; support_material_extrusion_width = 0
; support_material_interface_contact_loops = 0
; support_material_interface_extruder = 1
; support_material_interface_layers = 3
; support_material_interface_spacing = 0
; support_material_interface_speed = 100%
; support_material_pattern = pillars
; support_material_spacing = 2.5
; support_material_speed = 90
; support_material_synchronize_layers = 0
; support_material_threshold = 0
; support_material_with_sheath = 1
; support_material_xy_spacing = 50%
; xy_size_compensation = 0
