; generated by Slic3r Prusa Edition 1.39.1-prusa3d-win64 on 2018-03-17 at 01:26:31

; 

; external perimeters extrusion width = 11.25mm
; perimeters extrusion width = 11.25mm
; infill extrusion width = 11.25mm
; solid infill extrusion width = 11.25mm
; top infill extrusion width = 10.00mm

$H
G92 X0 Y0
G90
; Filament gcode
G21 ; set units to millimeters
G90 ; use absolute coordinates
G1 Z5.000 F576000.000
G1  F360000.00000
G1 X0.509 Y578.822 F576000.000
G1  F360000.00000
G1 F10800
G1 X16.598 Y594.912 
G1 X31.056 Y594.912 
G1 X5.088 Y568.944 
G1 X5.088 Y554.486 
G1 X45.514 Y594.912 
G1 X59.972 Y594.912 
G1 X5.088 Y540.028 
G1 X5.088 Y525.570 
G1 X74.430 Y594.912 
G1 X88.887 Y594.912 
G1 X5.088 Y511.113 
G1 X5.088 Y496.655 
G1 X103.345 Y594.912 
G1 X117.803 Y594.912 
G1 X5.088 Y482.197 
G1 X5.088 Y467.739 
G1 X132.261 Y594.912 
G1 X146.719 Y594.912 
G1 X5.088 Y453.281 
G1 X5.088 Y438.824 
G1 X161.177 Y594.912 
G1 X175.634 Y594.912 
G1 X5.088 Y424.366 
G1 X5.088 Y409.908 
G1 X190.092 Y594.912 
G1 X204.550 Y594.912 
G1 X5.088 Y395.450 
G1 X5.088 Y380.992 
G1 X219.008 Y594.912 
G1 X233.466 Y594.912 
G1 X5.088 Y366.534 
G1 X5.088 Y352.077 
G1 X247.924 Y594.912 
G1 X262.381 Y594.912 
G1 X5.088 Y337.619 
G1 X5.088 Y323.161 
G1 X276.839 Y594.912 
G1 X291.297 Y594.912 
G1 X5.088 Y308.703 
G1 X5.088 Y294.245 
G1 X305.755 Y594.912 
G1 X320.213 Y594.912 
G1 X5.088 Y279.787 
G1 X5.088 Y265.330 
G1 X334.671 Y594.912 
G1 X349.128 Y594.912 
G1 X5.088 Y250.872 
G1 X5.088 Y236.414 
G1 X363.586 Y594.912 
G1 X378.044 Y594.912 
G1 X5.088 Y221.956 
G1 X5.088 Y207.498 
G1 X392.502 Y594.912 
G1 X406.960 Y594.912 
G1 X5.088 Y193.040 
G1 X5.088 Y178.583 
G1 X421.417 Y594.912 
G1 X435.875 Y594.912 
G1 X5.088 Y164.125 
G1 X5.088 Y149.667 
G1 X450.333 Y594.912 
G1 X464.791 Y594.912 
G1 X5.088 Y135.209 
G1 X5.088 Y120.751 
G1 X479.249 Y594.912 
G1 X493.707 Y594.912 
G1 X5.088 Y106.293 
G1 X5.088 Y91.836 
G1 X508.164 Y594.912 
G1 X522.622 Y594.912 
G1 X5.088 Y77.378 
G1 X5.088 Y62.920 
G1 X537.080 Y594.912 
G1 X551.538 Y594.912 
G1 X5.088 Y48.462 
G1 X5.088 Y34.004 
G1 X565.996 Y594.912 
G1 X580.454 Y594.912 
G1 X5.088 Y19.546 
G1 X5.088 Y5.089 
G1 X594.911 Y594.912 
G1 X594.912 Y580.454 
G1 X19.546 Y5.088 
G1 X34.004 Y5.088 
G1 X594.912 Y565.996 
G1 X594.912 Y551.538 
G1 X48.462 Y5.088 
G1 X62.920 Y5.088 
G1 X594.912 Y537.080 
G1 X594.912 Y522.622 
G1 X77.378 Y5.088 
G1 X91.835 Y5.088 
G1 X594.912 Y508.165 
G1 X594.912 Y493.707 
G1 X106.293 Y5.088 
G1 X120.751 Y5.088 
G1 X594.912 Y479.249 
G1 X594.912 Y464.791 
G1 X135.209 Y5.088 
G1 X149.667 Y5.088 
G1 X594.912 Y450.333 
G1 X594.912 Y435.875 
G1 X164.125 Y5.088 
G1 X178.582 Y5.088 
G1 X594.912 Y421.418 
G1 X594.912 Y406.960 
G1 X193.040 Y5.088 
G1 X207.498 Y5.088 
G1 X594.912 Y392.502 
G1 X594.912 Y378.044 
G1 X221.956 Y5.088 
G1 X236.414 Y5.088 
G1 X594.912 Y363.586 
G1 X594.912 Y349.128 
G1 X250.872 Y5.088 
G1 X265.329 Y5.088 
G1 X594.912 Y334.671 
G1 X594.912 Y320.213 
G1 X279.787 Y5.088 
G1 X294.245 Y5.088 
G1 X594.912 Y305.755 
G1 X594.912 Y291.297 
G1 X308.703 Y5.088 
G1 X323.161 Y5.088 
G1 X594.912 Y276.839 
G1 X594.912 Y262.381 
G1 X337.619 Y5.088 
G1 X352.076 Y5.088 
G1 X594.912 Y247.924 
G1 X594.912 Y233.466 
G1 X366.534 Y5.088 
G1 X380.992 Y5.088 
G1 X594.912 Y219.008 
G1 X594.912 Y204.550 
G1 X395.450 Y5.088 
G1 X409.908 Y5.088 
G1 X594.912 Y190.092 
G1 X594.912 Y175.634 
G1 X424.366 Y5.088 
G1 X438.823 Y5.088 
G1 X594.912 Y161.177 
G1 X594.912 Y146.719 
G1 X453.281 Y5.088 
G1 X467.739 Y5.088 
G1 X594.912 Y132.261 
G1 X594.912 Y117.803 
G1 X482.197 Y5.088 
G1 X496.655 Y5.088 
G1 X594.912 Y103.345 
G1 X594.912 Y88.887 
G1 X511.113 Y5.088 
G1 X525.570 Y5.088 
G1 X594.912 Y74.430 
G1 X594.912 Y59.972 
G1 X540.028 Y5.088 
G1 X554.486 Y5.088 
G1 X594.912 Y45.514 
G1 X594.912 Y31.056 
G1 X568.944 Y5.088 
G1 X583.402 Y5.088 
G1 X599.491 Y21.178 
G1 Z10.000 F576000.000
G1  F360000.00000
G1 X581.499 Y599.554 F576000.000
G1  F360000.00000
G1 F10800
G1 X595.537 Y585.516 
G1 X595.537 Y572.885 
G1 X572.885 Y595.537 
G1 X560.253 Y595.537 
G1 X595.537 Y560.253 
G1 X595.537 Y547.621 
G1 X547.621 Y595.537 
G1 X534.990 Y595.537 
G1 X595.537 Y534.990 
G1 X595.537 Y522.358 
G1 X522.358 Y595.537 
G1 X509.727 Y595.537 
G1 X595.537 Y509.727 
G1 X595.537 Y497.095 
G1 X497.095 Y595.537 
G1 X484.463 Y595.537 
G1 X595.537 Y484.463 
G1 X595.537 Y471.832 
G1 X471.832 Y595.537 
G1 X459.200 Y595.537 
G1 X595.537 Y459.200 
G1 X595.537 Y446.569 
G1 X446.569 Y595.537 
G1 X433.937 Y595.537 
G1 X595.537 Y433.937 
G1 X595.537 Y421.306 
G1 X421.306 Y595.537 
G1 X408.674 Y595.537 
G1 X595.537 Y408.674 
G1 X595.537 Y396.042 
G1 X396.042 Y595.537 
G1 X383.411 Y595.537 
G1 X595.537 Y383.411 
G1 X595.537 Y370.779 
G1 X370.779 Y595.537 
G1 X358.148 Y595.537 
G1 X595.537 Y358.148 
G1 X595.537 Y345.516 
G1 X345.516 Y595.537 
G1 X332.884 Y595.537 
G1 X595.537 Y332.885 
G1 X595.537 Y320.253 
G1 X320.253 Y595.537 
G1 X307.621 Y595.537 
G1 X595.537 Y307.621 
G1 X595.537 Y294.990 
G1 X294.990 Y595.537 
G1 X282.358 Y595.537 
G1 X595.537 Y282.358 
G1 X595.537 Y269.727 
G1 X269.727 Y595.537 
G1 X257.095 Y595.537 
G1 X595.537 Y257.095 
G1 X595.537 Y244.464 
G1 X244.463 Y595.537 
G1 X231.832 Y595.537 
G1 X595.537 Y231.832 
G1 X595.537 Y219.200 
G1 X219.200 Y595.537 
G1 X206.569 Y595.537 
G1 X595.537 Y206.569 
G1 X595.537 Y193.937 
G1 X193.937 Y595.537 
G1 X181.305 Y595.537 
G1 X595.537 Y181.306 
G1 X595.537 Y168.674 
G1 X168.674 Y595.537 
G1 X156.042 Y595.537 
G1 X595.537 Y156.042 
G1 X595.537 Y143.411 
G1 X143.411 Y595.537 
G1 X130.779 Y595.537 
G1 X595.537 Y130.779 
G1 X595.537 Y118.148 
G1 X118.148 Y595.537 
G1 X105.516 Y595.537 
G1 X595.537 Y105.516 
G1 X595.537 Y92.885 
G1 X92.884 Y595.537 
G1 X80.253 Y595.537 
G1 X595.537 Y80.253 
G1 X595.537 Y67.621 
G1 X67.621 Y595.537 
G1 X54.990 Y595.537 
G1 X595.537 Y54.990 
G1 X595.537 Y42.358 
G1 X42.358 Y595.537 
G1 X29.727 Y595.537 
G1 X595.537 Y29.727 
G1 X595.537 Y17.095 
G1 X17.095 Y595.537 
G1 X4.463 Y595.536 
G1 X595.537 Y4.463 
G1 X582.905 Y4.463 
G1 X4.463 Y582.905 
G1 X4.463 Y570.273 
G1 X570.273 Y4.463 
G1 X557.642 Y4.463 
G1 X4.463 Y557.642 
G1 X4.463 Y545.010 
G1 X545.010 Y4.463 
G1 X532.379 Y4.463 
G1 X4.463 Y532.379 
G1 X4.463 Y519.747 
G1 X519.747 Y4.463 
G1 X507.116 Y4.463 
G1 X4.463 Y507.115 
G1 X4.463 Y494.484 
G1 X494.484 Y4.463 
G1 X481.852 Y4.463 
G1 X4.463 Y481.852 
G1 X4.463 Y469.221 
G1 X469.221 Y4.463 
G1 X456.589 Y4.463 
G1 X4.463 Y456.589 
G1 X4.463 Y443.957 
G1 X443.958 Y4.463 
G1 X431.326 Y4.463 
G1 X4.463 Y431.326 
G1 X4.463 Y418.694 
G1 X418.694 Y4.463 
G1 X406.063 Y4.463 
G1 X4.463 Y406.063 
G1 X4.463 Y393.431 
G1 X393.431 Y4.463 
G1 X380.800 Y4.463 
G1 X4.463 Y380.800 
G1 X4.463 Y368.168 
G1 X368.168 Y4.463 
G1 X355.537 Y4.463 
G1 X4.463 Y355.536 
G1 X4.463 Y342.905 
G1 X342.905 Y4.463 
G1 X330.273 Y4.463 
G1 X4.463 Y330.273 
G1 X4.463 Y317.642 
G1 X317.642 Y4.463 
G1 X305.010 Y4.463 
G1 X4.463 Y305.010 
G1 X4.463 Y292.379 
G1 X292.379 Y4.463 
G1 X279.747 Y4.463 
G1 X4.463 Y279.747 
G1 X4.463 Y267.115 
G1 X267.116 Y4.463 
G1 X254.484 Y4.463 
G1 X4.463 Y254.484 
G1 X4.463 Y241.852 
G1 X241.852 Y4.463 
G1 X229.221 Y4.463 
G1 X4.463 Y229.221 
G1 X4.463 Y216.589 
G1 X216.589 Y4.463 
G1 X203.958 Y4.463 
G1 X4.463 Y203.958 
G1 X4.463 Y191.326 
G1 X191.326 Y4.463 
G1 X178.694 Y4.463 
G1 X4.463 Y178.694 
G1 X4.463 Y166.063 
G1 X166.063 Y4.463 
G1 X153.431 Y4.463 
G1 X4.463 Y153.431 
G1 X4.463 Y140.800 
G1 X140.800 Y4.463 
G1 X128.168 Y4.463 
G1 X4.463 Y128.168 
G1 X4.463 Y115.537 
G1 X115.537 Y4.463 
G1 X102.905 Y4.463 
G1 X4.463 Y102.905 
G1 X4.463 Y90.273 
G1 X90.273 Y4.463 
G1 X77.642 Y4.463 
G1 X4.463 Y77.642 
G1 X4.463 Y65.010 
G1 X65.010 Y4.463 
G1 X52.379 Y4.463 
G1 X4.463 Y52.379 
G1 X4.463 Y39.747 
G1 X39.747 Y4.463 
G1 X27.115 Y4.463 
G1 X4.463 Y27.115 
G1 X4.463 Y14.484 
G1 X18.501 Y0.446 
G1  F360000.00000
; Filament-specific end gcode 
;END gcode for filament
; filament used = 183284.6mm (3598.8cm3)
; total filament cost = 0.0
; estimated printing time = 7m 38s

; avoid_crossing_perimeters = 0
; bed_shape = 0x0,600x0,600x600,0x600
; bed_temperature = 0
; before_layer_gcode = 
; between_objects_gcode = 
; bridge_acceleration = 0
; bridge_fan_speed = 100
; brim_width = 0
; complete_objects = 0
; cooling = 0
; default_acceleration = 0
; deretract_speed = 0
; disable_fan_first_layers = 3
; duplicate_distance = 6
; end_filament_gcode = "; Filament-specific end gcode \n;END gcode for filament\n"
; end_gcode = 
; extruder_clearance_height = 20
; extruder_clearance_radius = 20
; extruder_colour = ""
; extruder_offset = 0x0
; extrusion_axis = E
; extrusion_multiplier = 1
; fan_always_on = 0
; fan_below_layer_time = 60
; filament_colour = #29b2b2
; filament_cost = 0
; filament_density = 0
; filament_diameter = 5
; filament_max_volumetric_speed = 0
; filament_notes = ""
; filament_soluble = 0
; filament_type = PLA
; first_layer_acceleration = 0
; first_layer_bed_temperature = 0
; first_layer_extrusion_width = 0
; first_layer_speed = 50%
; first_layer_temperature = 0
; gcode_comments = 0
; gcode_flavor = mach3
; infill_acceleration = 0
; infill_first = 1
; layer_gcode = 
; max_fan_speed = 100
; max_layer_height = 0
; max_print_speed = 80
; max_volumetric_extrusion_rate_slope_negative = 0
; max_volumetric_extrusion_rate_slope_positive = 0
; max_volumetric_speed = 0
; min_fan_speed = 66
; min_layer_height = 0.07
; min_print_speed = 10
; min_skirt_length = 0
; notes = 
; nozzle_diameter = 10
; only_retract_when_crossing_perimeters = 1
; ooze_prevention = 0
; output_filename_format = [input_filename_base].gcode
; perimeter_acceleration = 0
; post_process = "D:\\github\\sand-table\\gcodes\\strip_slic3r.py"
; printer_notes = 
; resolution = 0
; retract_before_travel = 2
; retract_before_wipe = 0%
; retract_layer_change = 0
; retract_length = 2
; retract_length_toolchange = 10
; retract_lift = 0
; retract_lift_above = 0
; retract_lift_below = 0
; retract_restart_extra = 0
; retract_restart_extra_toolchange = 0
; retract_speed = 6000
; single_extruder_multi_material = 0
; skirt_distance = 6
; skirt_height = 1
; skirts = 0
; slowdown_below_layer_time = 5
; spiral_vase = 0
; standby_temperature_delta = -5
; start_filament_gcode = "; Filament gcode\n"
; start_gcode = $H\nG92 X0 Y0\nG90\n
; temperature = 0
; threads = 8
; toolchange_gcode = 
; travel_speed = 9600
; use_firmware_retraction = 0
; use_relative_e_distances = 0
; use_volumetric_e = 0
; variable_layer_height = 1
; wipe = 0
; wipe_tower = 0
; wipe_tower_per_color_wipe = 15
; wipe_tower_width = 60
; wipe_tower_x = 180
; wipe_tower_y = 140
; z_offset = 0
; clip_multipart_objects = 0
; dont_support_bridges = 1
; elefant_foot_compensation = 0
; extrusion_width = 0
; first_layer_height = 5
; infill_only_where_needed = 0
; interface_shells = 0
; layer_height = 5
; raft_layers = 0
; seam_position = nearest
; support_material = 0
; support_material_angle = 0
; support_material_buildplate_only = 0
; support_material_contact_distance = 0.2
; support_material_enforce_layers = 0
; support_material_extruder = 1
; support_material_extrusion_width = 0
; support_material_interface_contact_loops = 0
; support_material_interface_extruder = 1
; support_material_interface_layers = 3
; support_material_interface_spacing = 0
; support_material_interface_speed = 100%
; support_material_pattern = pillars
; support_material_spacing = 2.5
; support_material_speed = 90
; support_material_synchronize_layers = 0
; support_material_threshold = 0
; support_material_with_sheath = 1
; support_material_xy_spacing = 50%
; xy_size_compensation = 0
; bottom_solid_layers = 1
; bridge_angle = 0
; bridge_flow_ratio = 1
; bridge_speed = 480
; ensure_vertical_shell_thickness = 0
; external_fill_pattern = rectilinear
; external_perimeter_extrusion_width = 0
; external_perimeter_speed = 50%
; external_perimeters_first = 0
; extra_perimeters = 0
; fill_angle = 45
; fill_density = 50%
; fill_pattern = rectilinear
; gap_fill_speed = 480
; infill_every_layers = 1
; infill_extruder = 1
; infill_extrusion_width = 0
; infill_overlap = 25%
; infill_speed = 480
; overhangs = 0
; perimeter_extruder = 1
; perimeter_extrusion_width = 0
; perimeter_speed = 480
; perimeters = 0
; small_perimeter_speed = 50%
; solid_infill_below_area = 7
; solid_infill_every_layers = 0
; solid_infill_extruder = 1
; solid_infill_extrusion_width = 0
; solid_infill_speed = 75%
; thin_walls = 0
; top_infill_extrusion_width = 0
; top_solid_infill_speed = 50%
; top_solid_layers = 1
