; generated by Slic3r Prusa Edition 1.39.1-prusa3d-win64 on 2018-03-16 at 02:33:52

; 

; external perimeters extrusion width = 11.25mm
; perimeters extrusion width = 11.25mm
; infill extrusion width = 11.25mm
; solid infill extrusion width = 11.25mm
; top infill extrusion width = 10.00mm

$H
G92 X0 Y0
G90
; Filament gcode
G21 ; set units to millimeters
G90 ; use absolute coordinates
G1 Z5.000 F576000.000
G1  F360000.00000
G1 X131.051 Y227.281 F576000.000
G1  F360000.00000
G1 F10800
G1 X134.252 Y220.425 
G1 X154.013 Y191.810 
G1 X127.957 Y188.148 
G1 X121.238 Y177.687 
G1 X112.017 Y187.908 
G1 X104.435 Y187.908 
G1 X108.958 Y198.362 
G1 X110.887 Y198.623 
G1 X130.417 Y228.641 
G1  F360000.00000
G1 X121.304 Y233.385 F576000.000
G1  F360000.00000
G1 F10800
G1 X104.871 Y208.128 
G1 X87.875 Y205.825 
G1 X95.826 Y193.760 
G1 X88.870 Y177.682 
G1 X107.471 Y177.682 
G1 X122.610 Y160.902 
G1 X134.025 Y178.674 
G1 X160.332 Y182.372 
G1 X178.827 Y182.372 
G1 X158.050 Y203.958 
G1 X143.154 Y225.528 
G1 X130.049 Y253.602 
G1 X121.899 Y234.762 
G1  F360000.00000
G1 X112.261 Y238.237 F576000.000
G1  F360000.00000
G1 F10800
G1 X98.855 Y217.632 
G1 X70.389 Y213.775 
G1 X84.246 Y192.748 
G1 X73.306 Y167.457 
G1 X102.924 Y167.457 
G1 X116.499 Y152.411 
G1 X122.904 Y142.438 
G1 X140.094 Y169.201 
G1 X161.047 Y172.146 
G1 X185.935 Y172.146 
G1 X206.375 Y175.019 
G1 X183.170 Y192.606 
G1 X165.993 Y210.452 
G1 X152.057 Y230.632 
G1 X141.770 Y252.668 
G1 X134.965 Y277.822 
G1 X118.315 Y252.232 
G1 X112.857 Y239.614 
G1  F360000.00000
G1 X151.410 Y256.192 F576000.000
G1  F360000.00000
G1 F10800
G1 X160.959 Y235.736 
G1 X173.936 Y216.945 
G1 X189.983 Y200.273 
G1 X208.679 Y186.103 
G1 X229.553 Y174.752 
G1 X252.094 Y166.467 
G1 X275.763 Y161.424 
G1 X300.000 Y159.732 
G1 X324.237 Y161.424 
G1 X347.906 Y166.467 
G1 X370.447 Y174.752 
G1 X391.321 Y186.103 
G1 X410.017 Y200.273 
G1 X426.064 Y216.945 
G1 X439.041 Y235.736 
G1 X448.590 Y256.192 
G1 X454.437 Y277.801 
G1 X455.867 Y293.926 
G1 X456.912 Y294.290 
G1 X456.405 Y300.000 
G1 X456.912 Y305.710 
G1 X455.867 Y306.074 
G1 X454.437 Y322.199 
G1 X448.590 Y343.808 
G1 X439.041 Y364.264 
G1 X426.064 Y383.055 
G1 X410.017 Y399.727 
G1 X391.321 Y413.897 
G1 X370.447 Y425.248 
G1 X347.906 Y433.533 
G1 X324.237 Y438.576 
G1 X300.000 Y440.268 
G1 X275.763 Y438.576 
G1 X252.094 Y433.533 
G1 X229.553 Y425.248 
G1 X208.679 Y413.897 
G1 X189.983 Y399.727 
G1 X173.936 Y383.055 
G1 X160.959 Y364.264 
G1 X151.410 Y343.808 
G1 X145.563 Y322.199 
G1 X144.133 Y306.074 
G1 X143.088 Y305.711 
G1 X143.595 Y300.000 
G1 X143.088 Y294.289 
G1 X144.133 Y293.926 
G1 X145.563 Y277.801 
G1 X151.018 Y257.640 
G1  F360000.00000
G1 X141.134 Y389.541 F576000.000
G1  F360000.00000
G1 F10800
G1 X134.252 Y379.575 
G1 X122.009 Y353.348 
G1 X97.645 Y379.945 
G1 X91.296 Y379.914 
G1 X95.875 Y390.325 
G1 X97.878 Y390.603 
G1 X104.671 Y401.181 
G1 X114.018 Y390.822 
G1 X141.986 Y390.775 
G1  F360000.00000
G1 X148.625 Y400.990 F576000.000
G1  F360000.00000
G1 F10800
G1 X118.571 Y401.040 
G1 X103.299 Y417.967 
G1 X91.814 Y400.085 
G1 X73.867 Y397.594 
G1 X82.234 Y384.708 
G1 X75.594 Y369.610 
G1 X93.165 Y369.697 
G1 X110.568 Y350.699 
G1 X125.787 Y327.410 
G1 X132.131 Y350.856 
G1 X143.154 Y374.472 
G1 X162.829 Y402.962 
G1 X150.110 Y401.196 
G1  F360000.00000
G1 X149.413 Y411.423 F576000.000
G1  F360000.00000
G1 F10800
G1 X164.639 Y413.537 
G1 X189.042 Y413.496 
G1 X165.993 Y389.548 
G1 X152.057 Y369.368 
G1 X141.770 Y347.332 
G1 X135.457 Y324.000 
G1 X134.531 Y313.560 
G1 X127.835 Y311.230 
G1 X114.961 Y325.284 
G1 X102.465 Y344.407 
G1 X88.685 Y359.449 
G1 X59.892 Y359.307 
G1 X70.651 Y383.770 
G1 X56.535 Y405.511 
G1 X85.751 Y409.567 
G1 X103.017 Y436.450 
G1 X109.497 Y426.362 
G1 X123.124 Y411.258 
G1 X147.927 Y411.217 
G1  F360000.00000
G1 X241.723 Y470.046 F576000.000
G1  F360000.00000
G1 F10800
G1 X229.280 Y450.922 
G1 X221.627 Y433.229 
G1 X249.251 Y443.383 
G1 X274.334 Y448.727 
G1 X300.000 Y450.519 
G1 X325.666 Y448.727 
G1 X358.373 Y441.758 
G1 X346.846 Y459.475 
G1 X336.213 Y471.128 
G1 X321.787 Y493.299 
G1 X332.490 Y517.634 
G1 X303.917 Y517.493 
G1 X290.077 Y532.659 
G1 X283.215 Y543.205 
G1 X265.300 Y515.661 
G1 X236.834 Y511.805 
G1 X250.692 Y490.778 
G1 X242.319 Y471.422 
G1  F360000.00000
G1 X251.361 Y466.570 F576000.000
G1  F360000.00000
G1 F10800
G1 X262.271 Y491.790 
G1 X254.320 Y503.855 
G1 X271.316 Y506.157 
G1 X283.427 Y524.776 
G1 X299.425 Y507.245 
G1 X316.788 Y507.331 
G1 X310.201 Y492.355 
G1 X332.217 Y458.520 
G1 X300.000 Y460.770 
G1 X272.906 Y458.878 
G1 X242.432 Y452.385 
G1 X250.765 Y465.193 
G1  F360000.00000
G1 X263.320 Y468.459 F576000.000
G1  F360000.00000
G1 F10800
G1 X300.000 Y471.020 
G1 X312.449 Y470.151 
G1 X298.616 Y491.412 
G1 X301.085 Y497.027 
G1 X294.934 Y496.997 
G1 X284.788 Y508.115 
G1 X277.333 Y496.653 
G1 X275.403 Y496.392 
G1 X263.915 Y469.835 
G1  F360000.00000
G1 X469.435 Y374.237 F576000.000
G1  F360000.00000
G1 F10800
G1 X446.117 Y408.002 
G1 X471.949 Y411.676 
G1 X478.766 Y422.289 
G1 X488.087 Y411.960 
G1 X495.357 Y411.972 
G1 X490.860 Y401.635 
G1 X488.892 Y401.369 
G1 X470.287 Y373.003 
G1  F360000.00000
G1 X478.525 Y366.802 F576000.000
G1  F360000.00000
G1 F10800
G1 X494.901 Y391.864 
G1 X512.102 Y394.194 
G1 X504.074 Y406.375 
G1 X510.968 Y422.223 
G1 X492.626 Y422.193 
G1 X477.395 Y439.075 
G1 X465.875 Y421.141 
G1 X439.723 Y417.421 
G1 X421.402 Y417.390 
G1 X441.950 Y396.042 
G1 X456.846 Y374.472 
G1 X469.794 Y346.732 
G1 X477.927 Y365.427 
G1  F360000.00000
G1 X487.558 Y361.932 F576000.000
G1  F360000.00000
G1 F10800
G1 X500.905 Y382.358 
G1 X529.588 Y386.244 
G1 X515.660 Y407.377 
G1 X526.579 Y432.475 
G1 X497.166 Y432.426 
G1 X483.541 Y447.527 
G1 X477.106 Y457.546 
G1 X459.801 Y430.605 
G1 X438.990 Y427.645 
G1 X414.080 Y427.604 
G1 X393.944 Y424.740 
G1 X416.830 Y407.394 
G1 X434.007 Y389.548 
G1 X447.943 Y369.368 
G1 X458.230 Y347.332 
G1 X464.919 Y322.607 
G1 X481.467 Y347.930 
G1 X486.959 Y360.556 
G1  F360000.00000
G1 X496.590 Y357.061 F576000.000
G1  F360000.00000
G1 F10800
G1 X506.909 Y372.852 
G1 X522.313 Y374.939 
G1 X541.821 Y374.843 
G1 X545.439 Y370.743 
G1 X548.078 Y374.958 
G1 X551.959 Y375.484 
G1 X550.219 Y378.124 
G1 X551.483 Y380.907 
G1 X548.286 Y380.861 
G1 X538.135 Y391.858 
G1 X527.247 Y408.378 
G1 X533.701 Y423.212 
G1 X544.115 Y439.148 
G1 X546.996 Y439.510 
G1 X545.757 Y441.344 
G1 X547.381 Y445.078 
G1 X543.143 Y445.071 
G1 X539.618 Y449.066 
G1 X537.018 Y444.915 
G1 X521.388 Y442.692 
G1 X501.706 Y442.659 
G1 X491.693 Y453.756 
G1 X480.989 Y470.423 
G1 X482.260 Y473.223 
G1 X479.111 Y473.177 
G1 X474.939 Y477.801 
G1 X471.830 Y472.960 
G1 X468.856 Y472.587 
G1 X470.163 Y470.652 
G1 X463.871 Y455.862 
G1 X453.727 Y440.070 
G1 X438.258 Y437.870 
G1 X418.593 Y437.837 
G1 X414.921 Y441.998 
G1 X412.209 Y437.666 
G1 X396.846 Y435.481 
G1 X377.606 Y435.449 
G1 X367.406 Y446.626 
G1 X356.395 Y463.550 
G1 X357.596 Y466.196 
G1 X354.596 Y466.153 
G1 X344.329 Y477.404 
G1 X333.373 Y494.242 
G1 X339.789 Y508.829 
G1 X350.063 Y524.418 
G1 X353.073 Y524.797 
G1 X351.779 Y526.712 
G1 X353.348 Y530.278 
G1 X349.301 Y530.258 
G1 X345.713 Y534.324 
G1 X343.049 Y530.071 
G1 X327.702 Y527.836 
G1 X308.408 Y527.741 
G1 X298.192 Y538.936 
G1 X287.182 Y555.858 
G1 X288.383 Y558.505 
G1 X285.384 Y558.461 
G1 X281.012 Y563.251 
G1 X277.741 Y558.223 
G1 X274.924 Y557.869 
G1 X276.135 Y556.076 
G1 X269.665 Y541.119 
G1 X259.284 Y525.165 
G1 X243.972 Y523.091 
G1 X224.624 Y523.186 
G1 X221.007 Y527.286 
G1 X218.368 Y523.072 
G1 X214.486 Y522.546 
G1 X216.226 Y519.906 
G1 X214.963 Y517.122 
G1 X218.160 Y517.168 
G1 X228.276 Y506.208 
G1 X239.112 Y489.765 
G1 X232.681 Y474.898 
G1 X222.258 Y458.879 
G1 X219.442 Y458.525 
G1 X220.653 Y456.733 
G1 X214.182 Y441.775 
G1 X203.815 Y425.841 
G1 X188.556 Y423.722 
G1 X169.209 Y423.755 
G1 X165.528 Y427.927 
G1 X162.824 Y423.609 
G1 X147.229 Y421.444 
G1 X127.678 Y421.476 
G1 X117.649 Y432.591 
G1 X106.905 Y449.318 
G1 X108.176 Y452.119 
G1 X105.027 Y452.073 
G1 X100.855 Y456.697 
G1 X97.746 Y451.856 
G1 X94.772 Y451.483 
G1 X96.079 Y449.548 
G1 X89.806 Y434.803 
G1 X79.688 Y419.049 
G1 X64.114 Y416.887 
G1 X44.370 Y416.920 
G1 X40.835 Y420.926 
G1 X38.244 Y416.788 
G1 X34.168 Y416.222 
G1 X35.995 Y413.427 
G1 X34.773 Y410.734 
G1 X37.838 Y410.779 
G1 X48.090 Y399.588 
G1 X59.056 Y382.806 
G1 X52.614 Y368.158 
G1 X42.299 Y352.507 
G1 X39.289 Y352.129 
G1 X40.582 Y350.213 
G1 X39.014 Y346.647 
G1 X43.060 Y346.667 
G1 X46.649 Y342.601 
G1 X49.312 Y346.855 
G1 X64.767 Y349.105 
G1 X84.205 Y349.201 
G1 X94.361 Y338.115 
G1 X105.330 Y321.329 
G1 X104.019 Y318.441 
G1 X107.318 Y318.489 
G1 X117.399 Y307.484 
G1 X128.137 Y291.051 
G1 X121.719 Y276.214 
G1 X111.295 Y260.193 
G1 X108.478 Y259.839 
G1 X109.689 Y258.047 
G1 X103.219 Y243.090 
G1 X92.839 Y227.136 
G1 X77.526 Y225.061 
G1 X58.179 Y225.157 
G1 X54.561 Y229.257 
G1 X51.922 Y225.042 
G1 X48.041 Y224.516 
G1 X49.781 Y221.876 
G1 X48.517 Y219.092 
G1 X51.714 Y219.139 
G1 X61.831 Y208.179 
G1 X72.667 Y191.736 
G1 X66.236 Y176.869 
G1 X55.814 Y160.850 
G1 X52.997 Y160.496 
G1 X54.208 Y158.703 
G1 X52.556 Y154.886 
G1 X56.890 Y154.886 
G1 X60.384 Y150.926 
G1 X62.951 Y155.026 
G1 X78.643 Y157.231 
G1 X98.377 Y157.231 
G1 X108.346 Y146.181 
G1 X119.010 Y129.577 
G1 X117.739 Y126.777 
G1 X120.888 Y126.823 
G1 X125.061 Y122.198 
G1 X128.170 Y127.039 
G1 X131.144 Y127.413 
G1 X129.837 Y129.347 
G1 X136.091 Y144.048 
G1 X146.162 Y159.728 
G1 X161.762 Y161.920 
G1 X181.585 Y161.920 
G1 X185.079 Y157.961 
G1 X187.646 Y162.060 
G1 X203.338 Y164.266 
G1 X223.045 Y164.266 
G1 X233.025 Y153.287 
G1 X243.761 Y136.716 
G1 X242.448 Y133.822 
G1 X245.730 Y133.869 
G1 X255.913 Y122.668 
G1 X266.740 Y105.956 
G1 X260.292 Y91.294 
G1 X249.937 Y75.582 
G1 X246.927 Y75.203 
G1 X248.221 Y73.288 
G1 X246.652 Y69.722 
G1 X250.699 Y69.742 
G1 X254.287 Y65.676 
G1 X256.950 Y69.929 
G1 X272.352 Y72.172 
G1 X291.741 Y72.268 
G1 X301.918 Y61.074 
G1 X312.851 Y44.196 
G1 X311.627 Y41.498 
G1 X314.677 Y41.542 
G1 X318.981 Y36.808 
G1 X322.198 Y41.774 
G1 X325.067 Y42.134 
G1 X323.825 Y43.974 
G1 X330.241 Y58.890 
G1 X340.565 Y74.826 
G1 X355.947 Y76.910 
G1 X375.375 Y76.814 
G1 X378.993 Y72.714 
G1 X381.632 Y76.929 
G1 X385.513 Y77.455 
G1 X383.774 Y80.094 
G1 X385.037 Y82.878 
G1 X381.840 Y82.832 
G1 X371.655 Y93.866 
G1 X360.747 Y110.418 
G1 X367.100 Y125.185 
G1 X377.414 Y141.106 
G1 X380.517 Y141.496 
G1 X379.155 Y143.513 
G1 X385.475 Y158.205 
G1 X395.579 Y173.801 
G1 X411.149 Y175.990 
G1 X430.975 Y175.990 
G1 X434.468 Y172.030 
G1 X437.035 Y176.130 
G1 X452.726 Y178.335 
G1 X472.461 Y178.335 
G1 X482.430 Y167.285 
G1 X493.094 Y150.682 
G1 X491.823 Y147.881 
G1 X494.972 Y147.927 
G1 X499.145 Y143.302 
G1 X502.254 Y148.144 
G1 X505.228 Y148.517 
G1 X503.921 Y150.451 
G1 X510.175 Y165.151 
G1 X520.246 Y180.832 
G1 X535.846 Y183.024 
G1 X555.668 Y183.024 
G1 X559.162 Y179.065 
G1 X561.730 Y183.164 
G1 X565.902 Y183.751 
G1 X564.033 Y186.624 
G1 X565.234 Y189.271 
G1 X562.234 Y189.227 
G1 X551.966 Y200.479 
G1 X541.012 Y217.316 
G1 X547.427 Y231.903 
G1 X557.701 Y247.493 
G1 X560.711 Y247.871 
G1 X559.418 Y249.787 
G1 X560.986 Y253.353 
G1 X556.940 Y253.333 
G1 X553.351 Y257.399 
G1 X550.688 Y253.145 
G1 X535.340 Y250.910 
G1 X516.047 Y250.815 
G1 X505.830 Y262.010 
G1 X494.820 Y278.933 
G1 X496.021 Y281.579 
G1 X493.022 Y281.536 
G1 X482.753 Y292.788 
G1 X471.815 Y309.599 
G1 X478.151 Y324.163 
G1 X488.365 Y339.794 
G1 X491.482 Y340.185 
G1 X490.124 Y342.196 
G1 X495.992 Y355.685 
G1  F360000.00000
G1 X458.719 Y210.246 F576000.000
G1  F360000.00000
G1 F10800
G1 X465.748 Y220.425 
G1 X478.101 Y246.887 
G1 X502.572 Y220.071 
G1 X508.724 Y220.102 
G1 X504.078 Y209.538 
G1 X502.039 Y209.251 
G1 X495.321 Y198.792 
G1 X486.101 Y209.012 
G1 X457.867 Y209.012 
G1  F360000.00000
G1 X451.296 Y198.786 F576000.000
G1  F360000.00000
G1 F10800
G1 X481.554 Y198.786 
G1 X496.694 Y182.006 
G1 X508.108 Y199.778 
G1 X526.355 Y202.343 
G1 X517.840 Y215.430 
G1 X524.426 Y230.405 
G1 X507.064 Y230.319 
G1 X489.599 Y249.458 
G1 X474.311 Y272.953 
G1 X467.869 Y249.144 
G1 X456.846 Y225.528 
G1 X436.990 Y196.776 
G1 X449.811 Y198.577 
G1  F360000.00000
G1 X450.526 Y188.352 F576000.000
G1  F360000.00000
G1 F10800
G1 X435.323 Y186.215 
G1 X410.680 Y186.215 
G1 X434.007 Y210.452 
G1 X447.943 Y230.632 
G1 X458.230 Y252.668 
G1 X464.543 Y276.000 
G1 X465.469 Y286.440 
G1 X472.477 Y288.879 
G1 X485.271 Y274.859 
G1 X497.715 Y255.734 
G1 X511.555 Y240.567 
G1 X540.129 Y240.708 
G1 X529.426 Y216.373 
G1 X544.470 Y193.250 
G1 X535.131 Y193.250 
G1 X514.177 Y190.305 
G1 X496.988 Y163.542 
G1 X490.582 Y173.515 
G1 X477.007 Y188.561 
G1 X452.011 Y188.561 
G1  F360000.00000
G1 X297.314 Y149.669 F576000.000
G1  F360000.00000
G1 F10800
G1 X300.000 Y149.481 
G1 X325.666 Y151.273 
G1 X350.749 Y156.617 
G1 X377.963 Y166.620 
G1 X370.462 Y149.183 
G1 X358.048 Y130.020 
G1 X349.176 Y109.394 
G1 X363.140 Y88.204 
G1 X334.537 Y84.328 
G1 X316.787 Y56.928 
G1 X310.046 Y67.335 
G1 X296.244 Y82.516 
G1 X267.540 Y82.374 
G1 X278.321 Y106.887 
G1 X264.041 Y128.929 
G1 X253.424 Y140.608 
G1 X242.060 Y158.149 
G1 X274.334 Y151.273 
G1 X295.817 Y149.773 
G1  F360000.00000
G1 X295.105 Y139.572 F576000.000
G1  F360000.00000
G1 F10800
G1 X268.108 Y141.457 
G1 X289.902 Y107.819 
G1 X283.242 Y92.678 
G1 X300.747 Y92.764 
G1 X316.554 Y75.377 
G1 X328.509 Y93.831 
G1 X345.655 Y96.154 
G1 X337.604 Y108.370 
G1 X348.996 Y134.854 
G1 X357.214 Y147.539 
G1 X327.094 Y141.122 
G1 X300.000 Y139.230 
G1 X296.601 Y139.468 
G1  F360000.00000
G1 X289.322 Y129.726 F576000.000
G1  F360000.00000
G1 F10800
G1 X300.000 Y128.980 
G1 X336.432 Y131.524 
G1 X324.418 Y103.595 
G1 X322.481 Y103.333 
G1 X315.190 Y92.079 
G1 X305.251 Y103.012 
G1 X298.945 Y102.981 
G1 X301.482 Y108.750 
G1 X287.825 Y129.830 
G1  F360000.00000
G1 X300.000 Y167.383 F576000.000
G1  F360000.00000
G1 F7200
G1 X323.171 Y169.001 
G1 X345.783 Y173.818 
G1 X367.290 Y181.724 
G1 X387.169 Y192.533 
G1 X404.931 Y205.995 
G1 X420.136 Y221.792 
G1 X432.396 Y239.545 
G1 X441.394 Y258.823 
G1 X446.893 Y279.146 
G1 X448.700 Y299.513 
G1 X448.783 Y299.543 
G1 X448.743 Y300.000 
G1 X448.783 Y300.457 
G1 X448.700 Y300.486 
G1 X446.893 Y320.854 
G1 X441.394 Y341.177 
G1 X432.396 Y360.455 
G1 X420.136 Y378.208 
G1 X404.931 Y394.005 
G1 X387.169 Y407.467 
G1 X367.290 Y418.276 
G1 X345.783 Y426.181 
G1 X323.171 Y430.999 
G1 X300.000 Y432.617 
G1 X276.829 Y430.999 
G1 X254.217 Y426.181 
G1 X232.710 Y418.276 
G1 X212.831 Y407.467 
G1 X195.069 Y394.005 
G1 X179.864 Y378.208 
G1 X167.604 Y360.455 
G1 X158.606 Y341.177 
G1 X153.107 Y320.854 
G1 X151.300 Y300.487 
G1 X151.217 Y300.457 
G1 X151.257 Y300.000 
G1 X151.217 Y299.543 
G1 X151.300 Y299.513 
G1 X153.107 Y279.146 
G1 X158.606 Y258.823 
G1 X167.604 Y239.545 
G1 X179.864 Y221.792 
G1 X195.069 Y205.995 
G1 X212.831 Y192.533 
G1 X232.710 Y181.724 
G1 X254.217 Y173.818 
G1 X276.829 Y169.001 
G1 X298.504 Y167.487 
G1  F360000.00000
G1 X326.673 Y34.643 F576000.000
G1  F360000.00000
G1 F7200
G1 X337.964 Y36.062 
G1 X338.384 Y36.056 
G1 X332.485 Y44.790 
G1 X336.998 Y55.281 
G1 X345.064 Y67.733 
G1 X356.443 Y69.275 
G1 X371.916 Y69.198 
G1 X379.114 Y61.040 
G1 X379.901 Y59.784 
G1 X386.202 Y69.845 
G1 X397.684 Y71.401 
G1 X398.647 Y71.396 
G1 X392.465 Y80.776 
G1 X396.963 Y90.685 
G1 X385.137 Y90.513 
G1 X377.686 Y98.586 
G1 X369.385 Y111.182 
G1 X373.857 Y121.577 
G1 X381.889 Y133.975 
G1 X393.286 Y135.407 
G1 X393.846 Y135.399 
G1 X387.815 Y144.328 
G1 X392.232 Y154.596 
G1 X400.091 Y166.728 
G1 X411.683 Y168.357 
G1 X427.530 Y168.357 
G1 X434.673 Y160.261 
G1 X435.388 Y159.119 
G1 X441.617 Y169.066 
G1 X453.260 Y170.702 
G1 X469.067 Y170.702 
G1 X476.345 Y162.636 
G1 X484.427 Y150.053 
G1 X479.897 Y140.074 
G1 X491.623 Y140.245 
G1 X499.001 Y132.068 
G1 X500.000 Y130.511 
G1 X506.747 Y141.016 
G1 X518.087 Y142.440 
G1 X518.548 Y142.434 
G1 X512.570 Y151.284 
G1 X516.946 Y161.570 
G1 X524.775 Y173.761 
G1 X536.379 Y175.392 
G1 X552.224 Y175.392 
