; generated by Slic3r Prusa Edition 1.39.1-prusa3d-win64 on 2018-03-16 at 23:21:05

; 

; external perimeters extrusion width = 6.75mm
; perimeters extrusion width = 6.75mm
; infill extrusion width = 6.75mm
; solid infill extrusion width = 6.75mm
; top infill extrusion width = 6.00mm

$H
G92 X0 Y0
G90
; Filament gcode
G21 ; set units to millimeters
G90 ; use absolute coordinates
G1 Z5.000 F576000.000
G1  F360000.00000
G1 X181.384 Y101.953 F576000.000
G1  F360000.00000
G1 F10800
G1 X154.909 Y91.684 
G1 X158.700 Y85.515 
G1 X189.932 Y88.063 
G1 X181.855 Y101.187 
G1  F360000.00000
G1 X190.240 Y98.451 F576000.000
G1  F360000.00000
G1 F10800
G1 X215.664 Y105.225 
G1 X204.388 Y123.550 
G1 X207.889 Y124.486 
G1 X208.076 Y128.641 
G1 X193.866 Y133.846 
G1 X194.673 Y135.358 
G1 X181.019 Y138.239 
G1 X186.372 Y129.535 
G1 X160.296 Y120.126 
G1 X170.339 Y103.789 
G1 X146.463 Y94.528 
G1 X157.051 Y77.300 
G1 X143.348 Y72.351 
G1 X168.420 Y62.823 
G1 X167.753 Y61.571 
G1 X181.318 Y59.270 
G1 X168.215 Y80.566 
G1 X199.667 Y83.132 
G1 X190.711 Y97.684 
G1  F360000.00000
G1 X199.118 Y94.911 F576000.000
G1  F360000.00000
G1 F10800
G1 X224.542 Y101.686 
G1 X213.263 Y120.015 
G1 X226.808 Y123.633 
G1 X226.996 Y127.788 
G1 X201.988 Y136.948 
G1 X203.281 Y139.374 
G1 X169.199 Y146.565 
G1 X177.836 Y132.521 
G1 X151.762 Y123.112 
G1 X161.892 Y106.634 
G1 X138.018 Y97.373 
G1 X148.518 Y80.286 
G1 X126.927 Y72.487 
G1 X160.338 Y59.790 
G1 X158.995 Y57.269 
G1 X192.775 Y51.538 
G1 X177.949 Y75.635 
G1 X209.403 Y78.201 
G1 X199.590 Y94.145 
G1  F360000.00000
G1 X207.997 Y91.372 F576000.000
G1  F360000.00000
G1 F10800
G1 X233.420 Y98.146 
G1 X222.139 Y116.479 
G1 X246.233 Y122.915 
G1 X246.170 Y127.338 
G1 X242.330 Y128.249 
G1 X210.109 Y140.051 
G1 X293.415 Y296.261 
G1 X282.965 Y301.171 
G1 X280.304 Y296.848 
G1 X199.832 Y145.933 
G1 X175.797 Y151.005 
G1 X172.927 Y151.143 
G1 X159.684 Y151.143 
G1 X169.300 Y135.508 
G1 X143.227 Y126.099 
G1 X153.445 Y109.478 
G1 X129.572 Y100.217 
G1 X139.986 Y83.271 
G1 X115.136 Y74.296 
G1 X115.215 Y70.229 
G1 X124.981 Y67.122 
G1 X152.255 Y56.757 
G1 X142.368 Y38.202 
G1 X152.828 Y33.292 
G1 X163.546 Y50.709 
G1 X186.810 Y46.763 
G1 X202.414 Y46.763 
G1 X187.683 Y70.704 
G1 X219.138 Y73.270 
G1 X208.469 Y90.605 
G1  F360000.00000
G1 X216.876 Y87.832 F576000.000
G1  F360000.00000
G1 F10800
G1 X237.732 Y93.390 
G1 X240.390 Y97.709 
G1 X231.015 Y112.944 
G1 X259.158 Y120.461 
G1 X252.198 Y131.773 
G1 X243.976 Y133.723 
G1 X218.231 Y143.153 
G1 X300.579 Y297.570 
G1 X299.169 Y299.862 
G1 X284.915 Y306.559 
G1 X279.580 Y306.559 
G1 X275.352 Y299.688 
G1 X196.815 Y152.402 
G1 X176.529 Y156.682 
G1 X173.065 Y156.850 
G1 X155.438 Y156.850 
G1 X152.456 Y152.003 
G1 X160.764 Y138.494 
G1 X139.015 Y130.646 
G1 X136.373 Y126.352 
G1 X144.998 Y112.322 
G1 X125.423 Y104.729 
G1 X122.761 Y100.402 
G1 X131.454 Y86.256 
G1 X108.752 Y78.057 
G1 X106.107 Y73.759 
G1 X108.620 Y69.671 
G1 X108.389 Y66.070 
G1 X109.752 Y63.856 
G1 X116.425 Y63.856 
G1 X123.102 Y61.732 
G1 X144.173 Y53.724 
G1 X135.203 Y36.891 
G1 X136.614 Y34.599 
G1 X150.875 Y27.905 
G1 X156.213 Y27.905 
G1 X166.388 Y44.439 
G1 X186.330 Y41.056 
G1 X204.192 Y41.056 
G1 X207.807 Y41.346 
G1 X210.127 Y45.116 
G1 X197.417 Y65.773 
G1 X224.449 Y67.978 
G1 X226.772 Y71.753 
G1 X217.348 Y87.066 
G1  F360000.00000
G1 X225.755 Y84.293 F576000.000
G1  F360000.00000
G1 F10800
G1 X241.399 Y88.461 
G1 X247.090 Y97.709 
G1 X239.891 Y109.408 
G1 X262.456 Y115.436 
G1 X268.103 Y116.813 
G1 X255.184 Y137.808 
G1 X251.477 Y137.808 
G1 X245.621 Y139.197 
G1 X226.352 Y146.255 
G1 X307.155 Y297.773 
G1 X303.136 Y304.303 
G1 X286.189 Y312.266 
G1 X276.392 Y312.266 
G1 X270.400 Y302.529 
G1 X193.797 Y158.871 
G1 X177.260 Y162.360 
G1 X173.203 Y162.556 
G1 X152.250 Y162.556 
G1 X145.756 Y152.004 
G1 X152.228 Y141.480 
G1 X136.225 Y135.706 
G1 X135.179 Y135.300 
G1 X129.674 Y126.354 
G1 X136.552 Y115.166 
G1 X121.569 Y109.354 
G1 X116.062 Y100.404 
G1 X122.921 Y89.242 
G1 X105.965 Y83.117 
G1 X104.916 Y82.711 
G1 X99.408 Y73.761 
G1 X102.810 Y68.228 
G1 X102.578 Y64.625 
G1 X106.563 Y58.150 
G1 X115.539 Y58.149 
G1 X121.222 Y56.342 
G1 X136.091 Y50.691 
G1 X128.629 Y36.688 
G1 X132.647 Y30.158 
G1 X149.602 Y22.199 
G1 X159.402 Y22.199 
G1 X169.230 Y38.169 
G1 X185.849 Y35.350 
G1 X204.420 Y35.350 
G1 X211.150 Y35.889 
G1 X216.827 Y45.116 
G1 X207.151 Y60.841 
G1 X227.794 Y62.525 
G1 X233.472 Y71.753 
G1 X226.227 Y83.526 
G1  F360000.00000
G1 X234.634 Y80.753 F576000.000
G1  F360000.00000
G1 F10800
G1 X245.067 Y83.533 
G1 X253.529 Y97.285 
G1 X253.781 Y97.722 
G1 X248.766 Y105.872 
G1 X263.869 Y109.906 
G1 X270.563 Y111.539 
G1 X276.522 Y96.599 
G1 X286.741 Y71.485 
G1 X294.289 Y59.220 
G1 X310.015 Y59.220 
G1 X341.234 Y61.157 
G1 X348.652 Y73.211 
G1 X359.438 Y116.654 
G1 X376.242 Y121.134 
G1 X384.738 Y124.215 
G1 X425.735 Y92.182 
G1 X441.170 Y92.182 
G1 X467.542 Y108.447 
G1 X474.877 Y120.365 
G1 X459.098 Y170.269 
G1 X472.021 Y183.864 
G1 X478.806 Y192.327 
G1 X523.995 Y185.244 
G1 X539.364 Y185.244 
G1 X547.107 Y197.829 
G1 X560.668 Y223.610 
G1 X553.427 Y235.377 
G1 X518.835 Y265.988 
G1 X521.308 Y274.273 
G1 X522.482 Y278.929 
G1 X523.531 Y283.600 
G1 X525.411 Y293.775 
G1 X575.047 Y311.352 
G1 X582.463 Y323.404 
G1 X580.427 Y352.309 
G1 X572.995 Y364.385 
G1 X518.987 Y376.186 
G1 X516.696 Y382.923 
G1 X509.224 Y401.123 
G1 X538.854 Y434.549 
G1 X546.158 Y446.418 
G1 X538.629 Y458.654 
G1 X521.483 Y483.013 
G1 X506.228 Y483.013 
G1 X460.843 Y470.760 
G1 X447.427 Y483.006 
G1 X439.062 Y489.271 
G1 X447.905 Y538.927 
G1 X440.521 Y550.928 
G1 X412.310 Y563.990 
G1 X396.913 Y563.990 
G1 X358.815 Y526.095 
G1 X350.671 Y528.011 
G1 X329.547 Y530.929 
G1 X323.544 Y545.978 
G1 X323.138 Y546.863 
G1 X313.256 Y571.247 
G1 X305.711 Y583.507 
G1 X289.985 Y583.507 
G1 X258.768 Y581.570 
G1 X251.351 Y569.517 
G1 X240.565 Y526.075 
G1 X223.757 Y521.597 
G1 X215.263 Y518.513 
G1 X174.268 Y550.548 
G1 X158.833 Y550.548 
G1 X132.461 Y534.281 
G1 X125.127 Y522.363 
G1 X140.946 Y472.330 
G1 X134.592 Y466.257 
G1 X128.359 Y459.356 
G1 X128.138 Y458.998 
G1 X121.193 Y450.402 
G1 X76.007 Y457.483 
G1 X60.638 Y457.483 
G1 X52.894 Y444.899 
G1 X39.334 Y419.118 
G1 X46.575 Y407.351 
G1 X81.171 Y376.736 
G1 X79.096 Y369.708 
G1 X78.179 Y366.272 
G1 X76.528 Y359.455 
G1 X74.592 Y348.956 
G1 X24.953 Y331.375 
G1 X17.537 Y319.324 
G1 X19.577 Y290.422 
G1 X27.010 Y278.344 
G1 X81.148 Y266.512 
G1 X90.758 Y241.599 
G1 X61.147 Y208.241 
G1 X53.804 Y196.309 
G1 X61.371 Y184.013 
G1 X78.515 Y159.716 
G1 X93.749 Y159.716 
G1 X148.620 Y174.928 
G1 X185.864 Y208.149 
G1 X192.931 Y219.633 
G1 X187.967 Y227.699 
G1 X208.165 Y227.700 
G1 X211.252 Y230.345 
G1 X221.192 Y222.373 
G1 X190.779 Y165.339 
G1 X177.991 Y168.037 
G1 X173.341 Y168.262 
G1 X149.061 Y168.262 
G1 X139.056 Y152.005 
G1 X143.693 Y144.467 
G1 X134.225 Y141.050 
G1 X131.326 Y139.926 
G1 X122.974 Y126.355 
G1 X128.105 Y118.010 
G1 X117.716 Y113.980 
G1 X109.363 Y100.406 
G1 X114.389 Y92.227 
G1 X103.964 Y88.462 
G1 X101.063 Y87.337 
G1 X92.709 Y73.762 
G1 X96.999 Y66.784 
G1 X96.767 Y63.180 
G1 X103.374 Y52.444 
G1 X114.653 Y52.443 
G1 X119.342 Y50.952 
G1 X128.009 Y47.658 
G1 X122.054 Y36.484 
G1 X128.680 Y25.716 
G1 X148.330 Y16.493 
G1 X162.591 Y16.493 
G1 X172.071 Y31.899 
G1 X185.369 Y29.644 
G1 X204.648 Y29.644 
G1 X212.192 Y30.248 
G1 X214.807 Y30.945 
G1 X223.269 Y44.696 
G1 X223.518 Y45.129 
G1 X216.885 Y55.910 
G1 X228.859 Y56.887 
G1 X231.453 Y57.584 
G1 X239.922 Y71.345 
G1 X240.165 Y71.766 
G1 X235.105 Y79.987 
G1  F360000.00000
G1 X193.716 Y119.116 F576000.000
G1  F360000.00000
G1 F10800
G1 X197.907 Y112.305 
G1 X181.232 Y107.861 
G1 X177.365 Y114.152 
G1 X193.245 Y119.882 
G1  F360000.00000
G1 X196.145 Y126.058 F576000.000
G1  F360000.00000
G1 F10800
G1 X206.786 Y108.765 
G1 X178.596 Y101.253 
G1 X168.831 Y117.139 
G1 X195.673 Y126.825 
G1  F360000.00000
G1 X234.474 Y149.358 F576000.000
G1  F360000.00000
G1 F10800
G1 X247.267 Y144.672 
G1 X252.144 Y143.515 
G1 X258.373 Y143.515 
G1 X267.469 Y128.731 
G1 X272.929 Y169.574 
G1 X282.997 Y185.935 
G1 X276.044 Y197.234 
G1 X276.649 Y201.411 
G1 X264.379 Y205.435 
G1 X234.897 Y150.152 
G1  F360000.00000
G1 X271.497 Y218.783 F576000.000
G1  F360000.00000
G1 F10800
G1 X292.191 Y218.783 
G1 X313.991 Y220.846 
G1 X337.512 Y227.697 
G1 X358.825 Y238.549 
G1 X377.422 Y252.946 
G1 X391.037 Y268.430 
G1 X394.332 Y274.124 
G1 X401.703 Y296.412 
G1 X404.276 Y320.333 
G1 X401.703 Y344.258 
G1 X394.332 Y366.544 
G1 X391.034 Y372.243 
G1 X377.422 Y387.724 
G1 X358.825 Y402.121 
G1 X337.512 Y412.974 
G1 X313.991 Y419.824 
G1 X298.899 Y421.251 
G1 X283.809 Y419.824 
G1 X260.288 Y412.974 
G1 X238.975 Y402.121 
G1 X220.376 Y387.724 
G1 X206.768 Y372.249 
G1 X203.468 Y366.544 
G1 X196.094 Y344.258 
G1 X193.526 Y320.357 
G1 X195.803 Y297.817 
G1 X202.345 Y276.716 
G1 X206.368 Y269.249 
G1 X215.606 Y257.831 
G1 X228.728 Y236.507 
G1 X265.448 Y305.369 
G1 X273.203 Y317.972 
G1 X287.462 Y317.972 
G1 X307.104 Y308.743 
G1 X313.730 Y297.975 
G1 X271.921 Y219.577 
G1  F360000.00000
G1 X399.007 Y197.492 F576000.000
G1  F360000.00000
G1 F10800
G1 X391.287 Y191.515 
G1 X396.610 Y187.356 
G1 X402.534 Y193.588 
G1 X399.610 Y196.824 
G1  F360000.00000
G1 X448.725 Y383.809 F576000.000
G1  F360000.00000
G1 F10800
G1 X457.790 Y356.405 
G1 X461.668 Y320.332 
G1 X457.789 Y284.265 
G1 X446.835 Y251.145 
G1 X451.006 Y248.879 
G1 X456.061 Y255.185 
G1 X466.278 Y289.419 
G1 X466.969 Y292.158 
G1 X467.615 Y295.038 
G1 X474.198 Y330.661 
G1 X463.239 Y362.880 
G1 X453.865 Y385.712 
G1 X449.569 Y384.122 
G1  F360000.00000
G1 X429.808 Y414.563 F576000.000
G1  F360000.00000
G1 F10800
G1 X437.605 Y405.696 
G1 X445.637 Y391.816 
G1 X450.398 Y394.157 
G1 X444.570 Y408.354 
G1 X433.643 Y418.327 
G1 X430.451 Y415.193 
G1  F360000.00000
G1 X372.766 Y459.057 F576000.000
G1  F360000.00000
G1 F10800
G1 X381.487 Y454.617 
G1 X384.240 Y459.039 
G1 X377.438 Y464.133 
G1 X376.592 Y463.291 
G1 X374.497 Y463.784 
G1 X373.076 Y459.902 
G1  F360000.00000
G1 X156.833 Y352.761 F576000.000
G1  F360000.00000
G1 F10800
G1 X166.836 Y382.991 
G1 X174.167 Y395.665 
G1 X192.903 Y416.972 
G1 X217.499 Y436.010 
G1 X245.510 Y450.274 
G1 X276.277 Y459.234 
G1 X298.899 Y461.374 
G1 X321.522 Y459.234 
G1 X352.289 Y450.274 
G1 X380.302 Y436.009 
G1 X404.895 Y416.970 
G1 X423.634 Y395.660 
G1 X430.965 Y382.991 
G1 X440.964 Y352.761 
G1 X444.451 Y320.332 
G1 X440.964 Y287.909 
G1 X430.965 Y257.676 
G1 X423.636 Y245.013 
G1 X404.895 Y223.700 
G1 X380.303 Y204.661 
G1 X352.289 Y190.396 
G1 X328.353 Y183.425 
G1 X311.396 Y155.869 
G1 X307.503 Y126.743 
G1 X313.189 Y112.487 
G1 X317.316 Y112.769 
G1 X326.355 Y149.174 
G1 X364.264 Y159.280 
G1 X391.907 Y169.306 
G1 X420.343 Y147.087 
G1 X423.780 Y149.472 
G1 X413.905 Y180.703 
G1 X441.909 Y210.163 
G1 X462.119 Y235.374 
G1 X492.347 Y230.636 
G1 X494.159 Y234.486 
G1 X473.266 Y252.975 
G1 X482.787 Y284.875 
G1 X483.623 Y288.189 
G1 X484.390 Y291.607 
G1 X490.325 Y323.726 
G1 X514.109 Y332.148 
G1 X513.841 Y336.424 
G1 X488.431 Y341.976 
G1 X479.276 Y368.893 
G1 X462.816 Y408.986 
G1 X482.321 Y430.991 
G1 X480.095 Y434.583 
G1 X450.099 Y426.485 
G1 X421.930 Y452.197 
G1 X395.423 Y472.051 
G1 X401.595 Y506.712 
G1 X397.909 Y508.641 
G1 X371.259 Y482.132 
G1 X343.348 Y488.699 
G1 X301.057 Y494.541 
G1 X286.815 Y530.246 
G1 X282.688 Y529.965 
G1 X273.647 Y493.551 
G1 X235.737 Y483.451 
G1 X208.099 Y473.418 
G1 X179.660 Y495.641 
G1 X176.223 Y493.255 
G1 X186.534 Y460.645 
G1 X163.251 Y438.394 
G1 X159.351 Y434.075 
G1 X137.782 Y407.370 
G1 X107.655 Y412.092 
G1 X105.843 Y408.242 
G1 X126.678 Y389.805 
G1 X117.554 Y358.900 
G1 X116.892 Y356.418 
G1 X115.610 Y351.126 
G1 X109.689 Y319.010 
G1 X85.888 Y310.581 
G1 X86.156 Y306.305 
G1 X110.679 Y300.946 
G1 X123.524 Y267.643 
G1 X163.338 Y267.644 
G1 X156.464 Y289.815 
G1 X153.366 Y320.485 
G1 X156.737 Y351.866 
G1  F360000.00000
G1 X151.128 Y353.081 F576000.000
G1  F360000.00000
G1 F10800
G1 X147.629 Y320.503 
G1 X150.844 Y288.672 
G1 X155.594 Y273.350 
G1 X127.439 Y273.350 
G1 X114.898 Y305.865 
G1 X106.925 Y307.607 
G1 X106.657 Y311.883 
G1 X114.703 Y314.732 
G1 X121.193 Y349.936 
G1 X122.422 Y355.010 
G1 X123.048 Y357.356 
G1 X133.179 Y391.672 
G1 X124.239 Y399.583 
G1 X126.051 Y403.433 
G1 X140.152 Y401.223 
G1 X163.691 Y430.367 
G1 X167.345 Y434.414 
G1 X193.046 Y458.976 
G1 X187.213 Y477.426 
G1 X190.649 Y479.812 
G1 X207.076 Y466.976 
G1 X237.448 Y478.001 
G1 X278.373 Y488.905 
G1 X283.955 Y511.387 
G1 X288.082 Y511.668 
G1 X296.987 Y489.342 
G1 X342.302 Y483.083 
G1 X373.036 Y475.852 
G1 X389.124 Y491.854 
G1 X392.810 Y489.924 
G1 X389.189 Y469.591 
G1 X418.287 Y447.796 
G1 X448.564 Y420.160 
G1 X463.183 Y424.107 
G1 X465.408 Y420.514 
G1 X456.186 Y410.110 
G1 X473.931 Y366.889 
G1 X484.066 Y337.089 
G1 X493.069 Y335.122 
G1 X493.337 Y330.846 
G1 X485.313 Y328.004 
G1 X478.798 Y292.750 
G1 X478.071 Y289.512 
G1 X477.284 Y286.390 
G1 X466.756 Y251.116 
G1 X475.764 Y243.145 
G1 X473.952 Y239.295 
G1 X459.736 Y241.523 
G1 X437.608 Y213.920 
G1 X407.449 Y182.194 
G1 X412.790 Y165.301 
G1 X409.354 Y162.915 
G1 X392.931 Y175.748 
G1 X362.553 Y164.730 
G1 X315.895 Y152.292 
G1 X332.061 Y178.562 
G1 X354.400 Y185.068 
G1 X383.371 Y199.820 
G1 X408.820 Y219.522 
G1 X428.293 Y241.667 
G1 X436.198 Y255.327 
G1 X446.572 Y286.695 
G1 X450.190 Y320.332 
G1 X446.572 Y353.976 
G1 X436.198 Y385.340 
G1 X428.291 Y399.005 
G1 X408.820 Y421.148 
G1 X383.371 Y440.850 
G1 X354.400 Y455.602 
G1 X322.598 Y464.864 
G1 X298.899 Y467.105 
G1 X275.201 Y464.864 
G1 X243.399 Y455.602 
G1 X214.431 Y440.851 
G1 X188.979 Y421.150 
G1 X169.510 Y399.010 
G1 X161.602 Y385.340 
G1 X151.224 Y353.976 
G1  F360000.00000
G1 X145.520 Y354.296 F576000.000
G1  F360000.00000
G1 F10800
G1 X141.892 Y320.521 
G1 X145.224 Y287.529 
G1 X147.851 Y279.056 
G1 X131.355 Y279.056 
G1 X119.563 Y309.625 
G1 X126.776 Y348.746 
G1 X127.952 Y353.603 
G1 X128.542 Y355.813 
G1 X140.239 Y395.433 
G1 X142.522 Y395.075 
G1 X168.031 Y426.660 
G1 X171.440 Y430.433 
G1 X199.559 Y457.307 
G1 X198.203 Y461.596 
G1 X201.639 Y463.982 
G1 X206.052 Y460.533 
G1 X239.160 Y472.552 
G1 X283.099 Y484.259 
G1 X285.222 Y492.809 
G1 X289.349 Y493.090 
G1 X292.918 Y484.144 
G1 X341.256 Y477.467 
G1 X374.814 Y469.572 
G1 X380.338 Y475.066 
G1 X384.024 Y473.137 
G1 X382.954 Y467.131 
G1 X414.645 Y443.394 
G1 X447.029 Y413.835 
G1 X448.342 Y414.189 
G1 X468.585 Y364.884 
G1 X480.080 Y331.088 
G1 X473.207 Y293.894 
G1 X472.520 Y290.835 
G1 X471.781 Y287.904 
G1 X459.665 Y247.310 
G1 X457.352 Y247.673 
G1 X433.306 Y217.677 
G1 X400.993 Y183.684 
G1 X401.801 Y181.130 
G1 X398.364 Y178.744 
G1 X393.955 Y182.189 
G1 X360.842 Y170.179 
G1 X328.257 Y161.493 
G1 X335.768 Y173.698 
G1 X356.511 Y179.739 
G1 X386.439 Y194.979 
G1 X412.745 Y215.344 
G1 X432.950 Y238.322 
G1 X441.431 Y252.977 
G1 X452.181 Y285.480 
G1 X455.929 Y320.332 
G1 X452.181 Y355.190 
G1 X441.431 Y387.690 
G1 X432.948 Y402.351 
G1 X412.745 Y425.326 
G1 X386.439 Y445.691 
G1 X356.511 Y460.931 
G1 X323.674 Y470.494 
G1 X298.899 Y472.837 
G1 X274.125 Y470.494 
G1 X241.288 Y460.931 
G1 X211.363 Y445.692 
G1 X185.054 Y425.328 
G1 X164.853 Y402.355 
G1 X156.369 Y387.690 
G1 X145.616 Y355.191 
G1  F360000.00000
G1 X144.488 Y369.948 F576000.000
G1  F360000.00000
G1 F10800
G1 X150.688 Y388.686 
G1 X146.530 Y390.955 
G1 X143.909 Y387.711 
G1 X139.158 Y371.616 
G1 X143.629 Y370.216 
G1  F360000.00000
G1 X139.493 Y287.484 F576000.000
G1  F360000.00000
G1 F10800
G1 X136.154 Y320.539 
G1 X139.980 Y356.156 
G1 X134.893 Y357.172 
G1 X134.036 Y354.269 
G1 X133.483 Y352.195 
G1 X132.359 Y347.556 
G1 X125.467 Y310.175 
G1 X134.665 Y286.331 
G1 X138.618 Y287.275 
G1  F360000.00000
G1 X129.882 Y235.305 F576000.000
G1  F360000.00000
G1 F10800
G1 X106.460 Y296.027 
G1 X65.388 Y305.003 
G1 X65.119 Y309.279 
G1 X104.675 Y323.288 
G1 X110.026 Y352.315 
G1 X111.361 Y357.826 
G1 X112.060 Y360.444 
G1 X120.177 Y387.938 
G1 X87.447 Y416.901 
G1 X89.259 Y420.751 
G1 X135.412 Y413.517 
