; generated by Slic3r Prusa Edition 1.39.1-prusa3d-win64 on 2018-03-13 at 23:45:27

; 

; external perimeters extrusion width = 11.25mm
; perimeters extrusion width = 11.25mm
; infill extrusion width = 11.25mm
; solid infill extrusion width = 11.25mm
; top infill extrusion width = 10.00mm

G91
G0 X-600 Y-600
G92 X0 Y0
G90
; Filament gcode
G21 ; set units to millimeters
G90 ; use absolute coordinates
G1 Z0.400 F120000.000
G1  F360000.00000
G1 X13.998 Y20.896 F120000.000
G1  F360000.00000
G1 F20250
G1 X20.896 Y20.896 
G1 X20.896 Y13.998 
G1  F360000.00000
G1 X32.060 Y13.998 F120000.000
G1  F360000.00000
G1 F20250
G1 X32.060 Y32.060 
G1 X13.998 Y32.060 
G1  F360000.00000
G1 X13.998 Y43.224 F120000.000
G1  F360000.00000
G1 F20250
G1 X43.224 Y43.224 
G1 X43.224 Y13.998 
G1  F360000.00000
G1 X54.389 Y13.998 F120000.000
G1  F360000.00000
G1 F20250
G1 X54.389 Y54.389 
G1 X13.998 Y54.389 
G1  F360000.00000
G1 X13.998 Y65.553 F120000.000
G1  F360000.00000
G1 F20250
G1 X65.553 Y65.553 
G1 X65.553 Y13.998 
G1  F360000.00000
G1 X76.717 Y13.998 F120000.000
G1  F360000.00000
G1 F20250
G1 X76.717 Y76.717 
G1 X13.998 Y76.717 
G1  F360000.00000
G1 X13.998 Y87.881 F120000.000
G1  F360000.00000
G1 F20250
G1 X87.881 Y87.881 
G1 X87.881 Y13.998 
G1  F360000.00000
G1 X99.045 Y13.998 F120000.000
G1  F360000.00000
G1 F20250
G1 X99.045 Y99.045 
G1 X13.998 Y99.045 
G1  F360000.00000
G1 X13.998 Y110.209 F120000.000
G1  F360000.00000
G1 F20250
G1 X110.209 Y110.209 
G1 X110.209 Y13.998 
G1  F360000.00000
G1 X121.373 Y13.998 F120000.000
G1  F360000.00000
G1 F20250
G1 X121.373 Y121.373 
G1 X13.998 Y121.373 
G1  F360000.00000
G1 X13.998 Y132.538 F120000.000
G1  F360000.00000
G1 F20250
G1 X132.538 Y132.538 
G1 X132.538 Y13.998 
G1  F360000.00000
G1 X143.702 Y13.998 F120000.000
G1  F360000.00000
G1 F20250
G1 X143.702 Y143.702 
G1 X13.998 Y143.702 
G1  F360000.00000
G1 X13.998 Y154.866 F120000.000
G1  F360000.00000
G1 F20250
G1 X154.866 Y154.866 
G1 X154.866 Y13.998 
G1  F360000.00000
G1 X166.030 Y13.998 F120000.000
G1  F360000.00000
G1 F20250
G1 X166.030 Y166.030 
G1 X13.998 Y166.030 
G1  F360000.00000
G1 X13.998 Y177.194 F120000.000
G1  F360000.00000
G1 F20250
G1 X177.194 Y177.194 
G1 X177.194 Y13.998 
G1  F360000.00000
G1 X187.672 Y13.998 F120000.000
G1  F360000.00000
G1 F20250
G1 X300.000 Y126.326 
G1 X412.328 Y13.998 
G1  F360000.00000
G1 X422.806 Y13.998 F120000.000
G1  F360000.00000
G1 F20250
G1 X422.806 Y177.194 
G1 X586.002 Y177.194 
G1  F360000.00000
G1 X586.002 Y187.672 F120000.000
G1  F360000.00000
G1 F20250
G1 X473.674 Y300.000 
G1 X586.002 Y412.328 
G1  F360000.00000
G1 X586.002 Y422.806 F120000.000
G1  F360000.00000
G1 F20250
G1 X422.806 Y422.806 
G1 X422.806 Y586.002 
G1  F360000.00000
G1 X412.328 Y586.002 F120000.000
G1  F360000.00000
G1 F20250
G1 X300.000 Y473.674 
G1 X187.672 Y586.002 
G1  F360000.00000
G1 X203.460 Y586.002 F120000.000
G1  F360000.00000
G1 F20250
G1 X300.000 Y489.462 
G1 X396.540 Y586.002 
G1  F360000.00000
G1 X380.751 Y586.002 F120000.000
G1  F360000.00000
G1 F20250
G1 X300.000 Y505.251 
G1 X219.249 Y586.002 
G1  F360000.00000
G1 X235.037 Y586.002 F120000.000
G1  F360000.00000
G1 F20250
G1 X300.000 Y521.039 
G1 X364.963 Y586.002 
G1  F360000.00000
G1 X349.174 Y586.002 F120000.000
G1  F360000.00000
G1 F20250
G1 X300.000 Y536.828 
G1 X250.826 Y586.002 
G1  F360000.00000
G1 X266.614 Y586.002 F120000.000
G1  F360000.00000
G1 F20250
G1 X300.000 Y552.616 
G1 X333.386 Y586.002 
G1  F360000.00000
G1 X317.597 Y586.002 F120000.000
G1  F360000.00000
G1 F20250
G1 X300.000 Y568.405 
G1 X282.403 Y586.002 
G1  F360000.00000
G1 X298.191 Y586.002 F120000.000
G1  F360000.00000
G1 F20250
G1 X300.000 Y584.193 
G1 X301.809 Y586.002 
G1  F360000.00000
G1 X433.970 Y586.002 F120000.000
G1  F360000.00000
G1 F20250
G1 X433.970 Y433.970 
G1 X586.002 Y433.970 
G1  F360000.00000
G1 X586.002 Y445.134 F120000.000
G1  F360000.00000
G1 F20250
G1 X445.134 Y445.134 
G1 X445.134 Y586.002 
G1  F360000.00000
G1 X456.298 Y586.002 F120000.000
G1  F360000.00000
G1 F20250
G1 X456.298 Y456.298 
G1 X586.002 Y456.298 
G1  F360000.00000
G1 X586.002 Y467.462 F120000.000
G1  F360000.00000
G1 F20250
G1 X467.462 Y467.462 
G1 X467.462 Y586.002 
G1  F360000.00000
G1 X478.627 Y586.002 F120000.000
G1  F360000.00000
G1 F20250
G1 X478.627 Y478.627 
G1 X586.002 Y478.627 
G1  F360000.00000
G1 X586.002 Y489.791 F120000.000
G1  F360000.00000
G1 F20250
G1 X489.791 Y489.791 
G1 X489.791 Y586.002 
G1  F360000.00000
G1 X500.955 Y586.002 F120000.000
G1  F360000.00000
G1 F20250
G1 X500.955 Y500.955 
G1 X586.002 Y500.955 
G1  F360000.00000
G1 X586.002 Y512.119 F120000.000
G1  F360000.00000
G1 F20250
G1 X512.119 Y512.119 
G1 X512.119 Y586.002 
G1  F360000.00000
G1 X523.283 Y586.002 F120000.000
G1  F360000.00000
G1 F20250
G1 X523.283 Y523.283 
G1 X586.002 Y523.283 
G1  F360000.00000
G1 X586.002 Y534.447 F120000.000
G1  F360000.00000
G1 F20250
G1 X534.447 Y534.447 
G1 X534.447 Y586.002 
G1  F360000.00000
G1 X545.611 Y586.002 F120000.000
G1  F360000.00000
G1 F20250
G1 X545.611 Y545.611 
G1 X586.002 Y545.611 
G1  F360000.00000
G1 X586.002 Y556.776 F120000.000
G1  F360000.00000
G1 F20250
G1 X556.776 Y556.776 
G1 X556.776 Y586.002 
G1  F360000.00000
G1 X567.940 Y586.002 F120000.000
G1  F360000.00000
G1 F20250
G1 X567.940 Y567.940 
G1 X586.002 Y567.940 
G1  F360000.00000
G1 X586.002 Y579.104 F120000.000
G1  F360000.00000
G1 F20250
G1 X579.104 Y579.104 
G1 X579.104 Y586.002 
G1  F360000.00000
G1 X586.002 Y396.540 F120000.000
G1  F360000.00000
G1 F20250
G1 X489.462 Y300.000 
G1 X586.002 Y203.460 
G1  F360000.00000
G1 X586.002 Y219.249 F120000.000
G1  F360000.00000
G1 F20250
G1 X505.251 Y300.000 
G1 X586.002 Y380.751 
G1  F360000.00000
G1 X586.002 Y364.963 F120000.000
G1  F360000.00000
G1 F20250
G1 X521.039 Y300.000 
G1 X586.002 Y235.037 
G1  F360000.00000
G1 X586.002 Y250.826 F120000.000
G1  F360000.00000
G1 F20250
G1 X536.828 Y300.000 
G1 X586.002 Y349.174 
G1  F360000.00000
G1 X586.002 Y333.386 F120000.000
G1  F360000.00000
G1 F20250
G1 X552.616 Y300.000 
G1 X586.002 Y266.614 
G1  F360000.00000
G1 X586.002 Y282.403 F120000.000
G1  F360000.00000
G1 F20250
G1 X568.405 Y300.000 
G1 X586.002 Y317.597 
G1  F360000.00000
G1 X586.002 Y301.809 F120000.000
G1  F360000.00000
G1 F20250
G1 X584.193 Y300.000 
G1 X586.002 Y298.191 
G1  F360000.00000
G1 X586.002 Y166.030 F120000.000
G1  F360000.00000
G1 F20250
G1 X433.970 Y166.030 
G1 X433.970 Y13.998 
G1  F360000.00000
G1 X445.134 Y13.998 F120000.000
G1  F360000.00000
G1 F20250
G1 X445.134 Y154.866 
G1 X586.002 Y154.866 
G1  F360000.00000
G1 X586.002 Y143.702 F120000.000
G1  F360000.00000
G1 F20250
G1 X456.298 Y143.702 
G1 X456.298 Y13.998 
G1  F360000.00000
G1 X467.462 Y13.998 F120000.000
G1  F360000.00000
G1 F20250
G1 X467.462 Y132.538 
G1 X586.002 Y132.538 
G1  F360000.00000
G1 X586.002 Y121.373 F120000.000
G1  F360000.00000
G1 F20250
G1 X478.627 Y121.373 
G1 X478.627 Y13.998 
G1  F360000.00000
G1 X489.791 Y13.998 F120000.000
G1  F360000.00000
G1 F20250
G1 X489.791 Y110.209 
G1 X586.002 Y110.209 
G1  F360000.00000
G1 X586.002 Y99.045 F120000.000
G1  F360000.00000
G1 F20250
G1 X500.955 Y99.045 
G1 X500.955 Y13.998 
G1  F360000.00000
G1 X512.119 Y13.998 F120000.000
G1  F360000.00000
G1 F20250
G1 X512.119 Y87.881 
G1 X586.002 Y87.881 
G1  F360000.00000
G1 X586.002 Y76.717 F120000.000
G1  F360000.00000
G1 F20250
G1 X523.283 Y76.717 
G1 X523.283 Y13.998 
G1  F360000.00000
G1 X534.447 Y13.998 F120000.000
G1  F360000.00000
G1 F20250
G1 X534.447 Y65.553 
G1 X586.002 Y65.553 
G1  F360000.00000
G1 X586.002 Y54.389 F120000.000
G1  F360000.00000
G1 F20250
G1 X545.611 Y54.389 
G1 X545.611 Y13.998 
G1  F360000.00000
G1 X556.776 Y13.998 F120000.000
G1  F360000.00000
G1 F20250
G1 X556.776 Y43.224 
G1 X586.002 Y43.224 
G1  F360000.00000
G1 X586.002 Y32.060 F120000.000
G1  F360000.00000
G1 F20250
G1 X567.940 Y32.060 
G1 X567.940 Y13.998 
G1  F360000.00000
G1 X579.104 Y13.998 F120000.000
G1  F360000.00000
G1 F20250
G1 X579.104 Y20.896 
G1 X586.002 Y20.896 
G1  F360000.00000
G1 X396.540 Y13.998 F120000.000
G1  F360000.00000
G1 F20250
G1 X300.000 Y110.538 
G1 X203.460 Y13.998 
G1  F360000.00000
G1 X219.249 Y13.998 F120000.000
G1  F360000.00000
G1 F20250
G1 X300.000 Y94.749 
G1 X380.751 Y13.998 
G1  F360000.00000
G1 X364.963 Y13.998 F120000.000
G1  F360000.00000
G1 F20250
G1 X300.000 Y78.961 
G1 X235.037 Y13.998 
G1  F360000.00000
G1 X250.826 Y13.998 F120000.000
G1  F360000.00000
G1 F20250
G1 X300.000 Y63.172 
G1 X349.174 Y13.998 
G1  F360000.00000
G1 X333.386 Y13.998 F120000.000
G1  F360000.00000
G1 F20250
G1 X300.000 Y47.384 
G1 X266.614 Y13.998 
G1  F360000.00000
G1 X282.403 Y13.998 F120000.000
G1  F360000.00000
G1 F20250
G1 X300.000 Y31.595 
G1 X317.597 Y13.998 
G1  F360000.00000
G1 X301.809 Y13.998 F120000.000
G1  F360000.00000
G1 F20250
G1 X300.000 Y15.807 
G1 X298.191 Y13.998 
G1  F360000.00000
G1 X300.000 Y300.000 F120000.000
G1  F360000.00000
G1 F20250
G1 X288.836 Y311.164 
G1 X273.047 Y311.164 
G1 X284.211 Y300.000 
G1 X273.047 Y288.836 
G1 X288.836 Y288.836 
G1 X288.836 Y273.047 
G1 X300.000 Y284.211 
G1 X311.164 Y273.047 
G1 X311.164 Y288.836 
G1 X326.953 Y288.836 
G1 X315.789 Y300.000 
G1 X326.953 Y311.164 
G1 X311.164 Y311.164 
G1 X311.164 Y326.953 
G1 X300.000 Y315.789 
G1 X277.672 Y338.117 
G1 X277.672 Y322.328 
G1 X246.095 Y322.328 
G1 X268.423 Y300.000 
G1 X246.095 Y277.672 
G1 X277.672 Y277.672 
G1 X277.672 Y246.095 
G1 X300.000 Y268.423 
G1 X322.328 Y246.095 
G1 X322.328 Y277.672 
G1 X353.905 Y277.672 
G1 X331.577 Y300.000 
G1 X353.905 Y322.328 
G1 X322.328 Y322.328 
G1 X322.328 Y353.905 
G1 X300.000 Y331.577 
G1 X266.508 Y365.069 
G1 X266.508 Y333.492 
G1 X219.142 Y333.492 
G1 X252.634 Y300.000 
G1 X219.142 Y266.508 
G1 X266.508 Y266.508 
G1 X266.508 Y219.142 
G1 X300.000 Y252.634 
G1 X333.492 Y219.142 
G1 X333.492 Y266.508 
G1 X380.858 Y266.508 
G1 X347.366 Y300.000 
G1 X380.858 Y333.492 
G1 X333.492 Y333.492 
G1 X333.492 Y380.858 
G1 X300.000 Y347.366 
G1 X255.343 Y392.022 
G1 X255.343 Y344.657 
G1 X192.189 Y344.657 
G1 X236.846 Y300.000 
G1 X192.189 Y255.343 
G1 X255.343 Y255.343 
G1 X255.343 Y192.189 
G1 X300.000 Y236.846 
G1 X344.657 Y192.189 
G1 X344.657 Y255.343 
G1 X407.811 Y255.343 
G1 X363.154 Y300.000 
G1 X407.811 Y344.657 
G1 X344.657 Y344.657 
G1 X344.657 Y407.811 
G1 X300.000 Y363.154 
G1 X244.179 Y418.975 
G1 X244.179 Y355.821 
G1 X165.237 Y355.821 
G1 X221.057 Y300.000 
G1 X165.237 Y244.179 
G1 X244.179 Y244.179 
G1 X244.179 Y165.237 
G1 X300.000 Y221.057 
G1 X355.821 Y165.237 
G1 X355.821 Y244.179 
G1 X434.763 Y244.179 
G1 X378.943 Y300.000 
G1 X434.763 Y355.821 
G1 X355.821 Y355.821 
G1 X355.821 Y434.763 
G1 X300.000 Y378.943 
G1 X233.015 Y445.927 
G1 X233.015 Y366.985 
G1 X138.284 Y366.985 
G1 X205.269 Y300.000 
G1 X138.284 Y233.015 
G1 X233.015 Y233.015 
G1 X233.015 Y138.284 
G1 X300.000 Y205.269 
G1 X366.985 Y138.284 
G1 X366.985 Y233.015 
G1 X461.716 Y233.015 
G1 X394.731 Y300.000 
G1 X461.716 Y366.985 
G1 X366.985 Y366.985 
G1 X366.985 Y461.716 
G1 X300.000 Y394.731 
G1 X221.851 Y472.880 
G1 X221.851 Y378.149 
G1 X111.331 Y378.149 
G1 X189.480 Y300.000 
G1 X111.331 Y221.851 
G1 X221.851 Y221.851 
G1 X221.851 Y111.331 
G1 X300.000 Y189.480 
G1 X378.149 Y111.331 
G1 X378.149 Y221.851 
G1 X488.669 Y221.851 
G1 X410.520 Y300.000 
G1 X488.669 Y378.149 
G1 X378.149 Y378.149 
G1 X378.149 Y488.669 
G1 X300.000 Y410.520 
G1 X210.687 Y499.833 
G1 X210.687 Y389.313 
G1 X84.379 Y389.313 
G1 X173.692 Y300.000 
G1 X84.379 Y210.687 
G1 X210.687 Y210.687 
G1 X210.687 Y84.379 
G1 X300.000 Y173.692 
G1 X389.313 Y84.379 
G1 X389.313 Y210.687 
G1 X515.621 Y210.687 
G1 X426.308 Y300.000 
G1 X515.621 Y389.313 
G1 X389.313 Y389.313 
G1 X389.313 Y515.621 
G1 X300.000 Y426.308 
G1 X199.523 Y526.785 
G1 X199.523 Y400.477 
G1 X57.426 Y400.477 
G1 X157.903 Y300.000 
G1 X57.426 Y199.523 
G1 X199.523 Y199.523 
G1 X199.523 Y57.426 
G1 X300.000 Y157.903 
G1 X400.477 Y57.426 
G1 X400.477 Y199.523 
G1 X542.574 Y199.523 
G1 X442.097 Y300.000 
G1 X542.574 Y400.477 
G1 X400.477 Y400.477 
G1 X400.477 Y542.574 
G1 X300.000 Y442.097 
G1 X188.358 Y553.738 
G1 X188.358 Y411.642 
G1 X30.473 Y411.642 
G1 X142.115 Y300.000 
G1 X30.473 Y188.358 
G1 X188.358 Y188.358 
G1 X188.358 Y30.473 
G1 X300.000 Y142.115 
G1 X411.642 Y30.473 
G1 X411.642 Y188.358 
G1 X569.527 Y188.358 
G1 X457.885 Y300.000 
G1 X569.527 Y411.642 
G1 X411.642 Y411.642 
G1 X411.642 Y569.527 
G1 X300.000 Y457.885 
G1 X177.194 Y580.691 
G1 X177.194 Y422.806 
G1 X13.998 Y422.806 
G1  F360000.00000
G1 X13.998 Y412.328 F120000.000
G1  F360000.00000
G1 F20250
G1 X126.326 Y300.000 
G1 X13.998 Y187.672 
G1  F360000.00000
G1 X13.998 Y203.460 F120000.000
G1  F360000.00000
G1 F20250
G1 X110.538 Y300.000 
G1 X13.998 Y396.540 
G1  F360000.00000
G1 X13.998 Y380.751 F120000.000
G1  F360000.00000
G1 F20250
G1 X94.749 Y300.000 
G1 X13.998 Y219.249 
G1  F360000.00000
G1 X13.998 Y235.037 F120000.000
G1  F360000.00000
G1 F20250
G1 X78.961 Y300.000 
G1 X13.998 Y364.963 
G1  F360000.00000
G1 X13.998 Y349.174 F120000.000
G1  F360000.00000
G1 F20250
G1 X63.172 Y300.000 
G1 X13.998 Y250.826 
G1  F360000.00000
G1 X13.998 Y266.614 F120000.000
G1  F360000.00000
G1 F20250
G1 X47.384 Y300.000 
G1 X13.998 Y333.386 
G1  F360000.00000
G1 X13.998 Y317.597 F120000.000
G1  F360000.00000
G1 F20250
G1 X31.595 Y300.000 
G1 X13.998 Y282.403 
G1  F360000.00000
G1 X13.998 Y298.191 F120000.000
G1  F360000.00000
G1 F20250
G1 X15.807 Y300.000 
G1 X13.998 Y301.809 
G1  F360000.00000
G1 X13.998 Y433.970 F120000.000
G1  F360000.00000
G1 F20250
G1 X166.030 Y433.970 
G1 X166.030 Y586.002 
G1  F360000.00000
G1 X154.866 Y586.002 F120000.000
G1  F360000.00000
G1 F20250
G1 X154.866 Y445.134 
G1 X13.998 Y445.134 
G1  F360000.00000
G1 X13.998 Y456.298 F120000.000
G1  F360000.00000
G1 F20250
G1 X143.702 Y456.298 
G1 X143.702 Y586.002 
G1  F360000.00000
G1 X132.538 Y586.002 F120000.000
G1  F360000.00000
G1 F20250
G1 X132.538 Y467.462 
G1 X13.998 Y467.462 
G1  F360000.00000
G1 X13.998 Y478.627 F120000.000
G1  F360000.00000
G1 F20250
G1 X121.373 Y478.627 
G1 X121.373 Y586.002 
G1  F360000.00000
G1 X110.209 Y586.002 F120000.000
G1  F360000.00000
G1 F20250
G1 X110.209 Y489.791 
G1 X13.998 Y489.791 
G1  F360000.00000
G1 X13.998 Y500.955 F120000.000
G1  F360000.00000
G1 F20250
G1 X99.045 Y500.955 
G1 X99.045 Y586.002 
G1  F360000.00000
G1 X87.881 Y586.002 F120000.000
G1  F360000.00000
G1 F20250
G1 X87.881 Y512.119 
G1 X13.998 Y512.119 
G1  F360000.00000
G1 X13.998 Y523.283 F120000.000
G1  F360000.00000
G1 F20250
G1 X76.717 Y523.283 
G1 X76.717 Y586.002 
G1  F360000.00000
G1 X65.553 Y586.002 F120000.000
G1  F360000.00000
G1 F20250
G1 X65.553 Y534.447 
G1 X13.998 Y534.447 
G1  F360000.00000
G1 X13.998 Y545.611 F120000.000
G1  F360000.00000
G1 F20250
G1 X54.389 Y545.611 
G1 X54.389 Y586.002 
G1  F360000.00000
G1 X43.224 Y586.002 F120000.000
G1  F360000.00000
G1 F20250
G1 X43.224 Y556.776 
G1 X13.998 Y556.776 
G1  F360000.00000
G1 X13.998 Y567.940 F120000.000
G1  F360000.00000
G1 F20250
G1 X32.060 Y567.940 
G1 X32.060 Y586.002 
G1  F360000.00000
G1 X20.896 Y586.002 F120000.000
G1  F360000.00000
G1 F20250
G1 X20.896 Y579.104 
G1 X13.998 Y579.104 
G1  F360000.00000
G1 X5.625 Y594.375 F120000.000
G1  F360000.00000
G1 F9000
G1 X5.625 Y5.625 
G1 X594.375 Y5.625 
G1 X594.375 Y594.375 
G1 X7.125 Y594.375 
G1  F360000.00000
; Filament-specific end gcode 
;END gcode for filament
; filament used = 7193.5mm (141.2cm3)
; total filament cost = 0.0
; estimated printing time = 3m 8s

; avoid_crossing_perimeters = 1
; bed_shape = 0x0,600x0,600x600,0x600
; bed_temperature = 0
; before_layer_gcode = 
; between_objects_gcode = 
; bridge_acceleration = 0
; bridge_fan_speed = 100
; brim_width = 0
; complete_objects = 0
; cooling = 0
; default_acceleration = 0
; deretract_speed = 0
; disable_fan_first_layers = 3
; duplicate_distance = 6
; end_filament_gcode = "; Filament-specific end gcode \n;END gcode for filament\n"
; end_gcode = 
; extruder_clearance_height = 20
; extruder_clearance_radius = 20
; extruder_colour = ""
; extruder_offset = 0x0
; extrusion_axis = E
