; generated by Slic3r Prusa Edition 1.39.1-prusa3d-win64 on 2018-03-16 at 02:12:53

; 

; external perimeters extrusion width = 11.25mm
; perimeters extrusion width = 11.25mm
; infill extrusion width = 11.25mm
; solid infill extrusion width = 11.25mm
; top infill extrusion width = 10.00mm

$H
G92 X0 Y0
G90
; Filament gcode
G21 ; set units to millimeters
G90 ; use absolute coordinates
G1 Z0.400 F120000.000
G1  F360000.00000
G1 X14.035 Y13.998 F120000.000
G1  F360000.00000
G1 F20250
G1 X15.844 Y15.807 
G1 X17.653 Y13.998 
G1  F360000.00000
G1 X33.441 Y13.998 F120000.000
G1  F360000.00000
G1 F20250
G1 X31.632 Y15.807 
G1 X39.527 Y23.701 
G1 X49.230 Y13.998 
G1  F360000.00000
G1 X77.189 Y13.998 F120000.000
G1  F360000.00000
G1 F20250
G1 X78.998 Y15.807 
G1 X71.104 Y23.701 
G1 X63.209 Y15.807 
G1 X47.421 Y31.595 
G1 X55.315 Y39.490 
G1 X63.209 Y31.595 
G1 X78.998 Y47.384 
G1 X71.104 Y55.278 
G1 X63.209 Y47.384 
G1 X55.315 Y55.278 
G1 X63.209 Y63.172 
G1 X55.315 Y71.067 
G1 X39.527 Y55.278 
G1 X47.421 Y47.384 
G1 X39.527 Y39.490 
G1 X31.632 Y47.384 
G1 X23.738 Y39.490 
G1 X31.632 Y31.595 
G1 X23.738 Y23.701 
G1 X15.844 Y31.595 
G1 X13.998 Y29.750 
G1  F360000.00000
G1 X13.998 Y45.538 F120000.000
G1  F360000.00000
G1 F20250
G1 X15.844 Y47.384 
G1 X13.998 Y49.230 
G1  F360000.00000
G1 X13.998 Y77.115 F120000.000
G1  F360000.00000
G1 F20250
G1 X15.844 Y78.961 
G1 X23.738 Y71.067 
G1 X15.844 Y63.172 
G1 X23.738 Y55.278 
G1 X39.527 Y71.067 
G1 X31.632 Y78.961 
G1 X39.527 Y86.855 
G1 X47.421 Y78.961 
G1 X63.209 Y94.749 
G1 X55.315 Y102.644 
G1 X47.421 Y94.749 
G1 X31.632 Y110.538 
G1 X39.527 Y118.432 
G1 X47.421 Y110.538 
G1 X55.315 Y118.432 
G1 X47.421 Y126.326 
G1 X55.315 Y134.221 
G1 X71.104 Y118.432 
G1 X63.209 Y110.538 
G1 X71.104 Y102.644 
G1 X78.998 Y110.538 
G1 X94.786 Y94.749 
G1 X86.892 Y86.855 
G1 X78.998 Y94.749 
G1 X63.209 Y78.961 
G1 X71.104 Y71.067 
G1 X78.998 Y78.961 
G1 X86.892 Y71.067 
G1 X78.998 Y63.172 
G1 X86.892 Y55.278 
G1 X102.681 Y71.067 
G1 X94.786 Y78.961 
G1 X102.681 Y86.855 
G1 X118.469 Y71.067 
G1 X110.575 Y63.172 
G1 X118.469 Y55.278 
G1 X126.363 Y63.172 
G1 X142.152 Y47.384 
G1 X134.258 Y39.490 
G1 X126.363 Y47.384 
G1 X118.469 Y39.490 
G1 X126.363 Y31.595 
G1 X118.469 Y23.701 
G1 X102.681 Y39.490 
G1 X110.575 Y47.384 
G1 X102.681 Y55.278 
G1 X78.998 Y31.595 
G1 X86.892 Y23.701 
G1 X94.786 Y31.595 
G1 X110.575 Y15.807 
G1 X108.766 Y13.998 
G1  F360000.00000
G1 X96.595 Y13.998 F120000.000
G1  F360000.00000
G1 F20250
G1 X94.786 Y15.807 
G1 X92.977 Y13.998 
G1  F360000.00000
G1 X128.172 Y13.998 F120000.000
G1  F360000.00000
G1 F20250
G1 X126.363 Y15.807 
G1 X134.258 Y23.701 
G1 X142.152 Y15.807 
G1 X150.046 Y23.701 
G1 X142.152 Y31.595 
G1 X150.046 Y39.490 
G1 X165.835 Y23.701 
G1 X157.940 Y15.807 
G1 X159.749 Y13.998 
G1  F360000.00000
G1 X171.920 Y13.998 F120000.000
G1  F360000.00000
G1 F20250
G1 X173.729 Y15.807 
G1 X175.538 Y13.998 
G1  F360000.00000
G1 X191.326 Y13.998 F120000.000
G1  F360000.00000
G1 F20250
G1 X189.517 Y15.807 
G1 X197.412 Y23.701 
G1 X205.306 Y15.807 
G1 X213.200 Y23.701 
G1 X205.306 Y31.595 
G1 X213.200 Y39.490 
G1 X228.989 Y23.701 
G1 X221.094 Y15.807 
G1 X222.903 Y13.998 
G1  F360000.00000
G1 X235.074 Y13.998 F120000.000
G1  F360000.00000
G1 F20250
G1 X244.777 Y23.701 
G1 X236.883 Y31.595 
G1 X244.777 Y39.490 
G1 X252.671 Y31.595 
G1 X268.460 Y47.384 
G1 X260.566 Y55.278 
G1 X252.671 Y47.384 
G1 X244.777 Y55.278 
G1 X252.671 Y63.172 
G1 X244.777 Y71.067 
G1 X228.989 Y55.278 
G1 X236.883 Y47.384 
G1 X228.989 Y39.490 
G1 X205.306 Y63.172 
G1 X213.200 Y71.067 
G1 X221.094 Y63.172 
G1 X236.883 Y78.961 
G1 X228.989 Y86.855 
G1 X221.094 Y78.961 
G1 X213.200 Y86.855 
G1 X221.094 Y94.749 
G1 X213.200 Y102.644 
G1 X197.412 Y86.855 
G1 X205.306 Y78.961 
G1 X197.412 Y71.067 
G1 X189.517 Y78.961 
G1 X173.729 Y63.172 
G1 X181.623 Y55.278 
G1 X189.517 Y63.172 
G1 X205.306 Y47.384 
G1 X197.412 Y39.490 
G1 X189.517 Y47.384 
G1 X181.623 Y39.490 
G1 X189.517 Y31.595 
G1 X181.623 Y23.701 
G1 X165.835 Y39.490 
G1 X173.729 Y47.384 
G1 X165.835 Y55.278 
G1 X157.940 Y47.384 
G1 X142.152 Y63.172 
G1 X150.046 Y71.067 
G1 X157.940 Y63.172 
G1 X173.729 Y78.961 
G1 X165.835 Y86.855 
G1 X157.940 Y78.961 
G1 X150.046 Y86.855 
G1 X157.940 Y94.749 
G1 X150.046 Y102.644 
G1 X134.258 Y86.855 
G1 X142.152 Y78.961 
G1 X134.258 Y71.067 
G1 X118.469 Y86.855 
G1 X126.363 Y94.749 
G1 X118.469 Y102.644 
G1 X110.575 Y94.749 
G1 X94.786 Y110.538 
G1 X102.681 Y118.432 
G1 X110.575 Y110.538 
G1 X118.469 Y118.432 
G1 X110.575 Y126.326 
G1 X118.469 Y134.221 
G1 X134.258 Y118.432 
G1 X126.363 Y110.538 
G1 X134.258 Y102.644 
G1 X157.940 Y126.326 
G1 X150.046 Y134.221 
G1 X142.152 Y126.326 
G1 X126.363 Y142.115 
G1 X134.258 Y150.009 
G1 X142.152 Y142.115 
G1 X150.046 Y150.009 
G1 X142.152 Y157.903 
G1 X150.046 Y165.798 
G1 X165.835 Y150.009 
G1 X157.940 Y142.115 
G1 X165.835 Y134.221 
G1 X173.729 Y142.115 
G1 X189.517 Y126.326 
G1 X181.623 Y118.432 
G1 X173.729 Y126.326 
G1 X157.940 Y110.538 
G1 X165.835 Y102.644 
G1 X173.729 Y110.538 
G1 X181.623 Y102.644 
G1 X173.729 Y94.749 
G1 X181.623 Y86.855 
G1 X197.412 Y102.644 
G1 X189.517 Y110.538 
G1 X197.412 Y118.432 
G1 X205.306 Y110.538 
G1 X221.094 Y126.326 
G1 X213.200 Y134.221 
G1 X205.306 Y126.326 
G1 X189.517 Y142.115 
G1 X197.412 Y150.009 
G1 X205.306 Y142.115 
G1 X213.200 Y150.009 
G1 X205.306 Y157.903 
G1 X213.200 Y165.798 
G1 X228.989 Y150.009 
G1 X221.094 Y142.115 
G1 X228.989 Y134.221 
G1 X244.777 Y150.009 
G1 X236.883 Y157.903 
G1 X244.777 Y165.798 
G1 X252.671 Y157.903 
G1 X268.460 Y173.692 
G1 X260.566 Y181.586 
G1 X252.671 Y173.692 
G1 X244.777 Y181.586 
G1 X252.671 Y189.480 
G1 X244.777 Y197.375 
G1 X228.989 Y181.586 
G1 X236.883 Y173.692 
G1 X228.989 Y165.798 
G1 X205.306 Y189.480 
G1 X213.200 Y197.375 
G1 X221.094 Y189.480 
G1 X236.883 Y205.269 
G1 X228.989 Y213.163 
G1 X221.094 Y205.269 
G1 X213.200 Y213.163 
G1 X221.094 Y221.057 
G1 X213.200 Y228.952 
G1 X197.412 Y213.163 
G1 X205.306 Y205.269 
G1 X197.412 Y197.375 
G1 X189.517 Y205.269 
G1 X173.729 Y189.480 
G1 X181.623 Y181.586 
G1 X189.517 Y189.480 
G1 X205.306 Y173.692 
G1 X197.412 Y165.798 
G1 X189.517 Y173.692 
G1 X181.623 Y165.798 
G1 X189.517 Y157.903 
G1 X181.623 Y150.009 
G1 X165.835 Y165.798 
G1 X173.729 Y173.692 
G1 X165.835 Y181.586 
G1 X157.940 Y173.692 
G1 X150.046 Y181.586 
G1 X157.940 Y189.480 
G1 X150.046 Y197.375 
G1 X142.152 Y189.480 
G1 X126.363 Y205.269 
G1 X134.258 Y213.163 
G1 X142.152 Y205.269 
G1 X150.046 Y213.163 
G1 X142.152 Y221.057 
G1 X150.046 Y228.952 
G1 X165.835 Y213.163 
G1 X157.940 Y205.269 
G1 X165.835 Y197.375 
G1 X181.623 Y213.163 
G1 X173.729 Y221.057 
G1 X181.623 Y228.952 
G1 X189.517 Y221.057 
G1 X205.306 Y236.846 
G1 X197.412 Y244.740 
G1 X189.517 Y236.846 
G1 X181.623 Y244.740 
G1 X189.517 Y252.634 
G1 X181.623 Y260.529 
G1 X165.835 Y244.740 
G1 X173.729 Y236.846 
G1 X165.835 Y228.952 
G1 X157.940 Y236.846 
G1 X142.152 Y252.634 
G1 X150.046 Y260.529 
G1 X157.940 Y252.634 
G1 X173.729 Y268.423 
G1 X165.835 Y276.317 
G1 X157.940 Y268.423 
G1 X150.046 Y276.317 
G1 X157.940 Y284.211 
G1 X150.046 Y292.106 
G1 X134.258 Y276.317 
G1 X142.152 Y268.423 
G1 X134.258 Y260.529 
G1 X126.363 Y268.423 
G1 X110.575 Y252.634 
G1 X118.469 Y244.740 
G1 X126.363 Y252.634 
G1 X142.152 Y236.846 
G1 X134.258 Y228.952 
G1 X126.363 Y236.846 
G1 X118.469 Y228.952 
G1 X126.363 Y221.057 
G1 X118.469 Y213.163 
G1 X102.681 Y228.952 
G1 X110.575 Y236.846 
G1 X102.681 Y244.740 
G1 X86.892 Y228.952 
G1 X94.786 Y221.057 
G1 X86.892 Y213.163 
G1 X78.998 Y221.057 
G1 X63.209 Y205.269 
G1 X71.104 Y197.375 
G1 X78.998 Y205.269 
G1 X86.892 Y197.375 
G1 X78.998 Y189.480 
G1 X86.892 Y181.586 
G1 X102.681 Y197.375 
G1 X94.786 Y205.269 
G1 X102.681 Y213.163 
G1 X118.469 Y197.375 
G1 X110.575 Y189.480 
G1 X118.469 Y181.586 
G1 X126.363 Y189.480 
G1 X142.152 Y173.692 
G1 X134.258 Y165.798 
G1 X126.363 Y173.692 
G1 X118.469 Y165.798 
G1 X126.363 Y157.903 
G1 X118.469 Y150.009 
G1 X102.681 Y165.798 
G1 X110.575 Y173.692 
G1 X102.681 Y181.586 
G1 X86.892 Y165.798 
G1 X78.998 Y157.903 
G1 X86.892 Y150.009 
G1 X94.786 Y157.903 
G1 X110.575 Y142.115 
G1 X102.681 Y134.221 
G1 X94.786 Y142.115 
G1 X86.892 Y134.221 
G1 X94.786 Y126.326 
G1 X86.892 Y118.432 
G1 X71.104 Y134.221 
G1 X78.998 Y142.115 
G1 X71.104 Y150.009 
G1 X63.209 Y142.115 
G1 X47.421 Y157.903 
G1 X55.315 Y165.798 
G1 X63.209 Y157.903 
G1 X78.998 Y173.692 
G1 X71.104 Y181.586 
G1 X63.209 Y173.692 
G1 X55.315 Y181.586 
G1 X63.209 Y189.480 
G1 X55.315 Y197.375 
G1 X39.527 Y181.586 
G1 X47.421 Y173.692 
G1 X39.527 Y165.798 
G1 X23.738 Y181.586 
G1 X31.632 Y189.480 
G1 X23.738 Y197.375 
G1 X15.844 Y189.480 
G1 X13.998 Y191.326 
G1  F360000.00000
G1 X13.998 Y207.115 F120000.000
G1  F360000.00000
G1 F20250
G1 X15.844 Y205.269 
G1 X23.738 Y213.163 
G1 X15.844 Y221.057 
G1 X23.738 Y228.952 
G1 X39.527 Y213.163 
G1 X31.632 Y205.269 
G1 X39.527 Y197.375 
G1 X55.315 Y213.163 
G1 X47.421 Y221.057 
G1 X55.315 Y228.952 
G1 X63.209 Y221.057 
G1 X78.998 Y236.846 
G1 X71.104 Y244.740 
G1 X63.209 Y236.846 
G1 X55.315 Y244.740 
G1 X63.209 Y252.634 
G1 X55.315 Y260.529 
G1 X39.527 Y244.740 
G1 X47.421 Y236.846 
G1 X39.527 Y228.952 
G1 X15.844 Y252.634 
G1 X23.738 Y260.529 
G1 X31.632 Y252.634 
G1 X47.421 Y268.423 
G1 X39.527 Y276.317 
G1 X31.632 Y268.423 
G1 X23.738 Y276.317 
G1 X31.632 Y284.211 
G1 X23.738 Y292.106 
G1 X13.998 Y282.366 
G1  F360000.00000
G1 X13.998 Y270.269 F120000.000
G1  F360000.00000
G1 F20250
G1 X15.844 Y268.423 
G1 X13.998 Y266.577 
G1  F360000.00000
G1 X13.998 Y238.692 F120000.000
G1  F360000.00000
G1 F20250
G1 X15.844 Y236.846 
G1 X13.998 Y235.000 
G1  F360000.00000
G1 X13.998 Y175.538 F120000.000
G1  F360000.00000
G1 F20250
G1 X23.738 Y165.798 
G1 X15.844 Y157.903 
G1 X23.738 Y150.009 
G1 X31.632 Y157.903 
G1 X47.421 Y142.115 
G1 X39.527 Y134.221 
G1 X31.632 Y142.115 
G1 X23.738 Y134.221 
G1 X31.632 Y126.326 
G1 X23.738 Y118.432 
G1 X13.998 Y128.172 
G1  F360000.00000
G1 X13.998 Y140.269 F120000.000
G1  F360000.00000
G1 F20250
G1 X15.844 Y142.115 
G1 X13.998 Y143.961 
G1  F360000.00000
G1 X13.998 Y112.384 F120000.000
G1  F360000.00000
G1 F20250
G1 X31.632 Y94.749 
G1 X23.738 Y86.855 
G1 X15.844 Y94.749 
G1 X13.998 Y92.904 
G1  F360000.00000
G1 X13.998 Y301.846 F120000.000
G1  F360000.00000
G1 F20250
G1 X15.844 Y300.000 
G1 X23.738 Y307.894 
G1 X15.844 Y315.789 
G1 X23.738 Y323.683 
G1 X31.632 Y315.789 
G1 X47.421 Y331.577 
G1 X39.527 Y339.471 
G1 X31.632 Y331.577 
G1 X23.738 Y339.471 
G1 X31.632 Y347.366 
G1 X23.738 Y355.260 
G1 X13.998 Y345.520 
G1  F360000.00000
G1 X13.998 Y333.423 F120000.000
G1  F360000.00000
G1 F20250
G1 X15.844 Y331.577 
G1 X13.998 Y329.731 
G1  F360000.00000
G1 X13.998 Y361.308 F120000.000
G1  F360000.00000
G1 F20250
G1 X31.632 Y378.943 
G1 X23.738 Y386.837 
G1 X15.844 Y378.943 
G1 X13.998 Y380.788 
G1  F360000.00000
G1 X13.998 Y396.577 F120000.000
G1  F360000.00000
G1 F20250
G1 X15.844 Y394.731 
G1 X23.738 Y402.625 
G1 X15.844 Y410.520 
G1 X23.738 Y418.414 
G1 X39.527 Y402.625 
G1 X31.632 Y394.731 
G1 X39.527 Y386.837 
G1 X47.421 Y394.731 
G1 X63.209 Y378.943 
G1 X55.315 Y371.048 
G1 X47.421 Y378.943 
G1 X31.632 Y363.154 
G1 X39.527 Y355.260 
G1 X47.421 Y363.154 
G1 X55.315 Y355.260 
G1 X47.421 Y347.366 
G1 X55.315 Y339.471 
G1 X71.104 Y355.260 
G1 X63.209 Y363.154 
G1 X71.104 Y371.048 
G1 X86.892 Y355.260 
G1 X78.998 Y347.366 
G1 X86.892 Y339.471 
G1 X94.786 Y347.366 
G1 X110.575 Y331.577 
G1 X102.681 Y323.683 
G1 X94.786 Y331.577 
G1 X86.892 Y323.683 
G1 X94.786 Y315.789 
G1 X86.892 Y307.894 
G1 X71.104 Y323.683 
G1 X78.998 Y331.577 
G1 X71.104 Y339.471 
G1 X55.315 Y323.683 
G1 X63.209 Y315.789 
G1 X55.315 Y307.894 
G1 X47.421 Y315.789 
G1 X31.632 Y300.000 
G1 X39.527 Y292.106 
G1 X47.421 Y300.000 
G1 X55.315 Y292.106 
G1 X47.421 Y284.211 
G1 X55.315 Y276.317 
G1 X71.104 Y292.106 
G1 X63.209 Y300.000 
G1 X71.104 Y307.894 
G1 X94.786 Y284.211 
G1 X86.892 Y276.317 
G1 X78.998 Y284.211 
G1 X63.209 Y268.423 
G1 X71.104 Y260.529 
G1 X78.998 Y268.423 
G1 X86.892 Y260.529 
G1 X78.998 Y252.634 
G1 X86.892 Y244.740 
G1 X102.681 Y260.529 
G1 X94.786 Y268.423 
G1 X102.681 Y276.317 
G1 X110.575 Y268.423 
G1 X126.363 Y284.211 
G1 X118.469 Y292.106 
G1 X110.575 Y284.211 
G1 X94.786 Y300.000 
G1 X102.681 Y307.894 
G1 X110.575 Y300.000 
G1 X118.469 Y307.894 
G1 X110.575 Y315.789 
G1 X118.469 Y323.683 
G1 X134.258 Y307.894 
G1 X126.363 Y300.000 
G1 X134.258 Y292.106 
G1 X157.940 Y315.789 
G1 X150.046 Y323.683 
G1 X142.152 Y315.789 
G1 X126.363 Y331.577 
G1 X134.258 Y339.471 
G1 X142.152 Y331.577 
G1 X150.046 Y339.471 
G1 X142.152 Y347.366 
G1 X150.046 Y355.260 
G1 X165.835 Y339.471 
G1 X157.940 Y331.577 
G1 X165.835 Y323.683 
G1 X181.623 Y339.471 
G1 X173.729 Y347.366 
G1 X181.623 Y355.260 
G1 X189.517 Y347.366 
G1 X205.306 Y363.154 
G1 X197.412 Y371.048 
G1 X189.517 Y363.154 
G1 X181.623 Y371.048 
G1 X189.517 Y378.943 
G1 X181.623 Y386.837 
G1 X165.835 Y371.048 
G1 X173.729 Y363.154 
G1 X165.835 Y355.260 
G1 X142.152 Y378.943 
G1 X150.046 Y386.837 
G1 X157.940 Y378.943 
G1 X173.729 Y394.731 
G1 X165.835 Y402.625 
G1 X157.940 Y394.731 
G1 X150.046 Y402.625 
G1 X157.940 Y410.520 
G1 X150.046 Y418.414 
G1 X134.258 Y402.625 
G1 X142.152 Y394.731 
G1 X134.258 Y386.837 
G1 X126.363 Y394.731 
G1 X110.575 Y378.943 
G1 X118.469 Y371.048 
G1 X126.363 Y378.943 
G1 X142.152 Y363.154 
G1 X134.258 Y355.260 
G1 X126.363 Y363.154 
G1 X118.469 Y355.260 
G1 X126.363 Y347.366 
G1 X118.469 Y339.471 
G1 X102.681 Y355.260 
G1 X110.575 Y363.154 
G1 X102.681 Y371.048 
G1 X94.786 Y363.154 
G1 X78.998 Y378.943 
G1 X86.892 Y386.837 
G1 X94.786 Y378.943 
G1 X110.575 Y394.731 
G1 X102.681 Y402.625 
G1 X94.786 Y394.731 
G1 X86.892 Y402.625 
G1 X94.786 Y410.520 
G1 X86.892 Y418.414 
G1 X71.104 Y402.625 
G1 X78.998 Y394.731 
G1 X71.104 Y386.837 
G1 X55.315 Y402.625 
G1 X63.209 Y410.520 
G1 X55.315 Y418.414 
G1 X47.421 Y410.520 
G1 X31.632 Y426.308 
G1 X39.527 Y434.202 
G1 X47.421 Y426.308 
G1 X55.315 Y434.202 
G1 X47.421 Y442.097 
G1 X55.315 Y449.991 
G1 X71.104 Y434.202 
G1 X63.209 Y426.308 
G1 X71.104 Y418.414 
G1 X78.998 Y426.308 
G1 X94.786 Y442.097 
G1 X86.892 Y449.991 
G1 X78.998 Y442.097 
G1 X63.209 Y457.885 
G1 X71.104 Y465.779 
G1 X78.998 Y457.885 
G1 X86.892 Y465.779 
G1 X78.998 Y473.674 
G1 X86.892 Y481.568 
G1 X102.681 Y465.779 
G1 X94.786 Y457.885 
G1 X102.681 Y449.991 
G1 X110.575 Y457.885 
G1 X126.363 Y442.097 
G1 X118.469 Y434.202 
G1 X110.575 Y442.097 
G1 X94.786 Y426.308 
G1 X102.681 Y418.414 
G1 X110.575 Y426.308 
G1 X118.469 Y418.414 
G1 X110.575 Y410.520 
G1 X118.469 Y402.625 
G1 X126.363 Y410.520 
G1 X134.258 Y418.414 
G1 X126.363 Y426.308 
G1 X134.258 Y434.202 
G1 X142.152 Y426.308 
G1 X150.046 Y434.202 
G1 X142.152 Y442.097 
G1 X150.046 Y449.991 
G1 X157.940 Y442.097 
G1 X173.729 Y457.885 
G1 X165.835 Y465.779 
G1 X157.940 Y457.885 
G1 X150.046 Y465.779 
G1 X157.940 Y473.674 
G1 X150.046 Y481.568 
G1 X134.258 Y465.779 
G1 X142.152 Y457.885 
G1 X134.258 Y449.991 
G1 X118.469 Y465.779 
G1 X126.363 Y473.674 
G1 X118.469 Y481.568 
G1 X110.575 Y473.674 
G1 X94.786 Y489.462 
G1 X102.681 Y497.356 
G1 X110.575 Y489.462 
G1 X118.469 Y497.356 
G1 X110.575 Y505.251 
G1 X118.469 Y513.145 
G1 X134.258 Y497.356 
G1 X126.363 Y489.462 
G1 X134.258 Y481.568 
G1 X150.046 Y497.356 
G1 X157.940 Y505.251 
G1 X150.046 Y513.145 
G1 X142.152 Y505.251 
G1 X126.363 Y521.039 
G1 X134.258 Y528.933 
G1 X142.152 Y521.039 
G1 X150.046 Y528.933 
G1 X142.152 Y536.828 
G1 X150.046 Y544.722 
G1 X165.835 Y528.933 
G1 X157.940 Y521.039 
G1 X165.835 Y513.145 
G1 X173.729 Y521.039 
G1 X189.517 Y505.251 
G1 X181.623 Y497.356 
G1 X173.729 Y505.251 
G1 X157.940 Y489.462 
G1 X165.835 Y481.568 
G1 X173.729 Y489.462 
G1 X181.623 Y481.568 
G1 X173.729 Y473.674 
G1 X181.623 Y465.779 
G1 X197.412 Y481.568 
G1 X189.517 Y489.462 
G1 X197.412 Y497.356 
G1 X213.200 Y481.568 
G1 X205.306 Y473.674 
G1 X213.200 Y465.779 
G1 X221.094 Y473.674 
G1 X236.883 Y457.885 
G1 X228.989 Y449.991 
G1 X221.094 Y457.885 
G1 X213.200 Y449.991 
G1 X221.094 Y442.097 
