; generated by Slic3r Prusa Edition 1.39.1-prusa3d-win64 on 2018-03-16 at 02:13:57

; 

; external perimeters extrusion width = 11.25mm
; perimeters extrusion width = 11.25mm
; infill extrusion width = 11.25mm
; solid infill extrusion width = 11.25mm
; top infill extrusion width = 10.00mm

$H
G92 X0 Y0
G90
; Filament gcode
G21 ; set units to millimeters
G90 ; use absolute coordinates
G1 Z0.400 F120000.000
G1  F360000.00000
G1 X29.656 Y13.998 F120000.000
G1  F360000.00000
G1 F20250
G1 X24.245 Y19.210 
G1 X16.427 Y27.180 
G1 X13.998 Y29.802 
G1  F360000.00000
G1 X13.998 Y46.418 F120000.000
G1  F360000.00000
G1 F20250
G1 X19.191 Y40.575 
G1 X26.848 Y32.450 
G1 X34.740 Y24.553 
G1 X42.858 Y16.889 
G1 X46.105 Y13.998 
G1  F360000.00000
G1 X63.163 Y13.998 F120000.000
G1  F360000.00000
G1 F20250
G1 X59.473 Y17.071 
G1 X51.112 Y24.469 
G1 X42.977 Y32.116 
G1 X35.075 Y40.004 
G1 X27.415 Y48.125 
G1 X20.002 Y56.474 
G1 X13.998 Y63.660 
G1  F360000.00000
G1 X13.998 Y81.733 F120000.000
G1  F360000.00000
G1 F20250
G1 X19.106 Y75.079 
G1 X26.176 Y66.438 
G1 X33.511 Y58.021 
G1 X41.103 Y49.835 
G1 X48.946 Y41.889 
G1 X57.031 Y34.189 
G1 X65.351 Y26.744 
G1 X73.898 Y19.561 
G1 X80.948 Y13.998 
G1  F360000.00000
G1 X99.736 Y13.998 F120000.000
G1  F360000.00000
G1 F20250
G1 X94.878 Y17.445 
G1 X85.983 Y24.193 
G1 X77.308 Y31.222 
G1 X68.863 Y38.525 
G1 X60.656 Y46.094 
G1 X52.695 Y53.922 
G1 X44.989 Y62.000 
G1 X37.545 Y70.322 
G1 X30.371 Y78.877 
G1 X23.475 Y87.657 
G1 X16.864 Y96.654 
G1 X13.998 Y100.827 
G1  F360000.00000
G1 X13.998 Y121.174 F120000.000
G1  F360000.00000
G1 F20250
G1 X19.798 Y112.104 
G1 X26.120 Y102.901 
G1 X32.743 Y93.913 
G1 X39.660 Y85.149 
G1 X46.864 Y76.619 
G1 X54.345 Y68.332 
G1 X62.096 Y60.296 
G1 X70.108 Y52.521 
G1 X78.373 Y45.015 
G1 X86.882 Y37.786 
G1 X95.625 Y30.842 
G1 X104.592 Y24.191 
G1 X113.774 Y17.839 
G1 X119.740 Y13.998 
G1  F360000.00000
G1 X141.421 Y13.998 F120000.000
G1  F360000.00000
G1 F20250
G1 X139.970 Y14.790 
G1 X130.359 Y20.471 
G1 X120.947 Y26.477 
G1 X111.745 Y32.801 
G1 X102.765 Y39.435 
G1 X94.017 Y46.372 
G1 X85.511 Y53.604 
G1 X77.258 Y61.123 
G1 X69.266 Y68.919 
G1 X61.545 Y76.984 
G1 X54.104 Y85.308 
G1 X46.953 Y93.882 
G1 X40.098 Y102.695 
G1 X33.550 Y111.738 
G1 X27.315 Y120.999 
G1 X21.400 Y130.468 
G1 X15.813 Y140.135 
G1 X13.998 Y143.538 
G1  F360000.00000
G1 X13.998 Y168.673 F120000.000
G1  F360000.00000
G1 F20250
G1 X17.083 Y161.956 
G1 X22.100 Y151.982 
G1 X27.467 Y142.192 
G1 X33.178 Y132.598 
G1 X39.226 Y123.213 
G1 X45.602 Y114.048 
G1 X52.299 Y105.115 
G1 X59.308 Y96.424 
G1 X66.620 Y87.987 
G1 X74.227 Y79.814 
G1 X82.118 Y71.916 
G1 X90.284 Y64.302 
G1 X98.714 Y56.981 
G1 X107.398 Y49.964 
G1 X116.324 Y43.257 
G1 X125.482 Y36.871 
G1 X134.860 Y30.813 
G1 X144.447 Y25.090 
G1 X154.229 Y19.709 
G1 X164.196 Y14.677 
G1 X165.668 Y13.998 
G1  F360000.00000
G1 X194.173 Y13.998 F120000.000
G1  F360000.00000
G1 F20250
G1 X186.141 Y17.115 
G1 X175.887 Y21.533 
G1 X165.802 Y26.323 
G1 X155.899 Y31.479 
G1 X146.191 Y36.994 
G1 X136.692 Y42.862 
G1 X127.415 Y49.074 
G1 X118.371 Y55.621 
G1 X109.574 Y62.496 
G1 X101.035 Y69.688 
G1 X92.765 Y77.189 
G1 X84.776 Y84.989 
G1 X77.078 Y93.076 
G1 X69.683 Y101.440 
G1 X62.599 Y110.071 
G1 X55.838 Y118.955 
G1 X49.407 Y128.082 
G1 X43.315 Y137.439 
G1 X37.572 Y147.013 
G1 X32.184 Y156.792 
G1 X27.159 Y166.762 
G1 X22.505 Y176.911 
G1 X18.227 Y187.224 
G1 X14.330 Y197.687 
G1 X13.998 Y198.690 
G1  F360000.00000
G1 X13.998 Y241.229 F120000.000
G1  F360000.00000
G1 F20250
G1 X14.651 Y237.820 
G1 X17.170 Y226.943 
G1 X20.103 Y216.170 
G1 X23.446 Y205.517 
G1 X27.193 Y195.000 
G1 X31.338 Y184.633 
G1 X35.877 Y174.432 
G1 X40.802 Y164.412 
G1 X46.105 Y154.587 
G1 X51.779 Y144.971 
G1 X57.817 Y135.579 
G1 X64.207 Y126.424 
G1 X70.943 Y117.520 
G1 X78.012 Y108.878 
G1 X85.406 Y100.512 
G1 X93.114 Y92.434 
G1 X101.123 Y84.656 
G1 X109.423 Y77.188 
G1 X118.001 Y70.042 
G1 X126.845 Y63.227 
G1 X135.942 Y56.754 
G1 X145.279 Y50.631 
G1 X154.842 Y44.868 
G1 X164.617 Y39.473 
G1 X174.590 Y34.454 
G1 X184.746 Y29.817 
G1 X195.072 Y25.570 
G1 X205.551 Y21.718 
G1 X216.169 Y18.267 
G1 X226.911 Y15.221 
G1 X231.947 Y13.998 
G1  F360000.00000
G1 X371.776 Y13.998 F120000.000
G1  F360000.00000
G1 F20250
G1 X381.396 Y16.502 
G1 X392.086 Y19.721 
G1 X402.648 Y23.343 
G1 X413.064 Y27.361 
G1 X423.322 Y31.771 
G1 X433.405 Y36.565 
G1 X443.300 Y41.737 
G1 X452.992 Y47.280 
G1 X462.468 Y53.184 
G1 X471.714 Y59.443 
G1 X480.717 Y66.046 
G1 X489.464 Y72.984 
G1 X497.943 Y80.248 
G1 X506.142 Y87.827 
G1 X514.049 Y95.709 
G1 X521.653 Y103.884 
G1 X528.944 Y112.341 
G1 X535.910 Y121.066 
G1 X542.542 Y130.047 
G1 X548.831 Y139.272 
G1 X554.768 Y148.728 
G1 X560.344 Y158.401 
G1 X565.553 Y168.277 
G1 X570.385 Y178.341 
G1 X574.835 Y188.581 
G1 X578.897 Y198.981 
G1 X582.564 Y209.527 
G1 X585.832 Y220.203 
G1 X586.002 Y220.842 
G1  F360000.00000
G1 X586.002 Y186.493 F120000.000
G1  F360000.00000
G1 F20250
G1 X585.063 Y184.100 
G1 X580.612 Y173.861 
G1 X575.792 Y163.790 
G1 X570.610 Y153.901 
G1 X565.072 Y144.206 
G1 X559.186 Y134.719 
G1 X552.960 Y125.451 
G1 X546.400 Y116.416 
G1 X539.517 Y107.625 
G1 X532.319 Y99.091 
G1 X524.816 Y90.823 
G1 X517.017 Y82.834 
G1 X508.932 Y75.133 
G1 X500.573 Y67.732 
G1 X491.950 Y60.639 
G1 X483.075 Y53.865 
G1 X473.959 Y47.419 
G1 X464.615 Y41.309 
G1 X455.054 Y35.542 
G1 X445.290 Y30.128 
G1 X435.335 Y25.073 
G1 X425.202 Y20.384 
G1 X414.906 Y16.068 
G1 X409.416 Y13.998 
G1  F360000.00000
G1 X437.958 Y13.998 F120000.000
G1  F360000.00000
G1 F20250
G1 X444.436 Y17.119 
G1 X454.318 Y22.315 
G1 X464.012 Y27.855 
G1 X473.504 Y33.732 
G1 X482.785 Y39.939 
G1 X491.842 Y46.468 
G1 X500.664 Y53.310 
G1 X509.240 Y60.459 
G1 X517.560 Y67.904 
G1 X525.614 Y75.636 
G1 X533.392 Y83.647 
G1 X540.883 Y91.925 
G1 X548.080 Y100.461 
G1 X554.973 Y109.244 
G1 X561.554 Y118.263 
G1 X567.815 Y127.507 
G1 X573.748 Y136.965 
G1 X579.346 Y146.625 
G1 X584.602 Y156.475 
G1 X586.002 Y159.335 
G1  F360000.00000
G1 X586.002 Y135.777 F120000.000
G1  F360000.00000
G1 F20250
G1 X580.752 Y127.032 
G1 X574.685 Y117.659 
G1 X568.304 Y108.498 
G1 X561.617 Y99.557 
G1 X554.630 Y90.848 
G1 X547.353 Y82.381 
G1 X539.793 Y74.166 
G1 X531.958 Y66.211 
G1 X523.859 Y58.526 
G1 X515.504 Y51.121 
G1 X506.902 Y44.003 
G1 X498.064 Y37.181 
G1 X489.000 Y30.662 
G1 X479.719 Y24.455 
G1 X470.234 Y18.567 
G1 X462.285 Y13.998 
G1  F360000.00000
G1 X484.065 Y13.998 F120000.000
G1  F360000.00000
G1 F20250
G1 X492.602 Y19.594 
G1 X501.733 Y26.018 
G1 X510.649 Y32.738 
G1 X519.340 Y39.747 
G1 X527.796 Y47.037 
G1 X536.009 Y54.600 
G1 X543.969 Y62.429 
G1 X551.668 Y70.514 
G1 X559.098 Y78.848 
G1 X566.251 Y87.420 
G1 X573.120 Y96.222 
G1 X579.696 Y105.245 
G1 X586.002 Y114.523 
G1  F360000.00000
G1 X586.002 Y94.943 F120000.000
G1  F360000.00000
G1 F20250
G1 X582.691 Y90.376 
G1 X575.855 Y81.549 
G1 X568.742 Y72.943 
G1 X561.360 Y64.567 
G1 X553.716 Y56.430 
G1 X545.817 Y48.540 
G1 X537.672 Y40.904 
G1 X529.288 Y33.531 
G1 X520.674 Y26.427 
G1 X511.840 Y19.601 
G1 X504.091 Y13.998 
G1  F360000.00000
G1 X522.853 Y13.998 F120000.000
G1  F360000.00000
G1 F20250
G1 X528.210 Y18.158 
G1 X536.812 Y25.275 
G1 X545.192 Y32.653 
G1 X553.341 Y40.285 
G1 X561.250 Y48.164 
G1 X568.914 Y56.283 
G1 X576.325 Y64.634 
G1 X583.475 Y73.209 
G1 X586.002 Y76.437 
G1  F360000.00000
G1 X586.002 Y58.835 F120000.000
G1  F360000.00000
G1 F20250
G1 X581.819 Y53.944 
G1 X574.312 Y45.680 
G1 X566.561 Y37.643 
G1 X558.575 Y29.842 
G1 X550.359 Y22.282 
G1 X541.921 Y14.971 
G1 X540.727 Y13.998 
G1  F360000.00000
G1 X557.783 Y13.998 F120000.000
G1  F360000.00000
G1 F20250
G1 X561.462 Y17.272 
G1 X569.584 Y24.933 
G1 X577.480 Y32.826 
G1 X585.144 Y40.945 
G1 X586.002 Y41.909 
G1  F360000.00000
G1 X586.002 Y25.583 F120000.000
G1  F360000.00000
G1 F20250
G1 X578.300 Y17.839 
G1 X574.259 Y13.998 
G1  F360000.00000
G1 X586.002 Y296.450 F120000.000
G1  F360000.00000
G1 F20250
G1 X585.735 Y287.582 
G1 X584.963 Y276.443 
G1 X583.757 Y265.344 
G1 X582.119 Y254.299 
G1 X580.050 Y243.328 
G1 X577.554 Y232.445 
G1 X574.635 Y221.669 
G1 X571.297 Y211.014 
G1 X567.545 Y200.498 
G1 X563.385 Y190.138 
G1 X558.822 Y179.947 
G1 X553.865 Y169.943 
G1 X548.519 Y160.141 
G1 X542.794 Y150.556 
G1 X536.698 Y141.202 
G1 X530.241 Y132.094 
G1 X523.431 Y123.245 
G1 X516.280 Y114.671 
G1 X508.799 Y106.383 
G1 X500.998 Y98.395 
G1 X492.890 Y90.719 
G1 X484.487 Y83.367 
G1 X475.803 Y76.351 
G1 X466.849 Y69.680 
G1 X457.641 Y63.366 
G1 X448.192 Y57.419 
G1 X438.517 Y51.847 
G1 X428.630 Y46.659 
G1 X418.547 Y41.864 
G1 X408.284 Y37.469 
G1 X397.855 Y33.481 
G1 X387.278 Y29.906 
G1 X376.569 Y26.749 
G1 X365.743 Y24.016 
G1 X354.818 Y21.712 
G1 X343.812 Y19.839 
G1 X332.740 Y18.401 
G1 X321.620 Y17.400 
G1 X310.469 Y16.837 
G1 X299.304 Y16.715 
G1 X288.144 Y17.032 
G1 X277.004 Y17.789 
G1 X265.904 Y18.985 
G1 X254.859 Y20.617 
G1 X243.887 Y22.684 
G1 X233.005 Y25.183 
G1 X222.230 Y28.108 
G1 X211.579 Y31.457 
G1 X201.068 Y35.224 
G1 X190.715 Y39.403 
G1 X180.534 Y43.987 
G1 X170.543 Y48.970 
G1 X160.757 Y54.345 
G1 X151.190 Y60.102 
G1 X141.859 Y66.232 
G1 X132.778 Y72.727 
G1 X123.960 Y79.577 
G1 X115.421 Y86.769 
G1 X107.173 Y94.295 
G1 X99.229 Y102.140 
G1 X91.602 Y110.295 
G1 X84.304 Y118.744 
G1 X77.347 Y127.477 
G1 X70.742 Y136.478 
G1 X64.498 Y145.734 
G1 X58.626 Y155.231 
G1 X53.136 Y164.953 
G1 X48.035 Y174.884 
G1 X43.333 Y185.011 
G1 X39.036 Y195.316 
G1 X35.152 Y205.784 
G1 X31.687 Y216.397 
G1 X28.646 Y227.140 
G1 X26.034 Y237.996 
G1 X23.855 Y248.946 
G1 X22.114 Y259.975 
G1 X20.813 Y271.063 
G1 X19.953 Y282.195 
G1 X19.537 Y293.353 
G1 X19.566 Y304.518 
G1 X20.038 Y315.673 
G1 X20.955 Y326.800 
G1 X22.313 Y337.882 
G1 X24.113 Y348.901 
G1 X26.349 Y359.840 
G1 X29.020 Y370.681 
G1 X32.121 Y381.407 
G1 X35.647 Y392.000 
G1 X39.593 Y402.445 
G1 X43.952 Y412.724 
G1 X48.718 Y422.821 
G1 X53.883 Y432.719 
G1 X59.440 Y442.403 
G1 X65.378 Y451.858 
G1 X71.689 Y461.068 
G1 X78.364 Y470.019 
G1 X85.390 Y478.695 
G1 X92.758 Y487.084 
G1 X100.456 Y495.172 
G1 X108.470 Y502.945 
G1 X116.790 Y510.392 
G1 X125.400 Y517.499 
G1 X134.288 Y524.256 
G1 X143.440 Y530.652 
G1 X152.840 Y536.677 
G1 X162.474 Y542.320 
G1 X172.326 Y547.572 
G1 X182.381 Y552.426 
G1 X192.623 Y556.872 
G1 X203.034 Y560.905 
G1 X213.599 Y564.516 
G1 X224.300 Y567.701 
G1 X235.121 Y570.454 
G1 X246.043 Y572.770 
G1 X257.049 Y574.646 
G1 X268.122 Y576.078 
G1 X279.243 Y577.065 
G1 X290.396 Y577.604 
G1 X301.560 Y577.694 
G1 X312.720 Y577.335 
G1 X323.855 Y576.528 
G1 X334.950 Y575.274 
G1 X345.985 Y573.575 
G1 X356.942 Y571.432 
G1 X367.805 Y568.851 
G1 X378.555 Y565.834 
G1 X389.174 Y562.387 
G1 X399.646 Y558.515 
G1 X409.954 Y554.224 
G1 X420.080 Y549.521 
G1 X430.009 Y544.414 
G1 X439.723 Y538.910 
G1 X449.208 Y533.019 
G1 X458.447 Y526.751 
G1 X467.426 Y520.114 
G1 X476.129 Y513.121 
G1 X484.543 Y505.782 
G1 X492.654 Y498.109 
G1 X500.448 Y490.114 
G1 X507.913 Y481.811 
G1 X515.036 Y473.214 
G1 X521.806 Y464.335 
G1 X528.211 Y455.190 
G1 X534.241 Y445.793 
G1 X539.886 Y436.160 
G1 X545.136 Y426.307 
G1 X549.983 Y416.249 
G1 X554.419 Y406.003 
G1 X558.437 Y395.585 
G1 X562.029 Y385.014 
G1 X565.189 Y374.306 
G1 X567.913 Y363.478 
G1 X570.196 Y352.549 
G1 X572.034 Y341.536 
G1 X573.423 Y330.458 
G1 X574.362 Y319.332 
G1 X574.849 Y308.177 
G1 X574.882 Y297.012 
G1 X574.462 Y285.855 
G1 X573.589 Y274.724 
G1 X572.264 Y263.638 
G1 X570.490 Y252.615 
G1 X568.269 Y241.673 
G1 X565.606 Y230.830 
G1 X562.503 Y220.105 
G1 X558.967 Y209.514 
G1 X555.003 Y199.077 
G1 X550.617 Y188.809 
G1 X545.817 Y178.729 
G1 X540.610 Y168.852 
G1 X535.005 Y159.196 
G1 X529.011 Y149.776 
G1 X522.639 Y140.608 
G1 X515.898 Y131.708 
G1 X508.799 Y123.089 
G1 X501.355 Y114.768 
G1 X493.578 Y106.757 
G1 X485.480 Y99.071 
G1 X477.075 Y91.721 
G1 X468.377 Y84.721 
G1 X459.400 Y78.081 
G1 X450.160 Y71.814 
G1 X440.671 Y65.930 
G1 X430.950 Y60.439 
G1 X421.012 Y55.350 
G1 X410.874 Y50.671 
G1 X400.554 Y46.411 
G1 X390.068 Y42.577 
G1 X379.433 Y39.176 
G1 X368.669 Y36.213 
G1 X357.792 Y33.693 
G1 X346.821 Y31.620 
G1 X335.774 Y29.999 
G1 X324.670 Y28.832 
G1 X313.527 Y28.122 
G1 X302.365 Y27.868 
G1 X291.202 Y28.073 
G1 X280.057 Y28.736 
G1 X268.948 Y29.856 
G1 X257.894 Y31.431 
G1 X246.915 Y33.458 
G1 X236.028 Y35.934 
G1 X225.252 Y38.856 
G1 X214.605 Y42.218 
G1 X204.105 Y46.015 
G1 X193.771 Y50.241 
G1 X183.618 Y54.888 
G1 X173.666 Y59.948 
G1 X163.930 Y65.414 
G1 X154.428 Y71.277 
G1 X145.175 Y77.525 
G1 X136.187 Y84.149 
G1 X127.480 Y91.138 
G1 X119.068 Y98.479 
G1 X110.966 Y106.162 
G1 X103.187 Y114.171 
G1 X95.746 Y122.495 
G1 X88.654 Y131.118 
G1 X81.924 Y140.027 
G1 X75.567 Y149.206 
G1 X69.595 Y158.640 
G1 X64.018 Y168.312 
G1 X58.844 Y178.206 
G1 X54.084 Y188.306 
G1 X49.746 Y198.594 
G1 X45.836 Y209.052 
G1 X42.363 Y219.663 
G1 X39.331 Y230.408 
G1 X36.746 Y241.270 
G1 X34.613 Y252.230 
G1 X32.936 Y263.268 
G1 X31.717 Y274.367 
G1 X30.959 Y285.506 
G1 X30.663 Y296.667 
G1 X30.830 Y307.831 
G1 X31.460 Y318.978 
G1 X32.551 Y330.090 
G1 X34.102 Y341.147 
G1 X36.111 Y352.130 
G1 X38.574 Y363.020 
G1 X41.486 Y373.799 
G1 X44.844 Y384.447 
G1 X48.641 Y394.947 
G1 X52.871 Y405.279 
G1 X57.527 Y415.428 
G1 X62.600 Y425.373 
G1 X68.083 Y435.100 
G1 X73.965 Y444.590 
G1 X80.237 Y453.826 
G1 X86.889 Y462.794 
G1 X93.907 Y471.478 
G1 X101.281 Y479.861 
G1 X108.998 Y487.930 
G1 X117.044 Y495.671 
G1 X125.406 Y503.069 
G1 X134.069 Y510.113 
G1 X143.019 Y516.789 
G1 X152.238 Y523.086 
G1 X161.713 Y528.994 
G1 X171.426 Y534.500 
G1 X181.360 Y539.597 
G1 X191.498 Y544.274 
G1 X201.823 Y548.523 
G1 X212.316 Y552.338 
G1 X222.960 Y555.711 
G1 X233.735 Y558.636 
G1 X244.623 Y561.108 
G1 X255.605 Y563.122 
G1 X266.661 Y564.675 
G1 X277.773 Y565.765 
G1 X288.921 Y566.388 
G1 X300.085 Y566.544 
G1 X311.246 Y566.232 
G1 X322.384 Y565.453 
G1 X333.479 Y564.208 
G1 X344.513 Y562.498 
G1 X355.465 Y560.328 
G1 X366.317 Y557.701 
G1 X377.048 Y554.620 
G1 X387.641 Y551.092 
G1 X398.077 Y547.122 
G1 X408.337 Y542.718 
G1 X418.402 Y537.886 
G1 X428.256 Y532.636 
G1 X437.881 Y526.977 
G1 X447.259 Y520.918 
G1 X456.374 Y514.470 
G1 X465.210 Y507.645 
G1 X473.751 Y500.453 
G1 X481.982 Y492.909 
G1 X489.888 Y485.025 
G1 X497.455 Y476.815 
G1 X504.669 Y468.294 
G1 X511.518 Y459.476 
G1 X517.989 Y450.378 
G1 X524.072 Y441.015 
G1 X529.754 Y431.404 
G1 X535.025 Y421.561 
G1 X539.877 Y411.505 
G1 X544.300 Y401.253 
G1 X548.286 Y390.824 
G1 X551.828 Y380.236 
G1 X554.920 Y369.507 
G1 X557.556 Y358.658 
G1 X559.731 Y347.706 
G1 X561.441 Y336.673 
G1 X562.683 Y325.577 
G1 X563.455 Y314.439 
G1 X563.755 Y303.278 
G1 X563.582 Y292.114 
G1 X562.937 Y280.967 
G1 X561.820 Y269.858 
G1 X560.234 Y258.806 
G1 X558.181 Y247.831 
G1 X555.665 Y236.953 
G1 X552.690 Y226.192 
G1 X549.261 Y215.566 
G1 X545.384 Y205.096 
G1 X541.067 Y194.799 
G1 X536.317 Y184.695 
G1 X531.142 Y174.801 
G1 X525.551 Y165.136 
G1 X519.555 Y155.718 
G1 X513.165 Y146.562 
G1 X506.391 Y137.687 
G1 X499.245 Y129.108 
G1 X491.742 Y120.840 
G1 X483.893 Y112.899 
G1 X475.714 Y105.299 
G1 X467.218 Y98.054 
G1 X458.422 Y91.177 
G1 X449.341 Y84.681 
G1 X439.991 Y78.578 
G1 X430.390 Y72.879 
G1 X420.555 Y67.595 
G1 X410.503 Y62.734 
G1 X400.253 Y58.307 
G1 X389.824 Y54.321 
G1 X379.234 Y50.783 
G1 X368.503 Y47.701 
G1 X357.649 Y45.080 
G1 X346.694 Y42.925 
G1 X335.657 Y41.240 
G1 X324.558 Y40.028 
G1 X313.417 Y39.291 
G1 X302.255 Y39.032 
G1 X291.092 Y39.251 
G1 X279.948 Y39.946 
G1 X268.845 Y41.119 
G1 X257.802 Y42.765 
G1 X246.839 Y44.883 
G1 X235.977 Y47.468 
G1 X225.236 Y50.517 
G1 X214.636 Y54.023 
G1 X204.196 Y57.980 
G1 X193.934 Y62.381 
G1 X183.872 Y67.219 
G1 X174.026 Y72.484 
G1 X164.415 Y78.166 
G1 X155.057 Y84.257 
G1 X145.969 Y90.743 
G1 X137.168 Y97.614 
G1 X128.671 Y104.856 
G1 X120.493 Y112.458 
G1 X112.649 Y120.404 
G1 X105.154 Y128.679 
G1 X98.022 Y137.270 
G1 X91.267 Y146.160 
G1 X84.900 Y155.332 
G1 X78.935 Y164.770 
G1 X73.381 Y174.456 
G1 X68.250 Y184.372 
G1 X63.552 Y194.501 
G1 X59.294 Y204.822 
G1 X55.485 Y215.318 
G1 X52.133 Y225.968 
