; generated by Slic3r Prusa Edition 1.39.1-prusa3d-win64 on 2018-03-16 at 02:14:27

; 

; external perimeters extrusion width = 11.25mm
; perimeters extrusion width = 11.25mm
; infill extrusion width = 11.25mm
; solid infill extrusion width = 11.25mm
; top infill extrusion width = 10.00mm

$H
G92 X0 Y0
G90
; Filament gcode
G21 ; set units to millimeters
G90 ; use absolute coordinates
G1 Z0.400 F120000.000
G1  F360000.00000
G1 X13.998 Y13.998 F120000.000
G1  F360000.00000
G1 F20250
G1 X586.002 Y13.998 
G1 X586.002 Y586.002 
G1 X13.998 Y586.002 
G1 X13.998 Y15.498 
G1  F360000.00000
G1 X25.214 Y25.214 F120000.000
G1  F360000.00000
G1 F20250
G1 X574.786 Y25.214 
G1 X574.786 Y574.786 
G1 X25.214 Y574.786 
G1 X25.214 Y26.714 
G1  F360000.00000
G1 X36.430 Y36.430 F120000.000
G1  F360000.00000
G1 F20250
G1 X563.570 Y36.430 
G1 X563.570 Y563.570 
G1 X36.430 Y563.570 
G1 X36.430 Y37.930 
G1  F360000.00000
G1 X47.645 Y47.645 F120000.000
G1  F360000.00000
G1 F20250
G1 X552.355 Y47.645 
G1 X552.355 Y552.355 
G1 X47.645 Y552.355 
G1 X47.645 Y49.145 
G1  F360000.00000
G1 X58.861 Y58.861 F120000.000
G1  F360000.00000
G1 F20250
G1 X541.139 Y58.861 
G1 X541.139 Y541.139 
G1 X58.861 Y541.139 
G1 X58.861 Y60.361 
G1  F360000.00000
G1 X70.077 Y70.077 F120000.000
G1  F360000.00000
G1 F20250
G1 X529.923 Y70.077 
G1 X529.923 Y529.923 
G1 X70.077 Y529.923 
G1 X70.077 Y71.577 
G1  F360000.00000
G1 X81.293 Y81.293 F120000.000
G1  F360000.00000
G1 F20250
G1 X518.707 Y81.293 
G1 X518.707 Y518.707 
G1 X81.293 Y518.707 
G1 X81.293 Y82.793 
G1  F360000.00000
G1 X92.508 Y92.508 F120000.000
G1  F360000.00000
G1 F20250
G1 X507.492 Y92.508 
G1 X507.492 Y507.492 
G1 X92.508 Y507.492 
G1 X92.508 Y94.008 
G1  F360000.00000
G1 X103.724 Y103.724 F120000.000
G1  F360000.00000
G1 F20250
G1 X496.276 Y103.724 
G1 X496.276 Y496.276 
G1 X103.724 Y496.276 
G1 X103.724 Y105.224 
G1  F360000.00000
G1 X114.940 Y114.940 F120000.000
G1  F360000.00000
G1 F20250
G1 X485.060 Y114.940 
G1 X485.060 Y485.060 
G1 X114.940 Y485.060 
G1 X114.940 Y116.440 
G1  F360000.00000
G1 X126.156 Y126.156 F120000.000
G1  F360000.00000
G1 F20250
G1 X473.844 Y126.156 
G1 X473.844 Y473.844 
G1 X126.156 Y473.844 
G1 X126.156 Y127.656 
G1  F360000.00000
G1 X137.371 Y137.371 F120000.000
G1  F360000.00000
G1 F20250
G1 X462.629 Y137.371 
G1 X462.629 Y462.629 
G1 X137.371 Y462.629 
G1 X137.371 Y138.871 
G1  F360000.00000
G1 X148.587 Y148.587 F120000.000
G1  F360000.00000
G1 F20250
G1 X451.413 Y148.587 
G1 X451.413 Y451.413 
G1 X148.587 Y451.413 
G1 X148.587 Y150.087 
G1  F360000.00000
G1 X159.803 Y159.803 F120000.000
G1  F360000.00000
G1 F20250
G1 X440.197 Y159.803 
G1 X440.197 Y440.197 
G1 X159.803 Y440.197 
G1 X159.803 Y161.303 
G1  F360000.00000
G1 X171.019 Y171.019 F120000.000
G1  F360000.00000
G1 F20250
G1 X428.981 Y171.019 
G1 X428.981 Y428.981 
G1 X171.019 Y428.981 
G1 X171.019 Y172.519 
G1  F360000.00000
G1 X182.235 Y182.235 F120000.000
G1  F360000.00000
G1 F20250
G1 X417.765 Y182.235 
G1 X417.765 Y417.765 
G1 X182.235 Y417.765 
G1 X182.235 Y183.735 
G1  F360000.00000
G1 X193.450 Y193.450 F120000.000
G1  F360000.00000
G1 F20250
G1 X406.550 Y193.450 
G1 X406.550 Y406.550 
G1 X193.450 Y406.550 
G1 X193.450 Y194.950 
G1  F360000.00000
G1 X204.666 Y204.666 F120000.000
G1  F360000.00000
G1 F20250
G1 X395.334 Y204.666 
G1 X395.334 Y395.334 
G1 X204.666 Y395.334 
G1 X204.666 Y206.166 
G1  F360000.00000
G1 X215.882 Y215.882 F120000.000
G1  F360000.00000
G1 F20250
G1 X384.118 Y215.882 
G1 X384.118 Y384.118 
G1 X215.882 Y384.118 
G1 X215.882 Y217.382 
G1  F360000.00000
G1 X227.098 Y227.098 F120000.000
G1  F360000.00000
G1 F20250
G1 X372.902 Y227.098 
G1 X372.902 Y372.902 
G1 X227.098 Y372.902 
G1 X227.098 Y228.598 
G1  F360000.00000
G1 X238.313 Y238.313 F120000.000
G1  F360000.00000
G1 F20250
G1 X361.687 Y238.313 
G1 X361.687 Y361.687 
G1 X238.313 Y361.687 
G1 X238.313 Y239.813 
G1  F360000.00000
G1 X249.529 Y249.529 F120000.000
G1  F360000.00000
G1 F20250
G1 X350.471 Y249.529 
G1 X350.471 Y350.471 
G1 X249.529 Y350.471 
G1 X249.529 Y251.029 
G1  F360000.00000
G1 X260.745 Y260.745 F120000.000
G1  F360000.00000
G1 F20250
G1 X339.255 Y260.745 
G1 X339.255 Y339.255 
G1 X260.745 Y339.255 
G1 X260.745 Y262.245 
G1  F360000.00000
G1 X271.961 Y271.961 F120000.000
G1  F360000.00000
G1 F20250
G1 X328.039 Y271.961 
G1 X328.039 Y328.039 
G1 X271.961 Y328.039 
G1 X271.961 Y273.461 
G1  F360000.00000
G1 X283.176 Y283.176 F120000.000
G1  F360000.00000
G1 F20250
G1 X316.824 Y283.176 
G1 X316.824 Y316.824 
G1 X283.176 Y316.824 
G1 X283.176 Y284.676 
G1  F360000.00000
G1 X5.625 Y5.625 F120000.000
G1  F360000.00000
G1 F9000
G1 X594.375 Y5.625 
G1 X594.375 Y594.375 
G1 X5.625 Y594.375 
G1 X5.625 Y7.125 
G1  F360000.00000
; Filament-specific end gcode 
;END gcode for filament
; filament used = 7445.8mm (146.2cm3)
; total filament cost = 0.0
; estimated printing time = 2m 12s

; avoid_crossing_perimeters = 1
; bed_shape = 0x0,600x0,600x600,0x600
; bed_temperature = 0
; before_layer_gcode = 
; between_objects_gcode = 
; bridge_acceleration = 0
; bridge_fan_speed = 100
; brim_width = 0
; complete_objects = 0
; cooling = 0
; default_acceleration = 0
; deretract_speed = 0
; disable_fan_first_layers = 3
; duplicate_distance = 6
; end_filament_gcode = "; Filament-specific end gcode \n;END gcode for filament\n"
; end_gcode = 
; extruder_clearance_height = 20
; extruder_clearance_radius = 20
; extruder_colour = ""
; extruder_offset = 0x0
; extrusion_axis = E
; extrusion_multiplier = 1
; fan_always_on = 0
; fan_below_layer_time = 60
; filament_colour = #29b2b2
; filament_cost = 0
; filament_density = 0
; filament_diameter = 5
; filament_max_volumetric_speed = 0
; filament_notes = ""
; filament_soluble = 0
; filament_type = PLA
; first_layer_acceleration = 0
; first_layer_bed_temperature = 0
; first_layer_extrusion_width = 0
; first_layer_speed = 50%
; first_layer_temperature = 0
; gcode_comments = 0
; gcode_flavor = mach3
; infill_acceleration = 0
; infill_first = 1
; layer_gcode = 
; max_fan_speed = 100
; max_layer_height = 0
; max_print_speed = 80
; max_volumetric_extrusion_rate_slope_negative = 0
; max_volumetric_extrusion_rate_slope_positive = 0
; max_volumetric_speed = 0
; min_fan_speed = 66
; min_layer_height = 0.07
; min_print_speed = 10
; min_skirt_length = 0
; notes = 
; nozzle_diameter = 10
; only_retract_when_crossing_perimeters = 1
; ooze_prevention = 0
; output_filename_format = [input_filename_base].gcode
; perimeter_acceleration = 0
; post_process = "D:\\github\\sand-table\\gcodes\\strip_slic3r.py"
; printer_notes = 
; resolution = 0
; retract_before_travel = 2
; retract_before_wipe = 0%
; retract_layer_change = 0
; retract_length = 2
; retract_length_toolchange = 10
; retract_lift = 0
; retract_lift_above = 0
; retract_lift_below = 0
; retract_restart_extra = 0
; retract_restart_extra_toolchange = 0
; retract_speed = 6000
; single_extruder_multi_material = 0
; skirt_distance = 6
; skirt_height = 1
; skirts = 0
; slowdown_below_layer_time = 5
; spiral_vase = 0
; standby_temperature_delta = -5
; start_filament_gcode = "; Filament gcode\n"
; start_gcode = $H\nG92 X0 Y0\nG90\n
; temperature = 0
; threads = 8
; toolchange_gcode = 
; travel_speed = 2000
; use_firmware_retraction = 0
; use_relative_e_distances = 0
; use_volumetric_e = 0
; variable_layer_height = 1
; wipe = 0
; wipe_tower = 0
; wipe_tower_per_color_wipe = 15
; wipe_tower_width = 60
; wipe_tower_x = 180
; wipe_tower_y = 140
; z_offset = 0
; clip_multipart_objects = 0
; dont_support_bridges = 1
; elefant_foot_compensation = 0
; extrusion_width = 0
; first_layer_height = 0.4
; infill_only_where_needed = 0
; interface_shells = 0
; layer_height = 0.2
; raft_layers = 0
; seam_position = nearest
; support_material = 0
; support_material_angle = 0
; support_material_buildplate_only = 0
; support_material_contact_distance = 0.2
; support_material_enforce_layers = 0
; support_material_extruder = 1
; support_material_extrusion_width = 0
; support_material_interface_contact_loops = 0
; support_material_interface_extruder = 1
; support_material_interface_layers = 3
; support_material_interface_spacing = 0
; support_material_interface_speed = 100%
; support_material_pattern = pillars
; support_material_spacing = 2.5
; support_material_speed = 90
; support_material_synchronize_layers = 0
; support_material_threshold = 0
; support_material_with_sheath = 1
; support_material_xy_spacing = 50%
; xy_size_compensation = 0
; bottom_solid_layers = 1
; bridge_angle = 0
; bridge_flow_ratio = 1
; bridge_speed = 600
; ensure_vertical_shell_thickness = 0
; external_fill_pattern = concentric
; external_perimeter_extrusion_width = 0
; external_perimeter_speed = 50%
; external_perimeters_first = 0
; extra_perimeters = 1
; fill_angle = 45
; fill_density = 0%
; fill_pattern = 3dhoneycomb
; gap_fill_speed = 20
; infill_every_layers = 1
; infill_extruder = 1
; infill_extrusion_width = 0
; infill_overlap = 25%
; infill_speed = 900
; overhangs = 1
; perimeter_extruder = 1
; perimeter_extrusion_width = 0
; perimeter_speed = 600
; perimeters = 1
; small_perimeter_speed = 50%
; solid_infill_below_area = 7
; solid_infill_every_layers = 0
; solid_infill_extruder = 1
; solid_infill_extrusion_width = 0
; solid_infill_speed = 75%
; thin_walls = 1
; top_infill_extrusion_width = 0
; top_solid_infill_speed = 50%
; top_solid_layers = 1
