; generated by Slic3r 1.33.8.devel on 2018-03-17 at 23:35:55

; 

; external perimeters extrusion width = 10.00mm
; perimeters extrusion width = 16.78mm
; infill extrusion width = 16.78mm
; solid infill extrusion width = 16.78mm
; top infill extrusion width = 16.78mm

$H
G92 X0 Y0
G90

G21 ; set units to millimeters
G90 ; use absolute coordinates
G1 Z5.000 F576000.000
G1  F360000.00000
G1 X95.128 Y156.797 F576000.000
G1  F360000.00000
G1 F5400
G1 X316.872 Y378.540 
G1  F360000.00000
G1 X295.724 Y379.630 F576000.000
G1  F360000.00000
G1 F5400
G1 X38.881 Y122.787 
G1 X37.513 Y122.343 
G1 X34.428 Y122.504 
G1 X30.487 Y122.919 
G1 X27.533 Y124.345 
G1 X23.766 Y126.467 
G1 X22.089 Y128.232 
G1 X65.686 Y171.829 
G1 X47.352 Y175.733 
G1 X14.214 Y142.595 
G1 X13.657 Y146.272 
G1 X13.252 Y151.836 
G1 X13.840 Y156.377 
G1 X15.023 Y161.728 
G1 X16.777 Y165.686 
G1 X19.121 Y169.739 
G1 X35.437 Y186.055 
G1  F360000.00000
G1 X93.682 Y244.300 F576000.000
G1  F360000.00000
G1 F5400
G1 X85.977 Y236.595 
G1 X73.390 Y241.997 
G1 X69.248 Y242.104 
G1 X74.328 Y247.184 
G1 X73.262 Y247.964 
G1 X64.705 Y259.798 
G1 X47.568 Y242.662 
G1 X45.034 Y241.098 
G1 X41.445 Y239.552 
G1 X37.604 Y238.304 
G1 X34.525 Y238.280 
G1 X30.586 Y238.694 
G1 X27.595 Y239.929 
G1 X24.398 Y241.729 
G1 X56.407 Y273.738 
G1 X55.239 Y277.527 
G1 X53.329 Y282.475 
G1 X51.026 Y285.832 
G1 X48.870 Y288.438 
G1 X15.088 Y254.657 
G1 X14.183 Y257.001 
G1 X13.306 Y261.426 
G1 X12.901 Y266.994 
G1 X13.281 Y271.552 
G1 X14.284 Y276.090 
G1 X39.646 Y301.453 
G1  F360000.00000
G1 X113.690 Y375.497 F576000.000
G1  F360000.00000
G1 F5400
G1 X87.710 Y349.516 
G1 X86.721 Y345.043 
G1 X86.557 Y340.447 
G1 X86.961 Y334.887 
G1 X88.053 Y330.519 
G1 X88.860 Y328.428 
G1 X122.704 Y362.273 
G1 X124.184 Y360.484 
G1 X126.623 Y357.269 
G1 X128.524 Y352.344 
G1 X130.007 Y348.167 
G1 X130.063 Y347.394 
G1 X98.334 Y315.665 
G1 X100.780 Y313.958 
G1 X109.850 Y305.904 
G1 X110.292 Y305.385 
G1 X127.860 Y322.954 
G1 X126.753 Y306.051 
G1 X127.904 Y300.760 
G1 X120.523 Y293.379 
G1 X129.300 Y283.078 
G1 X130.244 Y280.862 
G1 X133.261 Y283.879 
G1 X137.957 Y274.828 
G1 X141.940 Y270.321 
G1 X97.102 Y225.483 
G1 X102.625 Y214.653 
G1 X103.813 Y209.956 
G1 X159.725 Y265.868 
G1  F360000.00000
G1 X274.673 Y380.817 F576000.000
G1  F360000.00000
G1 F5400
G1 X217.701 Y323.844 
G1 X217.655 Y333.089 
G1 X217.072 Y335.472 
G1 X214.986 Y343.367 
G1 X267.296 Y395.677 
G1 X266.754 Y400.228 
G1 X266.570 Y400.678 
G1 X266.449 Y401.713 
G1 X262.133 Y412.751 
G1 X207.215 Y357.834 
G1 X204.255 Y358.707 
G1 X201.583 Y359.677 
G1 X192.876 Y365.732 
G1 X254.281 Y427.137 
G1 X252.443 Y437.628 
G1 X251.214 Y446.308 
G1 X182.770 Y377.864 
G1 X177.110 Y391.104 
G1 X176.237 Y393.568 
G1 X258.117 Y475.448 
G1  F360000.00000
G1 X231.519 Y471.088 F576000.000
G1  F360000.00000
G1 F5400
G1 X169.862 Y409.431 
G1 X161.806 Y423.612 
G1 X208.648 Y470.454 
G1 X207.983 Y470.793 
G1 X197.716 Y480.317 
G1 X197.217 Y481.261 
G1 X193.697 Y477.741 
G1  F360000.00000
G1 X196.739 Y503.020 F576000.000
G1  F360000.00000
G1 F5400
G1 X190.168 Y496.449 
G1 X186.783 Y505.078 
G1 X182.332 Y510.851 
G1 X189.349 Y517.868 
G1 X190.597 Y536.610 
G1 X191.806 Y538.867 
G1 X193.570 Y543.354 
G1 X194.017 Y544.773 
G1 X172.650 Y523.406 
G1 X169.971 Y526.881 
G1 X167.472 Y527.907 
G1 X164.024 Y529.965 
G1 X160.398 Y532.585 
G1 X160.036 Y533.030 
G1 X193.777 Y566.770 
G1 X193.330 Y568.326 
G1 X191.374 Y572.076 
G1 X188.595 Y576.204 
G1 X185.892 Y578.807 
G1 X184.547 Y579.779 
G1 X146.743 Y541.974 
G1  F360000.00000
G1 X113.122 Y508.354 F576000.000
G1  F360000.00000
G1 F5400
G1 X83.262 Y478.494 
G1 X83.199 Y473.287 
G1 X83.403 Y468.702 
G1 X84.908 Y463.459 
G1 X86.317 Y459.317 
G1 X120.928 Y493.922 
G1 X123.263 Y490.454 
G1 X125.163 Y486.271 
G1 X126.334 Y483.113 
G1 X128.305 Y479.061 
G1 X97.182 Y447.939 
G1 X97.942 Y447.428 
G1 X101.878 Y446.515 
G1 X104.893 Y445.887 
G1 X108.216 Y446.559 
G1 X114.358 Y447.756 
G1 X119.108 Y447.626 
G1 X136.335 Y464.854 
G1 X145.122 Y451.403 
G1 X138.296 Y444.577 
G1 X146.598 Y440.810 
G1 X151.832 Y435.876 
G1 X156.054 Y440.098 
G1  F360000.00000
G1 X271.888 Y578.170 F576000.000
G1  F360000.00000
G1 F5400
G1 X249.245 Y555.526 
G1 X249.156 Y555.307 
G1 X247.506 Y550.067 
G1 X247.023 Y545.879 
G1 X246.953 Y540.222 
G1 X247.610 Y535.769 
G1 X248.320 Y532.364 
G1 X281.959 Y566.002 
G1 X282.220 Y565.814 
G1 X284.502 Y563.107 
G1 X287.346 Y558.882 
G1 X289.023 Y554.984 
G1 X290.133 Y551.939 
G1 X249.608 Y511.414 
G1 X250.603 Y494.878 
G1 X249.751 Y489.319 
G1 X333.736 Y573.305 
G1 X335.975 Y572.020 
G1 X339.685 Y569.517 
G1 X342.068 Y566.734 
G1 X344.989 Y562.648 
G1 X345.087 Y562.418 
G1 X310.433 Y527.764 
G1 X311.556 Y526.193 
G1 X313.664 Y523.613 
G1 X317.064 Y521.437 
G1 X321.598 Y518.379 
G1 X322.543 Y517.636 
G1 X348.866 Y543.960 
G1 X348.870 Y543.698 
G1 X348.208 Y539.083 
G1 X347.463 Y535.511 
G1 X346.490 Y519.346 
G1 X333.456 Y506.312 
G1 X337.314 Y501.772 
G1 X341.458 Y492.077 
G1 X345.533 Y496.152 
G1 X347.417 Y483.859 
G1 X349.869 Y478.250 
G1 X345.399 Y473.780 
G1 X346.581 Y463.592 
G1 X344.799 Y450.942 
G1 X367.841 Y473.985 
G1  F360000.00000
G1 X411.551 Y495.456 F576000.000
G1  F360000.00000
G1 F5400
G1 X335.577 Y419.483 
G1 X333.475 Y415.890 
G1 X332.147 Y412.814 
G1 X330.657 Y407.527 
G1 X329.798 Y405.583 
G1 X329.739 Y405.115 
G1 X328.345 Y400.286 
G1 X328.125 Y398.368 
G1 X328.005 Y396.438 
G1 X327.642 Y393.316 
G1 X327.424 Y389.915 
G1 X327.519 Y389.187 
G1 X404.947 Y466.616 
G1 X409.544 Y455.259 
G1 X412.125 Y451.556 
G1 X119.898 Y159.329 
G1 X134.163 Y154.232 
G1 X136.251 Y153.444 
G1 X424.470 Y441.663 
G1  F360000.00000
G1 X428.677 Y401.395 F576000.000
G1  F360000.00000
G1 F5400
G1 X379.976 Y352.694 
G1  F360000.00000
G1 X462.788 Y346.556 F576000.000
G1  F360000.00000
G1 F5400
G1 X482.941 Y366.709 
G1 X485.496 Y368.148 
G1 X488.601 Y368.736 
G1 X492.515 Y369.148 
G1 X495.568 Y368.471 
G1 X499.461 Y367.207 
G1 X502.321 Y365.237 
G1 X503.071 Y364.601 
G1 X470.653 Y332.184 
G1 X471.906 Y326.518 
G1 X472.848 Y312.141 
G1 X511.851 Y351.144 
G1 X512.091 Y350.415 
G1 X513.279 Y345.043 
G1 X513.443 Y340.447 
G1 X513.039 Y334.887 
G1 X511.947 Y330.519 
G1 X510.994 Y328.050 
G1 X221.782 Y38.837 
G1 X236.897 Y31.715 
G1 X466.229 Y261.047 
G1 X468.205 Y254.888 
G1 X472.219 Y248.864 
G1 X474.446 Y247.026 
G1 X252.012 Y24.592 
G1 X264.602 Y18.660 
G1 X268.111 Y18.454 
G1 X494.267 Y244.609 
G1  F360000.00000
G1 X416.741 Y256.034 F576000.000
G1  F360000.00000
G1 F5400
G1 X210.498 Y49.791 
G1 X199.421 Y60.951 
G1 X392.364 Y253.894 
G1 X389.578 Y255.684 
G1 X387.942 Y257.323 
G1 X379.745 Y263.513 
G1 X188.343 Y72.111 
G1 X184.735 Y75.746 
G1 X179.667 Y85.672 
G1 X370.296 Y276.301 
G1 X367.411 Y280.556 
G1 X365.448 Y285.682 
G1 X365.274 Y286.355 
G1 X363.569 Y291.812 
G1 X172.150 Y100.393 
G1 X164.634 Y115.114 
G1 X360.660 Y311.140 
G1 X360.528 Y315.617 
G1 X360.744 Y320.835 
G1 X363.583 Y332.337 
G1 X363.643 Y333.335 
G1 X364.695 Y337.413 
G1 X157.610 Y130.328 
G1 X156.167 Y134.296 
G1 X152.429 Y147.385 
G1 X504.613 Y499.569 
G1 X504.900 Y499.323 
G1 X507.757 Y495.328 
G1 X509.882 Y491.723 
G1 X511.498 Y486.590 
G1 X511.958 Y484.676 
G1 X471.011 Y443.729 
G1  F360000.00000
G1 X469.627 Y486.820 F576000.000
G1  F360000.00000
G1 F5400
G1 X495.255 Y512.448 
G1  F360000.00000
G1 X451.211 Y557.355 F576000.000
G1  F360000.00000
G1 F5400
G1 X407.007 Y513.150 
G1 X405.619 Y534.000 
G1 X442.103 Y570.484 
G1 X441.597 Y572.092 
G1 X439.638 Y575.826 
G1 X436.763 Y579.848 
G1 X434.066 Y582.430 
G1 X432.720 Y583.339 
G1 X395.133 Y545.752 
G1  F360000.00000
G1 X592.866 Y276.496 F576000.000
G1  F360000.00000
G1 F5400
G1 X556.715 Y240.345 
G1 X554.966 Y241.098 
G1 X552.442 Y242.662 
G1 X536.381 Y242.248 
G1 X580.576 Y286.444 
G1 X578.956 Y288.459 
G1 X575.479 Y291.407 
G1 X572.558 Y293.174 
G1 X568.677 Y294.434 
G1 X566.646 Y294.751 
G1 X289.116 Y17.221 
G1 X310.121 Y15.988 
G1 X493.543 Y199.410 
G1 X493.721 Y190.229 
G1 X494.964 Y185.260 
G1 X497.218 Y180.848 
G1 X473.251 Y156.881 
G1 X494.185 Y164.361 
G1 X502.585 Y163.977 
G1 X509.530 Y170.923 
G1 X509.932 Y170.725 
G1 X523.037 Y169.428 
G1 X532.231 Y171.385 
G1 X521.100 Y160.254 
G1 X528.703 Y156.629 
G1 X534.169 Y151.087 
G1 X561.732 Y178.650 
G1 X564.684 Y178.960 
G1 X567.775 Y178.702 
G1 X571.632 Y177.449 
G1 X574.633 Y175.890 
G1 X578.084 Y172.964 
G1 X578.179 Y172.859 
G1 X544.264 Y138.944 
G1 X547.196 Y133.874 
G1 X549.369 Y130.068 
G1 X552.170 Y127.598 
G1 X553.786 Y126.228 
G1 X591.658 Y164.100 
G1  F360000.00000
G1 X434.889 Y118.519 F576000.000
G1  F360000.00000
G1 F5400
G1 X331.932 Y15.562 
G1 Z10.000 F576000.000
G1  F360000.00000
G1 X424.582 Y532.249 F576000.000
G1  F360000.00000
G1 F10800
G1 X411.579 Y545.251 
G1 X409.630 Y547.978 
G1 X407.527 Y554.657 
G1 X407.438 Y561.948 
G1 X409.382 Y568.721 
G1 X410.448 Y570.305 
G1 X433.841 Y546.912 
G1 X434.906 Y548.495 
G1 X436.851 Y555.268 
G1 X436.762 Y562.560 
G1 X434.659 Y569.239 
G1 X432.710 Y571.965 
G1 X419.706 Y584.968 
G1  F360000.00000
G1 X324.404 Y572.767 F576000.000
G1  F360000.00000
G1 F10800
G1 X337.407 Y559.764 
G1 X339.356 Y557.038 
G1 X341.459 Y550.359 
G1 X341.549 Y543.068 
G1 X339.604 Y536.295 
G1 X338.538 Y534.711 
G1 X315.146 Y558.104 
G1 X314.080 Y556.521 
G1 X312.135 Y549.748 
G1 X312.225 Y542.456 
G1 X314.328 Y535.777 
G1 X316.277 Y533.051 
G1 X329.280 Y520.048 
G1  F360000.00000
G1 X271.380 Y516.760 F576000.000
G1  F360000.00000
G1 F10800
G1 X258.362 Y529.779 
G1 X256.217 Y532.966 
G1 X254.272 Y539.739 
G1 X254.361 Y547.030 
G1 X256.465 Y553.709 
G1 X257.250 Y554.808 
G1 X280.708 Y531.350 
G1 X281.493 Y532.449 
G1 X283.596 Y539.127 
G1 X283.686 Y546.419 
G1 X281.741 Y553.192 
G1 X279.596 Y556.378 
G1 X266.577 Y569.397 
G1  F360000.00000
G1 X171.275 Y581.598 F576000.000
G1  F360000.00000
G1 F10800
G1 X184.294 Y568.579 
G1 X186.439 Y565.392 
G1 X188.383 Y558.619 
G1 X188.294 Y551.328 
G1 X186.191 Y544.649 
G1 X185.405 Y543.550 
G1 X161.948 Y567.008 
G1 X161.162 Y565.910 
G1 X159.059 Y559.231 
G1 X158.970 Y551.939 
G1 X160.914 Y545.166 
G1 X163.059 Y541.980 
G1 X176.078 Y528.961 
G1  F360000.00000
G1 X102.737 Y500.581 F576000.000
G1  F360000.00000
G1 F10800
G1 X115.756 Y487.562 
G1 X117.901 Y484.376 
G1 X119.845 Y477.603 
G1 X119.756 Y470.311 
G1 X117.653 Y463.632 
G1 X116.867 Y462.534 
G1 X93.410 Y485.992 
G1 X92.624 Y484.893 
G1 X90.521 Y478.214 
G1 X90.432 Y470.923 
G1 X92.377 Y464.150 
G1 X94.522 Y460.963 
G1 X107.540 Y447.944 
G1  F360000.00000
G1 X105.950 Y367.282 F576000.000
G1  F360000.00000
G1 F10800
G1 X119.819 Y353.413 
G1 X120.471 Y352.624 
G1 X122.948 Y346.207 
G1 X123.476 Y338.951 
G1 X121.935 Y331.978 
G1 X120.276 Y329.110 
G1 X96.951 Y352.435 
G1 X95.293 Y349.567 
G1 X93.751 Y342.595 
G1 X94.279 Y335.339 
G1 X96.756 Y328.921 
G1 X97.409 Y328.132 
G1 X111.277 Y314.264 
G1  F360000.00000
G1 X32.359 Y293.031 F576000.000
G1  F360000.00000
G1 F10800
G1 X46.228 Y279.162 
G1 X46.881 Y278.373 
G1 X49.358 Y271.956 
G1 X49.886 Y264.700 
G1 X48.344 Y257.727 
G1 X46.686 Y254.859 
G1 X23.361 Y278.184 
G1 X21.702 Y275.316 
G1 X20.160 Y268.344 
G1 X20.688 Y261.088 
G1 X23.166 Y254.670 
G1 X23.819 Y253.881 
G1 X37.687 Y240.013 
G1  F360000.00000
G1 X32.728 Y177.120 F576000.000
G1  F360000.00000
G1 F10800
G1 X46.597 Y163.251 
G1 X47.249 Y162.463 
G1 X49.727 Y156.045 
G1 X50.254 Y148.789 
G1 X48.713 Y141.817 
G1 X47.054 Y138.949 
G1 X23.729 Y162.274 
G1 X22.071 Y159.406 
G1 X20.529 Y152.433 
G1 X21.057 Y145.177 
G1 X23.534 Y138.760 
G1 X24.187 Y137.970 
G1 X38.056 Y124.102 
G1  F360000.00000
G1 X157.002 Y140.021 F576000.000
G1  F360000.00000
G1 F10800
G1 X173.532 Y123.491 
G1 X170.467 Y129.494 
G1 X169.521 Y131.206 
G1 X169.064 Y133.765 
G1 X164.601 Y156.796 
G1 X160.074 Y161.322 
G1 X156.145 Y181.599 
G1 X156.718 Y189.052 
G1 X159.943 Y185.827 
G1 X161.685 Y208.459 
G1 X158.460 Y211.684 
G1 X160.201 Y234.316 
G1 X163.426 Y231.091 
G1 X163.655 Y234.065 
G1 X168.971 Y249.919 
G1 X158.960 Y259.930 
G1  F360000.00000
G1 X172.625 Y160.802 F576000.000
G1  F360000.00000
G1 F28800
G1 X303.460 Y29.967 
G1 X308.275 Y30.834 
G1 X311.999 Y32.943 
G1 X324.573 Y41.085 
G1 X330.919 Y46.937 
G1 X176.865 Y200.991 
G1 X179.167 Y230.918 
G1 X182.230 Y240.054 
G1 X354.511 Y67.774 
G1 X376.219 Y85.643 
G1 X378.092 Y88.622 
G1 X195.594 Y271.120 
G1 X201.862 Y276.284 
G1 X205.117 Y281.253 
G1 X211.908 Y292.158 
G1 X213.828 Y297.315 
G1 X395.244 Y115.898 
G1 X399.578 Y122.789 
G1 X400.027 Y123.590 
G1 X407.029 Y148.542 
G1 X218.910 Y336.661 
G1 X220.884 Y338.273 
G1 X231.435 Y346.259 
G1 X224.391 Y354.986 
G1 X221.225 Y358.683 
G1 X220.377 Y359.621 
G1 X215.849 Y367.089 
G1 X218.083 Y375.319 
G1 X219.541 Y379.346 
G1 X219.878 Y380.122 
G1 X412.793 Y187.207 
G1 X412.895 Y216.701 
G1 X410.739 Y225.833 
G1 X408.141 Y236.288 
G1 X228.250 Y416.179 
G1  F360000.00000
G1 X212.652 Y424.615 F576000.000
G1  F360000.00000
G1 F10800
G1 X219.398 Y417.868 
G1 X215.250 Y408.835 
G1 X211.802 Y400.918 
G1 X203.683 Y409.037 
G1  F360000.00000
G1 X313.096 Y375.761 F576000.000
G1  F360000.00000
G1 F28800
G1 X360.592 Y328.265 
G1 X362.636 Y329.804 
G1 X364.940 Y338.734 
G1 X365.498 Y340.078 
G1 X352.907 Y346.427 
G1 X366.396 Y353.186 
G1 X371.151 Y358.165 
G1 X372.989 Y360.298 
G1 X326.071 Y407.215 
G1 X328.436 Y417.730 F576000.000

G1 F28800
G1 X319.171 Y417.164 
G1 X313.515 Y409.829 
G1 X304.804 Y411.230 
G1 X293.571 Y410.543 
G1 X288.455 Y412.061 
G1 X278.273 Y411.914 
G1 X276.984 Y413.531 
G1 X275.756 Y414.508 
G1 X272.150 Y414.288 
G1 X276.115 Y404.119 
G1 X276.226 Y403.164 
G1 X276.337 Y402.729 
G1 X319.531 Y405.371 
G1 X318.625 Y402.234 
G1 X318.281 Y399.238 
G1 X318.162 Y397.315 
G1 X317.799 Y394.204 
G1 X317.751 Y393.446 
G1 X277.691 Y390.996 
G1 X278.094 Y384.693 
G1 X278.029 Y383.761 
G1 X277.642 Y381.498 
G1 X292.203 Y382.632 
G1 X294.780 Y382.419 
G1 X297.368 Y382.480 
G1 X303.004 Y382.187 
G1 X315.041 Y381.466 
G1 X323.061 Y381.956 

G1 X364.327 Y412.756 F576000.000
G1 F10800
G1 X387.086 Y389.996 
G1 X387.530 Y394.830 
G1 X387.452 Y401.926 
G1 X387.519 Y402.655 
G1 X386.931 Y404.189 
G1 X385.268 Y412.341 
G1 X384.295 Y414.889 
G1 X382.342 Y418.377 
G1 X362.287 Y438.432 
G1  F360000.00000
G1 X415.554 Y242.281 F576000.000
G1  F360000.00000
G1 F10800
G1 X430.476 Y227.359 
G1 X431.995 Y220.352 
G1 X431.937 Y203.552 
G1 X428.569 Y206.920 
G1 X428.492 Y184.651 
G1 X431.860 Y181.283 
G1 X431.804 Y165.135 
G1 X430.458 Y160.339 
G1 X427.488 Y163.309 
G1 X422.591 Y145.860 
G1 X425.561 Y142.889 
G1 X420.664 Y125.440 
G1 X417.694 Y128.410 
G1 X414.919 Y118.519 
G1 X414.541 Y117.355 
G1 X413.083 Y114.759 
G1 X411.507 Y112.252 
G1 X414.665 Y109.094 
G1 X406.038 Y95.374 
G1 X402.880 Y98.532 
G1 X394.253 Y84.813 
G1 X397.411 Y81.655 
G1 X389.899 Y69.710 
G1 X388.314 Y68.405 
G1 X384.558 Y72.162 
G1 X372.301 Y62.073 
G1 X376.057 Y58.316 
G1 X363.800 Y48.227 
G1 X360.044 Y51.984 
G1 X352.588 Y45.845 
G1 X350.334 Y44.668 
G1 X347.785 Y41.896 
G1 X356.565 Y33.116 
G1  F360000.00000
G1 X242.765 Y29.885 F576000.000
G1  F360000.00000
G1 F10800
G1 X173.207 Y99.443 
G1  F360000.00000
G1 X567.082 Y124.323 F576000.000
G1  F360000.00000
G1 F10800
G1 X553.618 Y137.787 
G1 X551.287 Y141.817 
G1 X549.746 Y148.789 
G1 X550.273 Y156.045 
G1 X552.751 Y162.463 
G1 X576.463 Y138.757 
G1 X578.943 Y145.177 
G1 X579.471 Y152.433 
G1 X577.929 Y159.406 
G1 X575.599 Y163.435 
G1 X562.135 Y176.899 
G1  F360000.00000
G1 X567.450 Y240.234 F576000.000
G1  F360000.00000
G1 F10800
G1 X553.986 Y253.698 
G1 X551.656 Y257.728 
G1 X550.114 Y264.700 
G1 X550.642 Y271.956 
G1 X553.119 Y278.373 
G1 X576.832 Y254.667 
G1 X579.312 Y261.088 
G1 X579.840 Y268.344 
G1 X578.298 Y275.316 
G1 X575.968 Y279.346 
G1 X562.503 Y292.810 
G1  F360000.00000
G1 X493.860 Y314.485 F576000.000
G1  F360000.00000
G1 F10800
G1 X480.396 Y327.949 
G1 X478.065 Y331.978 
G1 X476.524 Y338.951 
G1 X477.052 Y346.207 
G1 X479.529 Y352.624 
G1 X503.241 Y328.918 
G1 X505.721 Y335.339 
G1 X506.249 Y342.595 
G1 X504.707 Y349.567 
G1 X502.377 Y353.596 
G1 X488.913 Y367.061 
G1  F360000.00000
