%
(Header)
(Generated by gcodetools from Inkscape.)
(Using default header. To add your own header create file "header" in the output dir.)
M3
(Header end.)
G21 (All units in mm)

(fake homing... I know, it's bad.  WHATEVS)
G91
G0 X-600 Y-600 F3000.000
G92 X0 Y0
G90

(Start cutting path id: path3959)
(Change tool to Cylindrical cutter)

G00 Z0.100000
G00 X298.202174 Y298.192066

G01 Z-0.100000 F100.0(Penetrate)
G02 X298.611795 Y297.103994 Z-0.100000 I-0.187061 J-0.691562 F12000.000000
G02 X297.735050 Y296.444204 Z-0.100000 I-1.373502 J0.912729
G02 X295.542550 Y297.070895 Z-0.100000 I-0.622530 J1.970671
G02 X294.727405 Y299.131957 Z-0.100000 I2.587572 J2.215102
G02 X296.245664 Y302.395460 Z-0.100000 I3.888235 J0.176018
G02 X299.603564 Y303.435652 Z-0.100000 I3.085069 J-4.019072
G02 X303.910851 Y301.057540 Z-0.100000 I-0.304187 J-5.640731
G02 X305.151721 Y296.312284 Z-0.100000 I-5.683523 J-4.021094
G02 X301.922344 Y290.885393 Z-0.100000 I-7.491121 J0.783439
G02 X295.866536 Y289.452756 Z-0.100000 I-4.879534 J7.110591
G02 X289.397709 Y293.531361 Z-0.100000 I1.262868 J9.172168
G02 X287.777867 Y301.011739 Z-0.100000 I8.853863 J5.832836
G02 X292.699591 Y308.622483 Z-0.100000 I11.027787 J-1.734695
G02 X301.472078 Y310.427100 Z-0.100000 I6.672765 J-10.212787
G02 X310.113234 Y304.656906 Z-0.100000 I-2.213884 J-12.670783
G02 X312.101259 Y294.432503 Z-0.100000 I-12.023348 J-7.643287
G02 X305.492196 Y284.631523 Z-0.100000 I-14.545307 J2.679466
G02 X293.998023 Y282.461308 Z-0.100000 I-8.465565 J13.312850
G02 X283.180424 Y289.920030 Z-0.100000 I3.160589 J16.157790
G02 X280.828321 Y302.891520 Z-0.100000 I15.190368 J9.453447
G02 X289.122675 Y314.885528 Z-0.100000 I18.054976 J-3.620816
G02 X303.340592 Y317.418548 Z-0.100000 I10.258339 J-16.411061
G02 X316.336623 Y308.272706 Z-0.100000 I-4.104926 J-19.639459
G02 X319.050806 Y292.552721 Z-0.100000 I-18.355709 J-11.263567
G02 X309.072185 Y278.364208 Z-0.100000 I-21.560751 J4.560250
G02 X292.129509 Y275.469860 Z-0.100000 I-12.051146 J19.507992
G02 X276.953917 Y286.302062 Z-0.100000 I5.047850 J23.118266
G02 X273.878783 Y304.771302 Z-0.100000 I21.519927 J13.073699
G02 X285.541067 Y321.155191 Z-0.100000 I25.064251 J-5.498454
G02 X305.209106 Y324.409995 Z-0.100000 I13.844020 J-22.604116
G02 X322.564944 Y311.891896 Z-0.100000 I-5.989879 J-26.595360
G02 X326.000344 Y290.672940 Z-0.100000 I-24.683417 J-14.883881
G02 X312.654759 Y272.093119 Z-0.100000 I-28.566409 J6.435921
G02 X290.260995 Y268.478412 Z-0.100000 I-15.636946 J25.699646
G02 X270.724443 Y282.682116 Z-0.100000 I6.931305 J30.071370
G02 X266.929236 Y306.651083 Z-0.100000 I27.846373 J16.694097
G02 X281.957874 Y327.427213 Z-0.100000 I32.067637 J-7.372843
G02 X307.077619 Y331.401443 Z-0.100000 I17.429921 J-28.794788
G02 X328.795190 Y315.512344 Z-0.100000 I-7.872304 J-33.546615
G02 X332.949881 Y288.793158 Z-0.100000 I-31.008947 J-18.504336
G02 X316.238372 Y265.820445 Z-0.100000 I-35.568204 J8.309352
G02 X288.392481 Y261.486965 Z-0.100000 I-19.222920 J31.889611
G02 X264.493653 Y279.061318 Z-0.100000 I8.812989 J37.021337
G02 X259.979698 Y308.530865 Z-0.100000 I34.171264 J20.314616
G02 X278.373961 Y333.700356 Z-0.100000 I39.068324 J-9.245596
G02 X308.946133 Y338.392891 Z-0.100000 I21.015959 J-34.984228
G02 X335.026387 Y319.133394 Z-0.100000 I-9.753445 J-40.495670
G02 X339.899428 Y286.913377 Z-0.100000 I-37.333343 J-22.124909
G02 X319.822508 Y259.546960 Z-0.100000 I-42.568101 J10.181626
G02 X286.523958 Y254.495517 Z-0.100000 I-22.809025 J38.078669
G02 X258.262152 Y275.440074 Z-0.100000 I10.693718 J43.969699
G02 X253.030160 Y310.410646 Z-0.100000 I40.495247 J23.935214
G02 X274.789658 Y339.974105 Z-0.100000 I46.067610 J-11.117479
G02 X310.814647 Y345.384339 Z-0.100000 I24.602104 J-41.172948
G02 X341.258118 Y322.754781 Z-0.100000 I-11.633850 J-47.443511
G02 X346.848966 Y285.033595 Z-0.100000 I-43.657039 J-25.745549
G02 X323.406939 Y253.273001 Z-0.100000 I-49.566919 J12.053210
G02 X284.655444 Y247.504068 Z-0.100000 I-26.395205 J44.267141
G02 X252.030237 Y271.818572 Z-0.100000 I12.573873 J50.917134
G02 X246.080613 Y312.290428 Z-0.100000 I46.818727 J27.555899
G02 X271.205124 Y346.248231 Z-0.100000 I53.066070 J-12.988836
G02 X312.683161 Y352.375787 Z-0.100000 I28.188311 J-47.361223
G02 X347.490184 Y326.376370 Z-0.100000 I-13.513790 J-54.390608
G02 X353.798513 Y283.153813 Z-0.100000 I-49.980337 J-29.366255
G02 X326.991559 Y246.998742 Z-0.100000 I-56.565073 J13.924362
G02 X282.786931 Y240.512621 Z-0.100000 I-29.981439 J50.455254
G02 X245.798049 Y268.196908 Z-0.100000 I14.453643 J57.863965
G02 X239.131075 Y314.170209 Z-0.100000 I53.141841 J31.176612
G02 X267.620434 Y352.522601 Z-0.100000 I60.063963 J-14.859805
G02 X314.551675 Y359.367235 Z-0.100000 I31.774565 J-53.549187
G02 X353.722470 Y329.998100 Z-0.100000 I-15.393431 J-61.337238
G02 X360.748051 Y281.274031 Z-0.100000 I-56.303286 J-32.986984
G02 X330.576305 Y240.724284 Z-0.100000 I-63.562765 J15.795201
G02 X280.918417 Y233.521173 Z-0.100000 I-33.567718 J56.643115
G02 X239.565677 Y264.575131 Z-0.100000 I16.333165 J64.810413
G02 X232.181529 Y316.049991 Z-0.100000 I59.464705 J34.797368
G02 X264.035645 Y358.797138 Z-0.100000 I67.061521 J-16.730564
G02 X316.420188 Y366.358686 Z-0.100000 I35.360860 J-59.736952
G02 X359.954909 Y333.619920 Z-0.100000 I-17.272856 J-68.283524
G02 X367.697589 Y279.394250 Z-0.100000 I-62.626073 J-36.607750
G02 X334.161138 Y234.449682 Z-0.100000 I-70.560141 J17.665825
G02 X279.049903 Y226.529725 Z-0.100000 I-37.154025 J62.830800
G02 X233.333174 Y260.953276 Z-0.100000 I18.212497 J71.756567
G02 X225.231991 Y317.929772 Z-0.100000 I65.787392 J38.418137
G02 X260.450783 Y365.071793 Z-0.100000 I74.058779 J-18.601113
G02 X318.288702 Y373.350130 Z-0.100000 I38.947177 J-65.924572
G02 X366.187466 Y337.241806 Z-0.100000 I-19.152106 J-75.229564
G02 X374.647136 Y277.514468 Z-0.100000 I-68.948701 J-40.228542
G02 X337.746032 Y228.174976 Z-0.100000 I-77.557324 J19.536326
G02 X277.181389 Y219.538277 Z-0.100000 I-40.740354 J69.018351
G02 X227.100580 Y257.331360 Z-0.100000 I20.091697 J78.702516
G02 X218.282453 Y319.809555 Z-0.100000 I72.109959 J42.038937
G02 X256.865864 Y371.346540 Z-0.100000 I81.055842 J-20.471524
G02 X320.157216 Y380.341574 Z-0.100000 I42.533512 J-72.112068
G02 X372.420104 Y340.863743 Z-0.100000 I-21.031255 J-82.175445
G02 X381.596673 Y275.634687 Z-0.100000 I-75.271173 J-43.849336
G02 X341.330973 Y221.900192 Z-0.100000 I-84.554309 J21.406681
G02 X275.312875 Y212.546829 Z-0.100000 I-44.326700 J75.205803
G02 X220.867903 Y253.709404 Z-0.100000 I21.970795 J85.648326
G02 X211.332906 Y321.689337 Z-0.100000 I78.432406 J45.659746
G02 X253.280899 Y377.621356 Z-0.100000 I88.052781 J-22.341854
G02 X322.025730 Y387.333028 Z-0.100000 I46.119877 J-78.299489
G02 X378.652807 Y344.485720 Z-0.100000 I-22.910308 J-89.121179
G02 X388.546220 Y273.754905 Z-0.100000 I-81.593619 J-47.470163
G02 X344.915946 Y215.625347 Z-0.100000 I-91.551215 J23.276995
G02 X273.444362 Y205.555381 Z-0.100000 I-47.913057 J81.393161
G02 X214.635175 Y250.087412 Z-0.100000 I23.849811 J92.594005
G02 X204.383368 Y323.569118 Z-0.100000 I84.754779 J49.280564
G02 X249.695901 Y383.896220 Z-0.100000 I95.049576 J-24.212078
G02 X323.894253 Y394.324472 Z-0.100000 I49.706252 J-84.486845
G02 X384.885557 Y348.107726 Z-0.100000 I-24.789300 J-96.066806
G02 X395.495758 Y271.875123 Z-0.100000 I-87.915959 J-51.090988
G02 X348.500954 Y209.350455 Z-0.100000 I-98.547971 J25.147190
G02 X271.575848 Y198.563934 Z-0.100000 I-51.499431 J87.580474
G02 X208.402406 Y246.465391 Z-0.100000 I25.728767 J99.539591
G02 X197.433821 Y325.448900 Z-0.100000 I91.077121 J52.901414
G02 X246.110887 Y390.171138 Z-0.100000 I102.046329 J-26.082278
G02 X325.762767 Y401.315925 Z-0.100000 I53.292628 J-90.674125
G02 X391.118348 Y351.729762 Z-0.100000 I-26.668225 J-103.012350
G02 X402.445296 Y269.995342 Z-0.100000 I-94.238252 J-54.711826
G02 X352.085985 Y203.075523 Z-0.100000 I-105.544652 J27.017330
G02 X269.707334 Y191.572486 Z-0.100000 I-55.085810 J93.767725
G02 X202.169591 Y242.843353 Z-0.100000 I27.607669 J106.485111
G02 X190.484283 Y327.328681 Z-0.100000 I97.399356 J56.522239
G02 X242.525845 Y396.446081 Z-0.100000 I109.042969 J-27.952395
G02 X327.631280 Y408.307369 Z-0.100000 I56.879014 J-96.861367
G02 X397.351176 Y355.351810 Z-0.100000 I-28.547103 J-109.957833
G02 X409.394843 Y268.115560 Z-0.100000 I-100.560492 J-58.332674
G02 X355.671033 Y196.800559 Z-0.100000 I-112.541278 J28.887438
G02 X267.838820 Y184.581038 Z-0.100000 I-58.672196 J99.954949
G02 X195.936755 Y239.221293 Z-0.100000 I29.486532 J113.430562
G02 X183.534746 Y329.208463 Z-0.100000 I103.721575 J60.143087
G02 X238.940788 Y402.721057 Z-0.100000 I116.039560 J-29.822472
G02 X329.499794 Y415.298814 Z-0.100000 I60.465398 J-103.048546
G02 X403.584029 Y358.973876 Z-0.100000 I-30.425942 J-116.903260
G02 X416.344381 Y266.235778 Z-0.100000 I-106.882671 J-61.953515
G02 X359.256100 Y190.525578 Z-0.100000 I-119.537837 J30.757500
G02 X265.970306 Y177.589593 Z-0.100000 I-62.258597 J106.142142
G02 X189.703889 Y235.599223 Z-0.100000 I31.365349 J120.375954
G02 X176.585199 Y331.088244 Z-0.100000 I110.043785 J63.763948
G02 X235.355724 Y408.996059 Z-0.100000 I123.036126 J-31.692541
G02 X331.368308 Y422.290267 Z-0.100000 I64.051799 J-109.235731
G02 X409.816904 Y362.595953 Z-0.100000 I-32.304773 J-123.848658
G02 X423.293928 Y264.355997 Z-0.100000 I-113.204858 J-65.574379
G02 X362.841175 Y184.250568 Z-0.100000 I-126.534381 J32.627553
G02 X264.101793 Y170.598140 Z-0.100000 I-65.845004 J112.329311
G02 X183.471007 Y231.977137 Z-0.100000 I33.244163 J127.321328
G02 X169.635661 Y332.968026 Z-0.100000 I116.365936 J67.384803
G02 X231.770636 Y415.271073 Z-0.100000 I130.032624 J-33.562555
G02 X333.236822 Y429.281711 Z-0.100000 I67.638202 J-115.422863
G02 X416.049796 Y366.218042 Z-0.100000 I-34.183539 J-130.793976
G02 X430.243465 Y262.476215 Z-0.100000 I-119.527017 J-69.195239
G02 X366.426258 Y177.975543 Z-0.100000 I-133.530867 J34.497562
G02 X262.233279 Y163.606695 Z-0.100000 I-69.431405 J118.516439
G02 X177.238104 Y228.355042 Z-0.100000 I35.122927 J134.266647
G02 X162.686114 Y334.847807 Z-0.100000 I122.688076 J71.005672
G02 X228.185547 Y421.546109 Z-0.100000 I137.029098 J-35.432558
G02 X335.105336 Y436.273164 Z-0.100000 I71.224619 J-121.610019
G02 X422.282709 Y369.840142 Z-0.100000 I-36.062304 J-137.739291
G02 X437.193003 Y260.596434 Z-0.100000 I-125.849125 J-72.816091
G02 X370.011360 Y171.700500 Z-0.100000 I-140.527300 J36.367523
G02 X260.364765 Y156.615242 Z-0.100000 I-73.017826 J124.703569
G02 X171.005186 Y224.732941 Z-0.100000 I37.001704 J141.211967
G02 X155.736576 Y336.727589 Z-0.100000 I129.010169 J74.626528
G02 X224.600444 Y427.821161 Z-0.100000 I144.025528 J-37.302516
G02 X336.973849 Y443.264609 Z-0.100000 I74.811019 J-127.797099
G02 X428.515631 Y373.462248 Z-0.100000 I-37.941040 J-144.684563
G02 X444.142550 Y258.716652 Z-0.100000 I-132.171254 J-76.436971
G02 X373.596465 Y165.425446 Z-0.100000 I-147.523766 J38.237522
G02 X258.496251 Y149.623798 Z-0.100000 I-76.604231 J130.890629
G02 X164.772260 Y221.110826 Z-0.100000 I38.880411 J148.157202
G02 X148.787038 Y338.607370 Z-0.100000 I135.332285 J78.247401
G02 X221.015331 Y434.096217 Z-0.100000 I151.021928 J-39.172460
G02 X338.842363 Y450.256053 Z-0.100000 I78.397437 J-133.984189
G02 X434.748564 Y377.084363 Z-0.100000 I-39.819767 J-151.629822
G02 X451.092088 Y256.836870 Z-0.100000 I-138.493321 J-80.057837
G02 X377.181574 Y159.150379 Z-0.100000 I-154.520152 J40.107454
G02 X256.627737 Y142.632354 Z-0.100000 I-80.190641 J137.077713
G02 X158.539317 Y217.488711 Z-0.100000 I40.759127 J155.102451
G02 X141.837491 Y340.487152 Z-0.100000 I141.654361 J81.868275
G02 X217.430221 Y440.371290 Z-0.100000 I158.018351 J-41.042430
G02 X340.710877 Y457.247506 Z-0.100000 I81.983860 J-140.171268
G02 X440.981512 Y380.706483 Z-0.100000 I-41.698497 J-158.575082
G02 X458.041635 Y254.957089 Z-0.100000 I-144.815387 J-83.678711
G02 X380.766695 Y152.875301 Z-0.100000 I-161.516543 J41.977393
G02 X254.759223 Y135.640900 Z-0.100000 I-83.777069 J143.264793
G02 X152.306369 Y213.866588 Z-0.100000 I42.637844 J162.047686
G02 X134.887954 Y342.366933 Z-0.100000 I147.976430 J85.489147
G02 X213.845100 Y446.646372 Z-0.100000 I165.014710 J-42.912337
G02 X342.579391 Y464.238950 Z-0.100000 I85.570272 J-146.358318
G02 X447.214468 Y384.328607 Z-0.100000 I-43.577178 J-165.520280
G02 X464.991173 Y253.077307 Z-0.100000 I-151.137450 J-87.299580
G02 X384.351814 Y146.600218 Z-0.100000 I-168.512891 J43.847302
G02 X252.890701 Y128.649456 Z-0.100000 I-87.363493 J149.451874
G02 X146.073408 Y210.244461 Z-0.100000 I44.516541 J168.992891
G02 X127.938407 Y344.246716 Z-0.100000 I154.298491 J89.110027
G02 X210.259982 Y452.921464 Z-0.100000 I172.011100 J-44.782283
G02 X344.447905 Y471.230403 Z-0.100000 I89.156697 J-152.545374
G02 X453.447425 Y387.950738 Z-0.100000 I-45.455885 J-172.465496
G02 X471.940711 Y251.197525 Z-0.100000 I-157.459500 J-90.920459
G02 X387.936946 Y140.325126 Z-0.100000 I-175.509233 J45.717199
G02 X251.022187 Y121.658003 Z-0.100000 I-90.949926 J155.638922
G02 X139.840442 Y206.622329 Z-0.100000 I46.395232 J175.938092
G02 X120.988869 Y346.126498 Z-0.100000 I160.620535 J92.730900
G02 X206.674848 Y459.196558 Z-0.100000 I179.007409 J-46.652158
G02 X346.316419 Y478.221848 Z-0.100000 I92.743123 J-158.732430
G02 X459.680401 Y391.572871 Z-0.100000 I-47.334539 J-179.410666
G02 X478.890257 Y249.317744 Z-0.100000 I-163.781549 J-94.541337
G02 X391.522072 Y134.050026 Z-0.100000 I-182.505592 J47.587123
G02 X249.153673 Y114.666559 Z-0.100000 I-94.536343 J161.825951
G02 X133.607470 Y203.000192 Z-0.100000 I48.273899 J182.883268
G02 X114.039331 Y348.006279 Z-0.100000 I166.942552 J96.351773
G02 X203.089713 Y465.471660 Z-0.100000 I186.003748 J-48.522055
G02 X348.184932 Y485.213301 Z-0.100000 I96.329556 J-164.919453
G02 X465.913375 Y395.195007 Z-0.100000 I-49.213236 J-186.355869
G02 X485.839795 Y247.437962 Z-0.100000 I-170.103559 J-98.162211
G02 X395.107207 Y127.774921 Z-0.100000 I-189.501906 J49.457004
G02 X247.285159 Y107.675115 Z-0.100000 I-98.122766 J168.012972
G02 X127.374491 Y199.378048 Z-0.100000 I50.152538 J189.828416
G02 X107.089784 Y349.886061 Z-0.100000 I173.264593 J99.972664
G02 X199.504582 Y471.746769 Z-0.100000 I193.000077 J-50.391958
G02 X350.053446 Y492.204745 Z-0.100000 I99.915978 J-171.106485
G02 X472.146354 Y398.817150 Z-0.100000 I-51.091881 J-193.301015
G02 X492.789342 Y245.558181 Z-0.100000 I-176.425608 J-101.783107
G02 X398.692347 Y121.499809 Z-0.100000 I-196.498236 J51.326900
G02 X245.416645 Y100.683661 Z-0.100000 I-101.709202 J174.199999
G02 X121.141506 Y195.755907 Z-0.100000 I52.031208 J196.773585
G02 X100.140246 Y351.765842 Z-0.100000 I179.586608 J103.593540
G02 X195.919436 Y478.021882 Z-0.100000 I199.996371 J-52.261817
G02 X351.921960 Y499.196189 Z-0.100000 I103.502403 J-177.293484
G02 X478.379341 Y402.439291 Z-0.100000 I-52.970537 J-200.246173
G02 X499.738880 Y243.678399 Z-0.100000 I-182.747601 J-105.403980
G02 X402.277489 Y115.224694 Z-0.100000 I-203.494524 J53.196759
G02 X243.548131 Y93.692217 Z-0.100000 I-105.295627 J180.387007
G02 X114.908516 Y192.133763 Z-0.100000 I53.909847 J203.718726
G02 X93.190699 Y353.645624 Z-0.100000 I185.908630 J107.214429
G02 X192.334294 Y484.297000 Z-0.100000 I206.992685 J-54.131704
G02 X353.790474 Y506.187643 Z-0.100000 I107.088843 J-183.480511
G02 X484.612330 Y406.061441 Z-0.100000 I-54.849181 J-207.191309
G02 X506.688418 Y241.798618 Z-0.100000 I-189.069623 J-109.024863
G02 X405.862625 Y108.949572 Z-0.100000 I-210.490821 J55.066629
G02 X241.679618 Y86.700764 Z-0.100000 I-108.882063 J186.574030
G02 X108.675524 Y188.511618 Z-0.100000 I55.788521 J210.663895
G02 X86.241161 Y355.525405 Z-0.100000 I192.230620 J110.835307
G02 X188.749151 Y490.572123 Z-0.100000 I213.988968 J-56.001561
G02 X355.658988 Y513.179087 Z-0.100000 I110.675266 J-189.667507
G02 X490.845326 Y409.683589 Z-0.100000 I-56.727816 J-214.136442
G02 X513.637965 Y239.918836 Z-0.100000 I-195.391634 J-112.645755
G02 X409.447779 Y102.674448 Z-0.100000 I-217.487108 J56.936490
G02 X239.811104 Y79.709320 Z-0.100000 I-112.468491 J192.761020
G02 X102.442528 Y184.889465 Z-0.100000 I57.667139 J217.609008
G02 X79.291619 Y357.405187 Z-0.100000 I198.552625 J114.456195
G02 X185.164008 Y496.847246 Z-0.100000 I220.985257 J-57.871432
G02 X357.527511 Y520.170540 Z-0.100000 I114.261716 J-195.854542
G02 X497.078324 Y413.305746 Z-0.100000 I-58.606463 J-221.081571
G02 X520.587503 Y238.039055 Z-0.100000 I-201.713626 J-116.266638
G02 X413.032918 Y96.399321 Z-0.100000 I-224.483384 J58.806351
G02 X237.942590 Y72.717875 Z-0.100000 I-116.054919 J198.948029
G02 X96.209529 Y181.267312 Z-0.100000 I59.545766 J224.554128
G02 X72.342078 Y359.284968 Z-0.100000 I204.874616 J118.077082
G02 X181.578863 Y503.122377 Z-0.100000 I227.981531 J-59.741286
G02 X359.396024 Y527.161984 Z-0.100000 I117.848141 J-202.041538
G02 X443.864098 Y484.562773 Z-0.100000 I-58.778471 J-221.592798
G02 X502.539958 Y416.243295 Z-0.100000 I-151.921942 J-189.833921
G02 X532.453069 Y331.181446 Z-0.100000 I-212.087230 J-122.373839
G02 X527.537049 Y236.159272 Z-0.100000 I-231.346799 J-35.669410
G02 X416.618072 Y90.124188 Z-0.100000 I-231.479669 J60.676209
G02 X236.074076 Y65.726422 Z-0.100000 I-119.641358 J205.135021
G02 X150.324268 Y108.978910 Z-0.100000 I59.691575 J224.968443
G02 X90.759247 Y178.340840 Z-0.100000 I154.246362 J192.716987
G02 X60.395706 Y264.697510 Z-0.100000 I215.314496 J124.222254
G02 X65.392536 Y361.164750 Z-0.100000 I234.857437 J36.197839
G02 X177.993709 Y509.397508 Z-0.100000 I234.977798 J-61.611134
G02 X361.264538 Y534.153428 Z-0.100000 I121.434572 J-208.228517
G02 X448.296074 Y490.247675 Z-0.100000 I-60.604631 J-228.344009
G02 X508.750254 Y419.843292 Z-0.100000 I-156.570773 J-195.600041
G02 X539.564226 Y332.191799 Z-0.100000 I-218.541786 J-126.070677
G02 X534.486587 Y234.279491 Z-0.100000 I-238.368094 J-36.726273
G02 X420.203222 Y83.849053 Z-0.100000 I-238.475924 J62.546045
G02 X234.205562 Y58.734978 Z-0.100000 I-123.227786 J211.322006
G02 X145.892293 Y103.294008 Z-0.100000 I61.517738 J231.719654
G02 X84.548951 Y174.740845 Z-0.100000 I158.895199 J198.483112
G02 X53.284547 Y263.687160 Z-0.100000 I221.769063 J127.919098
G02 X58.442995 Y363.044536 Z-0.100000 I241.878745 J37.254708
G02 X174.408558 Y515.672645 Z-0.100000 I241.974062 J-63.480984
G02 X363.133052 Y541.144882 Z-0.100000 I125.021014 J-214.415522
G02 X452.728054 Y495.932579 Z-0.100000 I-62.430818 J-235.095252
G02 X514.960553 Y423.443289 Z-0.100000 I-161.219609 J-201.366156
G02 X546.675384 Y333.202151 Z-0.100000 I-224.996345 J-129.767510
G02 X541.436125 Y232.399709 Z-0.100000 I-245.389414 J-37.783136
G02 X423.788375 Y77.573920 Z-0.100000 I-245.472189 J64.415895
G02 X232.337049 Y51.743525 Z-0.100000 I-126.814235 J217.509003
G02 X141.460312 Y97.609099 Z-0.100000 I63.343904 J238.470869
G02 X78.338649 Y171.140845 Z-0.100000 I163.544035 J204.249228
G02 X46.173385 Y262.676808 Z-0.100000 I228.223631 J131.615938
G02 X51.493453 Y364.924317 Z-0.100000 I248.900055 J38.311573
G02 X170.823397 Y521.947780 Z-0.100000 I248.970315 J-65.350819
G02 X365.001566 Y548.136326 Z-0.100000 I128.607449 J-220.602494
G02 X457.160030 Y501.617485 Z-0.100000 I-64.256968 J-241.846439
G02 X521.170854 Y427.043285 Z-0.100000 I-165.868454 J-207.132290
G02 X553.786549 Y334.212499 Z-0.100000 I-231.450920 J-133.464365
G02 X548.385672 Y230.519928 Z-0.100000 I-252.410682 J-38.840008
G02 X427.373526 Y71.298778 Z-0.100000 I-252.468457 J66.285746
G02 X230.468535 Y44.752080 Z-0.100000 I-130.400660 J223.695977
G02 X137.028330 Y91.924195 Z-0.100000 I65.170057 J245.222070
G02 X72.128346 Y167.540847 Z-0.100000 I168.192855 J210.015336
G02 X39.062222 Y261.666456 Z-0.100000 I234.678183 J135.312775
G02 X44.543912 Y366.804098 Z-0.100000 I255.921352 J39.368438
G02 X167.238242 Y528.222921 Z-0.100000 I255.966571 J-67.220658
G02 X366.870080 Y555.127779 Z-0.100000 I132.193895 J-226.789488
G02 X461.592012 Y507.302393 Z-0.100000 I-66.083147 J-248.597667
G02 X527.381157 Y430.643285 Z-0.100000 I-170.517285 J-212.898401
G02 X560.897711 Y335.222853 Z-0.100000 I-237.905470 J-137.161198
G02 X555.335210 Y228.640146 Z-0.100000 I-259.431989 J-39.896872
G02 X507.337173 Y132.530320 Z-0.100000 I-253.622525 J66.620953
G02 X430.754097 Y66.069176 Z-0.100000 I-214.335605 J169.624739
G02 X335.201142 Y32.131525 Z-0.100000 I-137.501247 J235.655226
G02 X228.600021 Y37.760636 Z-0.100000 I-39.906242 J256.469046
G02 X132.596351 Y86.239286 Z-0.100000 I66.996192 J251.973240
G02 X65.918043 Y163.940846 Z-0.100000 I172.841675 J215.781446
G02 X31.951057 Y260.656104 Z-0.100000 I241.132742 J139.009618
G02 X37.594371 Y368.683879 Z-0.100000 I262.942639 J40.425305
G02 X86.243586 Y466.085475 Z-0.100000 I257.042874 J-67.535093
G02 X163.861047 Y533.438832 Z-0.100000 I217.218418 J-171.921193
G02 X260.701867 Y567.829522 Z-0.100000 I139.341761 J-238.830292
G02 X368.738593 Y562.119223 Z-0.100000 I40.431349 J-259.916428
G02 X466.023994 Y512.987302 Z-0.100000 I-67.909285 J-255.348845
G02 X533.591464 Y434.243285 Z-0.100000 I-175.166109 J-218.664516
G02 X568.008881 Y336.233202 Z-0.100000 I-244.360029 J-140.858045
G02 X562.284757 Y226.760364 Z-0.100000 I-266.453263 J-40.953741
G02 X512.984360 Y128.066991 Z-0.100000 I-260.463248 J68.449234
G02 X434.332516 Y59.821420 Z-0.100000 I-220.101223 J174.217634
G02 X336.203832 Y24.977693 Z-0.100000 I-141.182262 J242.005331
G02 X226.731507 Y30.769183 Z-0.100000 I-40.956443 J263.363768
G02 X128.164368 Y80.554378 Z-0.100000 I68.822381 J258.724475
G02 X59.707738 Y160.340848 Z-0.100000 I177.490517 J221.547567
G02 X24.839891 Y259.645754 Z-0.100000 I247.587291 J142.706457
G02 X30.644829 Y370.563660 Z-0.100000 I269.963918 J41.482173
G02 X80.596397 Y470.548804 Z-0.100000 I263.883556 J-69.363340
G02 X160.282626 Y539.686587 Z-0.100000 I222.984015 J-176.514064
G02 X259.699176 Y574.983350 Z-0.100000 I143.022764 J-245.180384
G02 X370.607107 Y569.110668 Z-0.100000 I41.481540 J-266.811145
G02 X470.455977 Y518.672211 Z-0.100000 I-69.735432 J-262.100036
G02 X539.801770 Y437.843288 Z-0.100000 I-179.814915 J-224.430614
G02 X575.120047 Y337.243558 Z-0.100000 I-250.814559 J-144.554874
G02 X569.234295 Y224.880583 Z-0.100000 I-273.474552 J-42.010605
G02 X518.631549 Y123.603661 Z-0.100000 I-267.303930 J70.277475
G02 X437.910941 Y53.573665 Z-0.100000 I-225.866808 J178.810485
G02 X337.206530 Y17.823865 Z-0.100000 I-144.863260 J248.355407
G02 X224.862993 Y23.777739 Z-0.100000 I-42.006639 J270.258512
G02 X123.732386 Y74.869465 Z-0.100000 I70.648503 J265.475627
G02 X53.497430 Y156.740844 Z-0.100000 I182.139327 J227.313667
G02 X17.728723 Y258.635401 Z-0.100000 I254.041845 J146.403298
G02 X23.695288 Y372.443442 Z-0.100000 I276.985203 J42.539040
G02 X74.949206 Y475.012133 Z-0.100000 I270.724243 J-71.191588
G02 X156.704200 Y545.934343 Z-0.100000 I228.749611 J-181.106928
G02 X258.696478 Y582.137181 Z-0.100000 I146.703778 J-251.530480
G02 X372.475621 Y576.102121 Z-0.100000 I42.531749 J-273.705904
G02 X474.887959 Y524.357123 Z-0.100000 I-71.561603 J-268.851242
G02 X546.012077 Y441.443288 Z-0.100000 I-184.463759 J-230.196737
G02 X582.231217 Y338.253907 Z-0.100000 I-257.269126 J-148.251725
G02 X576.183841 Y223.000801 Z-0.100000 I-280.495837 J-43.067480
G02 X524.278745 Y119.140333 Z-0.100000 I-274.144591 J72.105716
G02 X441.489367 Y47.325909 Z-0.100000 I-231.632413 J183.403368
G02 X338.209222 Y10.670033 Z-0.100000 I-148.544283 J254.705529
G02 X222.994480 Y16.786286 Z-0.100000 I-43.056846 J277.153254
G02 X119.300402 Y69.184553 Z-0.100000 I72.474678 J272.226840
G02 X47.287123 Y153.140843 Z-0.100000 I186.788162 J233.079783
G02 X10.617553 Y257.625050 Z-0.100000 I260.496393 J150.100138
G02 X16.745746 Y374.323223 Z-0.100000 I284.006477 J43.595907
G02 X69.302014 Y479.475463 Z-0.100000 I277.564918 J-73.019830
G02 X153.125776 Y552.182101 Z-0.100000 I234.515208 J-185.699795
G02 X257.693785 Y589.291013 Z-0.100000 I150.384779 J-257.880561
G02 X374.344135 Y583.093565 Z-0.100000 I43.581940 J-280.600603
G02 X479.319947 Y530.042034 Z-0.100000 I-73.387729 J-275.602401
G02 X552.222387 Y445.043291 Z-0.100000 I-189.112558 J-235.962820
G02 X589.342385 Y339.264259 Z-0.100000 I-263.723670 J-151.948556
G02 X583.133379 Y221.121020 Z-0.100000 I-287.517132 J-44.124342
G02 X529.925937 Y114.677003 Z-0.100000 I-280.985245 J73.933942
G02 X445.067791 Y41.078150 Z-0.100000 I-237.398003 J187.996225
G02 X339.211916 Y3.516201 Z-0.100000 I-152.225285 J261.055609
G02 X221.125966 Y9.794841 Z-0.100000 I-44.107038 J284.047957
G02 X114.868418 Y63.499641 Z-0.100000 I74.300811 J278.978005
G02 X41.076813 Y149.540839 Z-0.100000 I191.436973 J238.845883
G02 X3.506383 Y256.614697 Z-0.100000 I266.950935 J153.796976
G02 X9.796205 Y376.203004 Z-0.100000 I291.027747 J44.652774
G02 X63.654823 Y483.938797 Z-0.100000 I284.405586 J-74.848067
G02 X149.547352 Y558.429861 Z-0.100000 I240.280791 J-190.292654
G02 X256.691093 Y596.444847 Z-0.100000 I154.065792 J-264.230667
G02 X376.212649 Y590.085018 Z-0.100000 I44.632147 J-287.495367
G02 X483.751930 Y535.726950 Z-0.100000 I-75.213888 J-282.353589
G02 X558.432696 Y448.643295 Z-0.100000 I-193.761388 J-241.728932
G02 X596.453555 Y340.274610 Z-0.100000 I-270.178213 J-155.645393
G02 X590.082917 Y219.241238 Z-0.100000 I-294.538386 J-45.181205
G00 Z0.100000

(End cutting path id: path3959)


(Footer)
M5
G00 X0.0000 Y0.0000
M2
(Using default footer. To add your own footer create file "footer" in the output dir.)
(end)
%